; generated by PrusaSlicer 2.3.3 on 2021-12-17 at 14:04:19 UTC


;
;

;
;
; 

; external perimeters extrusion width = 0.45mm
; perimeters extrusion width = 0.45mm
; infill extrusion width = 0.45mm
; solid infill extrusion width = 0.45mm
; top infill extrusion width = 0.40mm
; first layer extrusion width = 0.42mm

M73 P0 R48
M201 X1250 Y1250 Z400 E5000 ; sets maximum accelerations, mm/sec^2
M203 X180 Y180 Z12 E80 ; sets maximum feedrates, mm/sec
M204 P1250 R1250 T1250 ; sets acceleration (P, T) and retract acceleration (R), mm/sec^2
M205 X8.00 Y8.00 Z2.00 E10.00 ; sets the jerk limits, mm/sec
M205 S0 T0 ; sets the minimum extruding and travel feed rate, mm/sec
M107
;TYPE:Custom
G90 ; use absolute coordinates
M83 ; extruder relative mode
M104 S170 ; set extruder temp for bed leveling
M140 S60 ; set bed temp
M109 R170 ; wait for bed leveling temp
M190 S60 ; wait for bed temp
G28 ; home all without mesh bed level
G29 ; mesh bed leveling 
M104 S225 ; set extruder temp
G92 E0.0
G1 Y-2.0 X179 F2400
G1 Z3 F720
M109 S225 ; wait for extruder temp

; intro line
G1 X170 F1000
G1 Z0.2 F720
G1 X110.0 E8.0 F900
G1 X40.0 E10.0 F700
G92 E0.0

M221 S95 ; set flow
G21 ; set units to millimeters
G90 ; use absolute coordinates
M83 ; use relative distances for extrusion
M900 K0.2 ; Filament gcode LA 1.5
; ; Filament gcode LA 1.0
;LAYER_CHANGE
;Z:0.2
;HEIGHT:0.2
;BEFORE_LAYER_CHANGE
G92 E0.0
;0.2


G1 E-3.20000 F4200.000
G1 Z0.200 F9000.000
;AFTER_LAYER_CHANGE
;0.2
G1 Z0.400
G1 X75.816 Y76.375
G1 Z0.200
G1 E3.20000 F2400.000
M204 S800
;TYPE:Skirt
;WIDTH:0.42
G1 F1200.000
G1 X80.949 Y72.595 E0.19986
G1 X82.219 Y71.968 E0.04442
G1 X83.049 Y71.664 E0.02771
G1 X88.825 Y70.436 E0.18516
G1 X90.216 Y70.372 E0.04364
G1 X91.151 Y70.431 E0.02938
G1 X96.931 Y71.660 E0.18528
G1 X98.227 Y72.166 E0.04363
G1 X99.108 Y72.635 E0.03129
G1 X103.865 Y76.092 E0.18439
G1 X104.536 Y76.748 E0.02941
G1 X105.418 Y77.824 E0.04360
G1 X108.372 Y82.942 E0.18529
G1 X108.711 Y83.790 E0.02864
G1 X109.088 Y85.154 E0.04437
G1 X109.705 Y91.031 E0.18528
G1 X109.672 Y91.927 E0.02813
G1 X109.459 Y93.347 E0.04502
G1 X107.633 Y98.968 E0.18528
G1 X107.246 Y99.758 E0.02761
G1 X106.488 Y100.959 E0.04451
G1 X102.185 Y105.673 E0.20012
G1 X100.685 Y106.714 E0.05724
G1 X94.839 Y109.277 E0.20013
G1 X93.031 Y109.625 E0.05776
G1 X86.855 Y109.618 E0.19363
G1 X84.845 Y109.175 E0.06454
G1 X79.029 Y106.552 E0.20002
G1 X77.542 Y105.431 E0.05841
G1 X73.550 Y101.002 E0.18695
G1 X72.788 Y99.818 E0.04414
G1 X72.353 Y98.925 E0.03116
G1 X70.506 Y93.225 E0.18785
G1 X70.331 Y91.955 E0.04020
G1 X70.294 Y91.035 E0.02887
G1 X70.924 Y85.069 E0.18811
G1 X71.462 Y83.302 E0.05789
G1 X74.619 Y77.764 E0.19988
G1 X75.777 Y76.421 E0.05562
M204 S1250
G1 X76.062 Y76.667 F9000.000
M204 S800
G1 F1200.000
G1 X81.163 Y72.905 E0.19875
G1 X82.365 Y72.316 E0.04196
G1 X83.134 Y72.032 E0.02571
G1 X88.901 Y70.806 E0.18488
G1 X90.215 Y70.749 E0.04123
G1 X91.083 Y70.802 E0.02726
G1 X96.851 Y72.028 E0.18488
G1 X98.074 Y72.510 E0.04123
G1 X98.886 Y72.940 E0.02882
G1 X103.634 Y76.390 E0.18402
G1 X104.256 Y77.001 E0.02733
G1 X105.094 Y78.017 E0.04127
G1 X108.042 Y83.123 E0.18488
G1 X108.353 Y83.909 E0.02650
G1 X108.713 Y85.199 E0.04199
G1 X109.329 Y91.063 E0.18488
G1 X109.296 Y91.896 E0.02614
G1 X109.099 Y93.236 E0.04247
G1 X107.277 Y98.844 E0.18488
G1 X106.915 Y99.578 E0.02566
G1 X106.200 Y100.715 E0.04212
G1 X101.953 Y105.376 E0.19771
G1 X100.519 Y106.376 E0.05479
G1 X94.742 Y108.913 E0.19784
G1 X93.011 Y109.249 E0.05527
G1 X86.883 Y109.242 E0.19216
G1 X84.976 Y108.822 E0.06122
G1 X79.230 Y106.233 E0.19761
G1 X77.809 Y105.165 E0.05575
G1 X73.831 Y100.750 E0.18631
G1 X73.114 Y99.630 E0.04170
G1 X72.711 Y98.809 E0.02868
G1 X70.873 Y93.138 E0.18691
G1 X70.670 Y91.064 E0.06534
G1 X71.296 Y85.128 E0.18715
G1 X71.814 Y83.435 E0.05551
G1 X74.940 Y77.962 E0.19761
G1 X76.022 Y76.712 E0.05185
M204 S1250
; printing object a.stl id:0 copy 0
G1 E-2.24000 F4200.000
;WIPE_START
G1 F7200.000
G1 X77.345 Y75.733 E-0.91200
;WIPE_END
G1 E-0.04800 F4200.000
M73 P1 R48
G1 Z0.400 F9000.000
G1 X91.971 Y92.912
G1 Z0.200
G1 E3.20000 F2400.000
M204 S800
;TYPE:Perimeter
G1 F1200.000
G1 X88.037 Y92.912 E0.12337
G1 X87.582 Y92.498 E0.01928
G1 X87.262 Y92.121 E0.01550
G1 X87.069 Y91.825 E0.01107
G1 X86.854 Y91.382 E0.01545
G1 X86.742 Y91.055 E0.01084
G1 X86.666 Y90.725 E0.01061
G1 X86.622 Y90.382 E0.01084
G1 X86.620 Y89.889 E0.01545
G1 X86.663 Y89.539 E0.01107
G1 X86.785 Y89.054 E0.01568
G1 X86.978 Y88.592 E0.01568
G1 X87.154 Y88.287 E0.01106
G1 X87.445 Y87.900 E0.01517
G1 X87.692 Y87.645 E0.01113
G1 X87.964 Y87.417 E0.01113
G1 X88.371 Y87.154 E0.01519
G1 X88.697 Y86.998 E0.01133
G1 X89.155 Y86.844 E0.01517
G1 X89.495 Y86.775 E0.01085
G1 X89.840 Y86.741 E0.01088
G1 X90.169 Y86.741 E0.01033
G1 X90.513 Y86.776 E0.01083
G1 X91.001 Y86.887 E0.01568
G1 X91.473 Y87.073 E0.01591
G1 X91.912 Y87.327 E0.01591
G1 X92.309 Y87.644 E0.01591
G1 X92.653 Y88.017 E0.01591
G1 X92.938 Y88.437 E0.01591
G1 X93.154 Y88.888 E0.01568
G1 X93.264 Y89.216 E0.01084
G1 X93.340 Y89.553 E0.01084
G1 X93.388 Y90.051 E0.01568
G1 X93.361 Y90.558 E0.01591
G1 X93.259 Y91.055 E0.01591
G1 X93.083 Y91.531 E0.01591
G1 X92.839 Y91.976 E0.01591
G1 X92.529 Y92.381 E0.01598
G1 X92.015 Y92.871 E0.02227
M204 S1250
G1 X91.820 Y92.535 F9000.000
M204 S800
;TYPE:External perimeter
G1 F1200.000
G1 X88.182 Y92.535 E0.11407
G1 X87.853 Y92.236 E0.01394
G1 X87.565 Y91.895 E0.01399
G1 X87.398 Y91.639 E0.00959
G1 X87.203 Y91.238 E0.01397
G1 X87.105 Y90.951 E0.00951
G1 X87.037 Y90.658 E0.00943
G1 X86.999 Y90.357 E0.00951
G1 X86.997 Y89.912 E0.01397
G1 X87.034 Y89.608 E0.00959
G1 X87.144 Y89.173 E0.01405
G1 X87.317 Y88.760 E0.01405
G1 X87.469 Y88.495 E0.00959
G1 X87.732 Y88.145 E0.01371
G1 X87.949 Y87.921 E0.00978
G1 X88.188 Y87.721 E0.00978
G1 X88.556 Y87.484 E0.01371
G1 X88.839 Y87.348 E0.00985
G1 X89.253 Y87.209 E0.01371
G1 X89.551 Y87.148 E0.00951
G1 X89.858 Y87.118 E0.00969
G1 X90.150 Y87.118 E0.00916
G1 X90.452 Y87.149 E0.00951
G1 X90.889 Y87.249 E0.01405
G1 X91.309 Y87.414 E0.01414
G1 X91.699 Y87.639 E0.01414
G1 X92.051 Y87.921 E0.01414
G1 X92.357 Y88.252 E0.01414
G1 X92.611 Y88.625 E0.01414
G1 X92.804 Y89.029 E0.01405
G1 X92.900 Y89.317 E0.00951
G1 X92.967 Y89.613 E0.00951
G1 X93.010 Y90.059 E0.01405
G1 X92.986 Y90.510 E0.01414
G1 X92.895 Y90.951 E0.01414
G1 X92.739 Y91.374 E0.01414
G1 X92.522 Y91.769 E0.01414
G1 X92.248 Y92.128 E0.01416
G1 X91.864 Y92.494 E0.01661
M204 S1250
G1 X91.722 Y92.923 F9000.000
G1 E-2.24000 F4200.000
;WIPE_START
G1 F7200.000
G1 X90.218 Y92.512 E-0.91200
;WIPE_END
G1 E-0.04800 F4200.000
G1 Z0.400 F9000.000
G1 X90.605 Y78.332
G1 Z0.200
G1 E3.20000 F2400.000
M204 S800
;TYPE:Perimeter
G1 F1200.000
G1 X94.244 Y79.106 E0.11666
G1 X94.905 Y76.977 E0.06991
G1 X95.167 Y76.512 E0.01672
G1 X95.522 Y76.050 E0.01827
G1 X95.813 Y75.746 E0.01320
G1 X96.190 Y75.418 E0.01566
G1 X96.426 Y75.249 E0.00912
G1 X96.756 Y75.396 E0.01131
G1 X96.790 Y75.728 E0.01047
G1 X96.791 Y76.288 E0.01756
G1 X96.760 Y76.647 E0.01131
G1 X96.697 Y77.018 E0.01181
G1 X96.607 Y77.359 E0.01106
G1 X96.493 Y77.676 E0.01055
G1 X95.349 Y79.598 E0.07012
G1 X98.359 Y81.785 E0.11666
G1 X99.829 Y80.108 E0.06991
G1 X100.257 Y79.791 E0.01672
G1 X100.763 Y79.516 E0.01805
G1 X101.391 Y79.277 E0.02107
G1 X101.920 Y79.142 E0.01712
G1 X102.171 Y79.415 E0.01165
G1 X101.992 Y79.901 E0.01625
G1 X101.834 Y80.242 E0.01177
G1 X101.657 Y80.562 E0.01145
G1 X101.449 Y80.875 E0.01181
G1 X101.228 Y81.150 E0.01106
G1 X100.995 Y81.393 E0.01055
G1 X99.168 Y82.684 E0.07012
G1 X101.029 Y85.906 E0.11666
G1 X103.053 Y84.972 E0.06990
G1 X103.574 Y84.856 E0.01672
G1 X104.154 Y84.811 E0.01827
G1 X104.575 Y84.824 E0.01320
G1 X105.071 Y84.884 E0.01566
G1 X105.355 Y84.947 E0.00912
G1 X105.467 Y85.290 E0.01131
G1 X105.243 Y85.538 E0.01047
G1 X104.827 Y85.913 E0.01756
G1 X104.539 Y86.130 E0.01131
G1 X104.221 Y86.332 E0.01181
G1 X103.908 Y86.493 E0.01106
G1 X103.596 Y86.620 E0.01055
G1 X101.402 Y87.056 E0.07012
G1 X101.791 Y90.756 E0.11666
G1 X104.021 Y90.727 E0.06990
G1 X104.543 Y90.833 E0.01672
G1 X105.086 Y91.025 E0.01805
G1 X105.684 Y91.331 E0.02107
G1 X106.138 Y91.634 E0.01712
G1 X106.103 Y92.004 E0.01165
G1 X105.622 Y92.196 E0.01625
G1 X105.263 Y92.307 E0.01177
G1 X104.907 Y92.389 E0.01145
G1 X104.535 Y92.444 E0.01181
G1 X104.182 Y92.464 E0.01106
G1 X103.846 Y92.453 E0.01055
G1 X101.665 Y91.959 E0.07012
G1 X100.515 Y95.498 E0.11666
G1 X102.569 Y96.380 E0.07009
G1 X102.873 Y96.587 E0.01153
G1 X103.119 Y96.789 E0.00999
G1 X103.417 Y97.083 E0.01313
G1 X103.692 Y97.409 E0.01338
G1 X103.979 Y97.818 E0.01566
G1 X104.123 Y98.071 E0.00912
G1 X103.940 Y98.389 E0.01149
G1 X103.228 Y98.350 E0.02234
G1 X102.699 Y98.256 E0.01686
G1 X102.180 Y98.100 E0.01698
G1 X101.696 Y97.879 E0.01668
G1 X99.910 Y96.545 E0.06990
G1 X97.421 Y99.310 E0.11666
G1 X98.938 Y100.951 E0.07009
G1 X99.131 Y101.264 E0.01153
G1 X99.274 Y101.549 E0.00999
G1 X99.426 Y101.939 E0.01313
G1 X99.546 Y102.349 E0.01338
G1 X99.643 Y102.846 E0.01589
G1 X99.678 Y103.132 E0.00903
G1 X99.382 Y103.342 E0.01140
G1 X99.069 Y103.202 E0.01075
G1 X98.738 Y103.019 E0.01185
G1 X98.429 Y102.818 E0.01156
G1 X98.144 Y102.600 E0.01126
G1 X97.888 Y102.369 E0.01080
G1 X97.531 Y101.966 E0.01688
G1 X96.442 Y100.021 E0.06990
G1 X93.043 Y101.534 E0.11666
G1 X93.762 Y103.651 E0.07009
G1 X93.811 Y104.015 E0.01153
G1 X93.826 Y104.333 E0.00999
G1 X93.806 Y104.752 E0.01313
G1 X93.749 Y105.174 E0.01338
G1 X93.637 Y105.661 E0.01566
G1 X93.545 Y105.937 E0.00912
G1 X93.186 Y106.014 E0.01149
G1 X92.739 Y105.459 E0.02234
G1 X92.455 Y105.003 E0.01686
G1 X92.224 Y104.513 E0.01698
G1 X92.064 Y104.006 E0.01668
G1 X91.860 Y101.786 E0.06990
G1 X88.140 Y101.786 E0.11666
G1 X87.936 Y104.006 E0.06991
G1 X87.776 Y104.514 E0.01672
G1 X87.525 Y105.040 E0.01827
G1 X87.303 Y105.398 E0.01320
G1 X87.003 Y105.797 E0.01566
G1 X86.807 Y106.012 E0.00912
G1 X86.454 Y105.937 E0.01131
G1 X86.351 Y105.619 E0.01047
G1 X86.234 Y105.072 E0.01756
G1 X86.190 Y104.714 E0.01131
G1 X86.175 Y104.338 E0.01181
G1 X86.191 Y103.985 E0.01106
G1 X86.237 Y103.652 E0.01055
G1 X86.957 Y101.534 E0.07012
G1 X83.558 Y100.021 E0.11666
G1 X82.466 Y101.971 E0.07009
G1 X82.228 Y102.252 E0.01153
G1 X82.001 Y102.475 E0.00999
G1 X81.677 Y102.741 E0.01313
G1 X81.324 Y102.981 E0.01338
G1 X80.888 Y103.223 E0.01566
G1 X80.621 Y103.340 E0.00912
G1 X80.325 Y103.124 E0.01149
G1 X80.437 Y102.421 E0.02234
G1 X80.586 Y101.904 E0.01686
G1 X80.796 Y101.405 E0.01698
G1 X81.066 Y100.947 E0.01668
G1 X82.579 Y99.310 E0.06990
G1 X80.090 Y96.545 E0.11666
G1 X78.303 Y97.879 E0.06991
G1 X77.818 Y98.101 E0.01672
G1 X77.260 Y98.266 E0.01827
G1 X76.846 Y98.341 E0.01320
G1 X76.348 Y98.385 E0.01566
G1 X76.057 Y98.383 E0.00912
G1 X75.877 Y98.070 E0.01131
G1 X76.044 Y97.781 E0.01047
G1 X76.373 Y97.328 E0.01756
G1 X76.609 Y97.056 E0.01131
G1 X76.878 Y96.792 E0.01181
G1 X77.151 Y96.569 E0.01106
G1 X77.430 Y96.380 E0.01055
G1 X79.485 Y95.498 E0.07012
G1 X78.335 Y91.959 E0.11666
G1 X76.155 Y92.453 E0.07009
G1 X75.788 Y92.463 E0.01153
G1 X75.470 Y92.445 E0.00999
G1 X75.056 Y92.382 E0.01313
G1 X74.641 Y92.280 E0.01338
G1 X74.169 Y92.118 E0.01566
G1 X73.904 Y91.998 E0.00912
G1 X73.865 Y91.633 E0.01149
G1 X74.464 Y91.246 E0.02234
G1 X74.947 Y91.011 E0.01686
G1 X75.458 Y90.833 E0.01698
G1 X75.980 Y90.727 E0.01668
G1 X78.209 Y90.756 E0.06990
M73 P1 R47
G1 X78.598 Y87.056 E0.11666
G1 X76.411 Y86.621 E0.06991
G1 X75.922 Y86.409 E0.01672
G1 X75.425 Y86.104 E0.01827
G1 X75.093 Y85.847 E0.01319
G1 X74.727 Y85.506 E0.01566
G1 X74.534 Y85.289 E0.00913
G1 X74.645 Y84.946 E0.01131
G1 X74.972 Y84.877 E0.01047
G1 X75.529 Y84.817 E0.01755
G1 X75.905 Y84.811 E0.01181
G1 X76.264 Y84.835 E0.01127
G1 X76.613 Y84.888 E0.01109
G1 X76.941 Y84.969 E0.01057
G1 X78.971 Y85.906 E0.07012
G1 X80.832 Y82.684 E0.11666
G1 X79.006 Y81.394 E0.07009
G1 X78.752 Y81.128 E0.01153
G1 X78.553 Y80.879 E0.00999
G1 X78.323 Y80.529 E0.01313
G1 X78.122 Y80.153 E0.01337
G1 X77.926 Y79.694 E0.01566
G1 X77.838 Y79.416 E0.00913
G1 X78.083 Y79.144 E0.01149
G1 X78.771 Y79.329 E0.02233
G1 X79.284 Y79.538 E0.01736
G1 X79.743 Y79.791 E0.01644
G1 X80.171 Y80.108 E0.01672
G1 X81.641 Y81.785 E0.06990
G1 X84.651 Y79.598 E0.11666
G1 X83.511 Y77.682 E0.06991
G1 X83.341 Y77.176 E0.01672
G1 X83.235 Y76.604 E0.01827
G1 X83.204 Y76.184 E0.01319
G1 X83.213 Y75.685 E0.01566
G1 X83.245 Y75.395 E0.00913
G1 X83.575 Y75.248 E0.01131
G1 X83.845 Y75.445 E0.01047
G1 X84.261 Y75.819 E0.01755
G1 X84.518 Y76.095 E0.01181
G1 X84.740 Y76.377 E0.01127
G1 X84.934 Y76.673 E0.01109
G1 X85.093 Y76.970 E0.01057
G1 X85.756 Y79.106 E0.07012
G1 X89.395 Y78.332 E0.11666
G1 X89.132 Y76.112 E0.07009
G1 X89.160 Y75.746 E0.01153
G1 X89.212 Y75.432 E0.00999
G1 X89.318 Y75.027 E0.01313
G1 X89.462 Y74.625 E0.01337
G1 X89.673 Y74.172 E0.01566
G1 X89.820 Y73.921 E0.00913
G1 X90.187 Y73.921 E0.01149
G1 X90.509 Y74.557 E0.02234
G1 X90.692 Y75.062 E0.01686
G1 X90.816 Y75.589 E0.01698
G1 X90.867 Y76.119 E0.01668
G1 X90.612 Y78.273 E0.06802
M204 S1250
G1 X91.020 Y78.035 F9000.000
M204 S800
;TYPE:External perimeter
G1 F1200.000
G1 X93.986 Y78.666 E0.09508
G1 X94.557 Y76.826 E0.06038
G1 X94.852 Y76.304 E0.01882
G1 X95.235 Y75.804 E0.01974
G1 X95.553 Y75.473 E0.01438
G1 X95.956 Y75.122 E0.01676
G1 X96.382 Y74.816 E0.01646
G1 X97.109 Y75.140 E0.02493
G1 X97.167 Y75.708 E0.01791
G1 X97.168 Y76.304 E0.01869
G1 X97.134 Y76.695 E0.01231
G1 X97.066 Y77.098 E0.01281
G1 X96.967 Y77.472 E0.01212
G1 X96.835 Y77.838 E0.01221
G1 X95.849 Y79.495 E0.06046
G1 X98.302 Y81.277 E0.09508
G1 X99.572 Y79.829 E0.06038
G1 X100.054 Y79.472 E0.01882
G1 X100.605 Y79.173 E0.01967
G1 X101.277 Y78.917 E0.02253
G1 X102.056 Y78.733 E0.02512
G1 X102.593 Y79.326 E0.02508
G1 X102.340 Y80.046 E0.02391
G1 X102.171 Y80.413 E0.01268
G1 X101.980 Y80.758 E0.01236
G1 X101.753 Y81.098 E0.01281
G1 X101.512 Y81.400 E0.01212
G1 X101.242 Y81.680 E0.01221
G1 X99.667 Y82.793 E0.06046
G1 X101.183 Y85.419 E0.09508
G1 X102.932 Y84.613 E0.06038
G1 X103.518 Y84.482 E0.01882
G1 X104.145 Y84.433 E0.01974
G1 X104.604 Y84.447 E0.01438
G1 X105.134 Y84.512 E0.01676
G1 X105.647 Y84.624 E0.01646
G1 X105.893 Y85.381 E0.02493
G1 X105.510 Y85.805 E0.01791
G1 X105.067 Y86.204 E0.01869
G1 X104.754 Y86.440 E0.01231
G1 X104.409 Y86.659 E0.01281
G1 X104.065 Y86.836 E0.01212
G1 X103.705 Y86.983 E0.01221
G1 X101.813 Y87.359 E0.06046
G1 X102.130 Y90.375 E0.09508
G1 X104.056 Y90.349 E0.06038
G1 X104.644 Y90.468 E0.01882
G1 X105.235 Y90.678 E0.01967
G1 X105.875 Y91.005 E0.02253
G1 X106.533 Y91.462 E0.02512
G1 X106.451 Y92.258 E0.02508
G1 X105.747 Y92.552 E0.02391
G1 X105.361 Y92.671 E0.01267
G1 X104.977 Y92.760 E0.01236
G1 X104.573 Y92.819 E0.01281
G1 X104.187 Y92.841 E0.01212
G1 X103.798 Y92.829 E0.01221
G1 X101.917 Y92.403 E0.06046
G1 X100.980 Y95.287 E0.09508
G1 X102.751 Y96.048 E0.06045
G1 X103.099 Y96.285 E0.01320
G1 X103.371 Y96.509 E0.01105
G1 X103.694 Y96.827 E0.01420
G1 X103.991 Y97.179 E0.01444
G1 X104.298 Y97.616 E0.01676
G1 X104.558 Y98.072 E0.01646
G1 X104.159 Y98.763 E0.02499
G1 X103.781 Y98.768 E0.01186
G1 X103.182 Y98.725 E0.01883
G1 X102.611 Y98.623 E0.01817
G1 X102.047 Y98.453 E0.01847
G1 X101.503 Y98.205 E0.01874
G1 X99.960 Y97.053 E0.06038
G1 X97.931 Y99.307 E0.09508
G1 X99.240 Y100.722 E0.06045
G1 X99.461 Y101.080 E0.01320
G1 X99.619 Y101.396 E0.01105
G1 X99.784 Y101.817 E0.01420
G1 X99.913 Y102.260 E0.01444
G1 X100.015 Y102.787 E0.01684
G1 X100.069 Y103.308 E0.01643
G1 X99.918 Y103.424 E0.00596
G1 X99.425 Y103.774 E0.01899
G1 X98.900 Y103.540 E0.01801
G1 X98.544 Y103.342 E0.01277
G1 X98.211 Y103.126 E0.01243
G1 X97.903 Y102.890 E0.01219
G1 X97.620 Y102.635 E0.01194
G1 X97.222 Y102.186 E0.01882
G1 X96.281 Y100.505 E0.06038
G1 X93.511 Y101.739 E0.09508
G1 X94.131 Y103.564 E0.06045
G1 X94.187 Y103.981 E0.01320
G1 X94.203 Y104.334 E0.01105
G1 X94.182 Y104.786 E0.01420
G1 X94.120 Y105.242 E0.01444
G1 X94.000 Y105.763 E0.01676
G1 X93.835 Y106.261 E0.01646
G1 X93.055 Y106.427 E0.02499
G1 X92.798 Y106.149 E0.01186
G1 X92.429 Y105.675 E0.01883
G1 X92.123 Y105.183 E0.01817
G1 X91.872 Y104.650 E0.01847
G1 X91.692 Y104.080 E0.01874
G1 X91.516 Y102.163 E0.06038
