; generated by PrusaSlicer 2.3.3 on 2021-12-17 at 09:28:40 UTC


;
;

;
;
; 

; external perimeters extrusion width = 0.45mm
; perimeters extrusion width = 0.45mm
; infill extrusion width = 0.45mm
; solid infill extrusion width = 0.45mm
; top infill extrusion width = 0.40mm
; first layer extrusion width = 0.42mm

M73 P0 R57
M201 X1250 Y1250 Z400 E5000 ; sets maximum accelerations, mm/sec^2
M203 X180 Y180 Z12 E80 ; sets maximum feedrates, mm/sec
M204 P1250 R1250 T1250 ; sets acceleration (P, T) and retract acceleration (R), mm/sec^2
M205 X8.00 Y8.00 Z2.00 E10.00 ; sets the jerk limits, mm/sec
M205 S0 T0 ; sets the minimum extruding and travel feed rate, mm/sec
M107
;TYPE:Custom
G90 ; use absolute coordinates
M83 ; extruder relative mode
M104 S170 ; set extruder temp for bed leveling
M140 S60 ; set bed temp
M109 R170 ; wait for bed leveling temp
M190 S60 ; wait for bed temp
G28 ; home all without mesh bed level
G29 ; mesh bed leveling 
M104 S215 ; set extruder temp
G92 E0.0
G1 Y-2.0 X179 F2400
G1 Z3 F720
M109 S215 ; wait for extruder temp

; intro line
G1 X170 F1000
G1 Z0.2 F720
G1 X110.0 E8.0 F900
G1 X40.0 E10.0 F700
G92 E0.0

M221 S95 ; set flow
G21 ; set units to millimeters
G90 ; use absolute coordinates
M83 ; use relative distances for extrusion
M900 K0.2 ; Filament gcode LA 1.5
; ; Filament gcode LA 1.0
;LAYER_CHANGE
;Z:0.2
;HEIGHT:0.2
;BEFORE_LAYER_CHANGE
G92 E0.0
;0.2


G1 E-3.20000 F4200.000
G1 Z0.200 F9000.000
;AFTER_LAYER_CHANGE
;0.2
G1 Z0.400
G1 X75.812 Y76.255
G1 Z0.200
G1 E3.20000 F2400.000
M204 S800
;TYPE:Skirt
;WIDTH:0.42
G1 F1200.000
G1 X80.949 Y72.470 E0.20007
G1 X82.219 Y71.843 E0.04444
G1 X83.049 Y71.539 E0.02771
G1 X88.825 Y70.311 E0.18516
G1 X90.215 Y70.247 E0.04361
G1 X91.151 Y70.306 E0.02941
G1 X96.931 Y71.535 E0.18529
G1 X98.200 Y72.028 E0.04269
G1 X99.102 Y72.507 E0.03203
G1 X103.865 Y75.967 E0.18458
G1 X104.536 Y76.623 E0.02943
G1 X105.414 Y77.694 E0.04341
G1 X108.372 Y82.816 E0.18546
G1 X108.710 Y83.661 E0.02853
G1 X109.086 Y85.023 E0.04431
G1 X109.706 Y90.909 E0.18558
G1 X109.672 Y91.796 E0.02783
G1 X109.470 Y93.185 E0.04400
G1 X107.448 Y99.262 E0.20081
G1 X106.510 Y100.807 E0.05667
G1 X102.186 Y105.548 E0.20119
G1 X100.690 Y106.585 E0.05707
G1 X94.840 Y109.152 E0.20031
G1 X93.031 Y109.500 E0.05778
G1 X86.855 Y109.493 E0.19363
G1 X84.851 Y109.051 E0.06435
G1 X79.030 Y106.428 E0.20019
G1 X77.543 Y105.307 E0.05839
G1 X73.550 Y100.877 E0.18699
G1 X72.788 Y99.693 E0.04414
G1 X72.356 Y98.805 E0.03097
G1 X70.506 Y93.100 E0.18802
G1 X70.331 Y91.830 E0.04022
G1 X70.295 Y90.910 E0.02887
G1 X70.924 Y84.943 E0.18811
G1 X71.462 Y83.177 E0.05789
G1 X74.619 Y77.639 E0.19988
G1 X75.773 Y76.301 E0.05540
M204 S1250
G1 X76.057 Y76.547 F9000.000
M204 S800
G1 F1200.000
G1 X81.163 Y72.780 E0.19895
G1 X82.367 Y72.190 E0.04203
G1 X83.128 Y71.909 E0.02545
G1 X88.901 Y70.680 E0.18505
G1 X90.215 Y70.624 E0.04122
G1 X91.083 Y70.677 E0.02728
G1 X96.851 Y71.903 E0.18488
G1 X98.074 Y72.385 E0.04123
G1 X98.843 Y72.786 E0.02719
G1 X103.597 Y76.238 E0.18422
G1 X104.256 Y76.876 E0.02877
G1 X105.090 Y77.887 E0.04108
G1 X108.040 Y82.995 E0.18493
G1 X108.353 Y83.784 E0.02663
G1 X108.712 Y85.068 E0.04180
G1 X109.330 Y90.938 E0.18505
G1 X109.297 Y91.765 E0.02597
G1 X109.108 Y93.080 E0.04164
G1 X107.117 Y99.082 E0.19827
G1 X106.220 Y100.565 E0.05434
G1 X101.953 Y105.251 E0.19872
G1 X100.524 Y106.247 E0.05461
G1 X94.742 Y108.788 E0.19801
G1 X93.012 Y109.124 E0.05528
G1 X86.883 Y109.117 E0.19216
G1 X84.982 Y108.698 E0.06103
G1 X79.230 Y106.108 E0.19778
G1 X77.809 Y105.040 E0.05574
G1 X73.831 Y100.625 E0.18634
G1 X73.114 Y99.505 E0.04170
G1 X72.714 Y98.689 E0.02849
G1 X70.873 Y93.013 E0.18708
G1 X70.671 Y90.939 E0.06536
G1 X71.296 Y85.003 E0.18715
G1 X71.813 Y83.313 E0.05539
G1 X74.938 Y77.840 E0.19760
G1 X76.018 Y76.592 E0.05175
M204 S1250
; printing object b.stl id:0 copy 0
G1 E-2.24000 F4200.000
;WIPE_START
G1 F7200.000
G1 X77.340 Y75.613 E-0.91200
;WIPE_END
G1 E-0.04800 F4200.000
G1 Z0.400 F9000.000
G1 X85.747 Y86.082
G1 Z0.200
G1 E3.20000 F2400.000
M204 S800
;TYPE:Perimeter
G1 F1200.000
G1 X86.063 Y85.757 E0.01423
G1 X86.505 Y85.386 E0.01809
G1 X86.982 Y85.061 E0.01809
G1 X87.489 Y84.785 E0.01809
G1 X88.021 Y84.561 E0.01809
G1 X88.572 Y84.391 E0.01809
G1 X89.137 Y84.277 E0.01809
G1 X89.712 Y84.219 E0.01809
G1 X90.289 Y84.219 E0.01809
G1 X90.863 Y84.277 E0.01809
G1 X91.428 Y84.391 E0.01809
G1 X91.980 Y84.561 E0.01809
G1 X92.511 Y84.785 E0.01809
G1 X93.018 Y85.061 E0.01809
G1 X93.495 Y85.386 E0.01809
G1 X93.937 Y85.757 E0.01809
G1 X94.340 Y86.170 E0.01809
G1 X94.700 Y86.621 E0.01809
G1 X95.013 Y87.106 E0.01809
G1 X95.276 Y87.619 E0.01809
G1 X95.487 Y88.156 E0.01809
G1 X95.641 Y88.705 E0.01786
G1 X95.701 Y89.002 E0.00951
G1 X95.772 Y89.567 E0.01786
G1 X95.786 Y90.144 E0.01809
G1 X95.743 Y90.719 E0.01809
G1 X95.643 Y91.288 E0.01809
G1 X95.487 Y91.843 E0.01809
G1 X95.276 Y92.380 E0.01809
G1 X95.013 Y92.894 E0.01809
G1 X94.700 Y93.378 E0.01809
G1 X94.340 Y93.830 E0.01809
G1 X93.937 Y94.243 E0.01809
G1 X93.495 Y94.613 E0.01809
G1 X93.018 Y94.939 E0.01809
G1 X92.511 Y95.214 E0.01809
G1 X91.980 Y95.439 E0.01809
G1 X91.428 Y95.609 E0.01809
G1 X90.863 Y95.723 E0.01809
G1 X90.289 Y95.780 E0.01809
G1 X89.712 Y95.780 E0.01809
G1 X89.137 Y95.723 E0.01809
G1 X88.572 Y95.609 E0.01809
G1 X88.021 Y95.439 E0.01809
G1 X87.489 Y95.214 E0.01809
G1 X86.982 Y94.939 E0.01809
G1 X86.505 Y94.613 E0.01809
G1 X86.063 Y94.243 E0.01809
G1 X85.660 Y93.830 E0.01809
G1 X85.301 Y93.378 E0.01809
G1 X84.988 Y92.894 E0.01809
G1 X84.724 Y92.380 E0.01809
G1 X84.514 Y91.843 E0.01809
G1 X84.357 Y91.288 E0.01809
G1 X84.258 Y90.727 E0.01786
G1 X84.228 Y90.425 E0.00951
G1 X84.214 Y89.855 E0.01786
G1 X84.257 Y89.280 E0.01809
G1 X84.357 Y88.712 E0.01809
G1 X84.514 Y88.156 E0.01809
G1 X84.724 Y87.619 E0.01809
G1 X84.988 Y87.106 E0.01809
G1 X85.301 Y86.621 E0.01809
G1 X85.705 Y86.125 E0.02007
M204 S1250
G1 X85.975 Y86.388 F9000.000
M204 S800
;TYPE:External perimeter
G1 F1200.000
G1 X86.320 Y86.034 E0.01552
G1 X86.733 Y85.687 E0.01691
G1 X87.179 Y85.383 E0.01691
G1 X87.653 Y85.125 E0.01691
G1 X88.150 Y84.916 E0.01691
G1 X88.665 Y84.757 E0.01691
G1 X89.194 Y84.650 E0.01691
G1 X89.730 Y84.596 E0.01691
G1 X90.270 Y84.596 E0.01691
G1 X90.806 Y84.650 E0.01691
G1 X91.335 Y84.757 E0.01691
G1 X91.851 Y84.916 E0.01691
G1 X92.348 Y85.125 E0.01691
G1 X92.821 Y85.383 E0.01691
G1 X93.267 Y85.687 E0.01691
G1 X93.680 Y86.034 E0.01691
G1 X94.057 Y86.420 E0.01691
G1 X94.393 Y86.842 E0.01691
G1 X94.686 Y87.295 E0.01691
G1 X94.932 Y87.775 E0.01691
G1 X95.129 Y88.277 E0.01691
G1 X95.274 Y88.793 E0.01683
G1 X95.329 Y89.063 E0.00862
G1 X95.395 Y89.595 E0.01683
G1 X95.409 Y90.135 E0.01691
G1 X95.368 Y90.673 E0.01691
G1 X95.275 Y91.204 E0.01691
G1 X95.129 Y91.723 E0.01691
G1 X94.932 Y92.225 E0.01691
G1 X94.686 Y92.705 E0.01691
G1 X94.393 Y93.158 E0.01691
G1 X94.057 Y93.580 E0.01691
G1 X93.680 Y93.966 E0.01691
G1 X93.267 Y94.313 E0.01691
G1 X92.821 Y94.616 E0.01691
G1 X92.348 Y94.874 E0.01691
G1 X91.851 Y95.084 E0.01691
G1 X91.335 Y95.243 E0.01691
G1 X90.806 Y95.350 E0.01691
G1 X90.270 Y95.403 E0.01691
G1 X89.730 Y95.403 E0.01691
G1 X89.194 Y95.350 E0.01691
G1 X88.665 Y95.243 E0.01691
G1 X88.150 Y95.084 E0.01691
G1 X87.653 Y94.874 E0.01691
G1 X87.179 Y94.616 E0.01691
G1 X86.733 Y94.313 E0.01691
G1 X86.320 Y93.966 E0.01691
G1 X85.944 Y93.580 E0.01691
G1 X85.607 Y93.158 E0.01691
G1 X85.315 Y92.705 E0.01691
G1 X85.069 Y92.225 E0.01691
G1 X84.872 Y91.723 E0.01691
G1 X84.725 Y91.204 E0.01691
G1 X84.632 Y90.675 E0.01683
G1 X84.605 Y90.401 E0.00862
G1 X84.591 Y89.865 E0.01683
G1 X84.632 Y89.327 E0.01691
G1 X84.725 Y88.796 E0.01691
G1 X84.872 Y88.277 E0.01691
G1 X85.069 Y87.775 E0.01691
G1 X85.315 Y87.295 E0.01691
G1 X85.607 Y86.842 E0.01691
G1 X85.934 Y86.432 E0.01643
M204 S1250
G1 X85.848 Y86.009 F9000.000
G1 E-2.24000 F4200.000
;WIPE_START
G1 F7200.000
G1 X86.320 Y86.034 E-0.30745
G1 X86.733 Y85.687 E-0.29887
G1 X87.179 Y85.383 E-0.29890
G1 X87.190 Y85.377 E-0.00678
;WIPE_END
G1 E-0.04800 F4200.000
G1 Z0.400 F9000.000
G1 X90.605 Y78.207
G1 Z0.200
G1 E3.20000 F2400.000
M204 S800
;TYPE:Perimeter
G1 F1200.000
G1 X94.244 Y78.981 E0.11666
G1 X94.905 Y76.850 E0.06996
M73 P0 R56
G1 X95.159 Y76.399 E0.01623
G1 X95.504 Y75.947 E0.01782
G1 X95.807 Y75.628 E0.01380
G1 X96.205 Y75.281 E0.01654
G1 X96.425 Y75.123 E0.00850
G1 X96.755 Y75.270 E0.01134
G1 X96.791 Y75.614 E0.01085
G1 X96.790 Y76.181 E0.01779
G1 X96.757 Y76.548 E0.01153
G1 X96.696 Y76.898 E0.01115
G1 X96.606 Y77.240 E0.01109
G1 X96.494 Y77.549 E0.01031
G1 X95.349 Y79.473 E0.07018
G1 X98.359 Y81.660 E0.11666
G1 X99.830 Y79.982 E0.06995
M73 P1 R56
G1 X100.249 Y79.671 E0.01636
G1 X100.737 Y79.404 E0.01746
G1 X101.399 Y79.149 E0.02222
G1 X101.924 Y79.021 E0.01696
G1 X102.171 Y79.290 E0.01142
G1 X101.981 Y79.802 E0.01716
G1 X101.826 Y80.134 E0.01146
G1 X101.644 Y80.459 E0.01168
G1 X101.446 Y80.754 E0.01115
G1 X101.225 Y81.030 E0.01109
G1 X100.997 Y81.267 E0.01031
G1 X99.168 Y82.558 E0.07018
G1 X101.029 Y85.781 E0.11666
G1 X103.055 Y84.846 E0.06996
G1 X103.560 Y84.733 E0.01623
G1 X104.126 Y84.686 E0.01781
G1 X104.566 Y84.699 E0.01380
G1 X105.090 Y84.762 E0.01653
G1 X105.355 Y84.820 E0.00850
G1 X105.467 Y85.164 E0.01134
G1 X105.235 Y85.420 E0.01085
G1 X104.813 Y85.800 E0.01779
G1 X104.518 Y86.020 E0.01153
G1 X104.217 Y86.209 E0.01115
G1 X103.903 Y86.371 E0.01109
G1 X103.598 Y86.494 E0.01031
G1 X101.402 Y86.931 E0.07018
G1 X101.791 Y90.631 E0.11666
G1 X104.022 Y90.601 E0.06995
G1 X104.534 Y90.704 E0.01636
G1 X105.059 Y90.889 E0.01746
G1 X105.691 Y91.210 E0.02222
G1 X106.138 Y91.515 E0.01696
G1 X106.103 Y91.878 E0.01142
G1 X105.595 Y92.080 E0.01716
G1 X105.245 Y92.187 E0.01146
G1 X104.882 Y92.269 E0.01168
G1 X104.530 Y92.320 E0.01115
G1 X104.177 Y92.340 E0.01109
G1 X103.848 Y92.328 E0.01031
G1 X101.665 Y91.834 E0.07018
G1 X100.515 Y95.372 E0.11665
G1 X102.580 Y96.259 E0.07045
G1 X102.857 Y96.449 E0.01053
G1 X103.120 Y96.665 E0.01067
G1 X103.397 Y96.937 E0.01218
G1 X103.686 Y97.277 E0.01400
G1 X103.990 Y97.709 E0.01654
G1 X104.124 Y97.944 E0.00850
G1 X103.943 Y98.257 E0.01134
G1 X103.597 Y98.257 E0.01085
G1 X103.039 Y98.198 E0.01761
G1 X102.488 Y98.077 E0.01767
G1 X102.165 Y97.970 E0.01067
G1 X101.698 Y97.755 E0.01610
G1 X99.910 Y96.420 E0.06997
G1 X97.421 Y99.185 E0.11666
G1 X98.940 Y100.828 E0.07016
G1 X99.124 Y101.124 E0.01095
G1 X99.275 Y101.425 E0.01054
G1 X99.417 Y101.786 E0.01218
G1 X99.543 Y102.215 E0.01400
G1 X99.646 Y102.739 E0.01675
G1 X99.679 Y103.006 E0.00843
G1 X99.383 Y103.216 E0.01139
G1 X99.059 Y103.072 E0.01112
G1 X98.724 Y102.885 E0.01203
G1 X98.419 Y102.686 E0.01141
G1 X98.127 Y102.462 E0.01154
G1 X97.873 Y102.231 E0.01076
G1 X97.533 Y101.843 E0.01619
G1 X96.442 Y99.896 E0.06997
G1 X93.043 Y101.409 E0.11666
G1 X93.766 Y103.537 E0.07045
G1 X93.811 Y103.870 E0.01053
G1 X93.826 Y104.210 E0.01067
G1 X93.809 Y104.598 E0.01218
G1 X93.750 Y105.040 E0.01400
G1 X93.632 Y105.554 E0.01654
G1 X93.547 Y105.812 E0.00850
G1 X93.193 Y105.887 E0.01134
G1 X92.962 Y105.630 E0.01085
G1 X92.632 Y105.175 E0.01761
G1 X92.354 Y104.685 E0.01767
G1 X92.217 Y104.373 E0.01067
G1 X92.064 Y103.883 E0.01610
G1 X91.860 Y101.660 E0.06997
G1 X88.140 Y101.660 E0.11666
G1 X87.936 Y103.882 E0.06996
G1 X87.782 Y104.376 E0.01623
G1 X87.539 Y104.890 E0.01782
G1 X87.308 Y105.265 E0.01380
G1 X86.991 Y105.687 E0.01653
G1 X86.809 Y105.887 E0.00850
G1 X86.455 Y105.812 E0.01134
G1 X86.349 Y105.483 E0.01085
G1 X86.231 Y104.928 E0.01779
G1 X86.188 Y104.563 E0.01153
G1 X86.174 Y104.207 E0.01115
G1 X86.191 Y103.854 E0.01109
G1 X86.237 Y103.528 E0.01031
G1 X86.957 Y101.409 E0.07018
G1 X83.558 Y99.896 E0.11666
G1 X82.460 Y101.856 E0.07045
G1 X82.243 Y102.112 E0.01053
G1 X82.000 Y102.351 E0.01067
G1 X81.700 Y102.598 E0.01218
G1 X81.332 Y102.850 E0.01400
G1 X80.871 Y103.107 E0.01653
G1 X80.623 Y103.216 E0.00850
G1 X80.330 Y103.003 E0.01134
G1 X80.367 Y102.659 E0.01085
G1 X80.484 Y102.110 E0.01761
G1 X80.662 Y101.575 E0.01767
G1 X80.802 Y101.265 E0.01067
G1 X81.064 Y100.823 E0.01610
G1 X82.579 Y99.185 E0.06997
G1 X80.090 Y96.420 E0.11666
G1 X78.302 Y97.755 E0.06995
G1 X77.828 Y97.972 E0.01636
G1 X77.288 Y98.134 E0.01768
G1 X76.854 Y98.214 E0.01381
G1 X76.329 Y98.261 E0.01654
G1 X76.058 Y98.259 E0.00850
G1 X75.877 Y97.946 E0.01134
G1 X76.051 Y97.647 E0.01085
G1 X76.384 Y97.188 E0.01779
G1 X76.627 Y96.911 E0.01153
G1 X76.882 Y96.663 E0.01115
G1 X77.156 Y96.439 E0.01109
G1 X77.428 Y96.256 E0.01031
G1 X79.485 Y95.372 E0.07018
G1 X78.335 Y91.834 E0.11665
G1 X76.144 Y92.330 E0.07045
G1 X75.808 Y92.340 E0.01053
G1 X75.468 Y92.319 E0.01067
G1 X75.084 Y92.262 E0.01218
G1 X74.650 Y92.157 E0.01400
G1 X74.151 Y91.986 E0.01653
G1 X73.904 Y91.874 E0.00850
G1 X73.866 Y91.515 E0.01134
G1 X74.146 Y91.312 E0.01085
G1 X74.633 Y91.031 E0.01761
G1 X75.149 Y90.806 E0.01767
G1 X75.474 Y90.702 E0.01067
G1 X75.977 Y90.601 E0.01610
G1 X78.209 Y90.631 E0.06997
G1 X78.598 Y86.931 E0.11666
G1 X76.409 Y86.496 E0.06996
G1 X75.934 Y86.291 E0.01623
G1 X75.449 Y85.995 E0.01781
G1 X75.100 Y85.727 E0.01380
G1 X74.713 Y85.368 E0.01654
G1 X74.533 Y85.165 E0.00850
G1 X74.645 Y84.821 E0.01134
G1 X74.983 Y84.750 E0.01085
G1 X75.548 Y84.691 E0.01779
G1 X75.915 Y84.686 E0.01153
G1 X76.270 Y84.710 E0.01115
G1 X76.620 Y84.763 E0.01109
G1 X76.939 Y84.843 E0.01031
G1 X78.972 Y85.781 E0.07018
G1 X80.832 Y82.558 E0.11666
G1 X78.997 Y81.262 E0.07045
G1 X78.765 Y81.019 E0.01053
G1 X78.553 Y80.753 E0.01067
G1 X78.339 Y80.428 E0.01218
G1 X78.126 Y80.036 E0.01400
G1 X77.919 Y79.551 E0.01654
G1 X77.837 Y79.292 E0.00850
G1 X78.079 Y79.024 E0.01134
G1 X78.417 Y79.096 E0.01085
G1 X78.951 Y79.270 E0.01761
G1 X79.464 Y79.503 E0.01767
G1 X79.758 Y79.674 E0.01067
G1 X80.170 Y79.981 E0.01610
G1 X81.641 Y81.660 E0.06997
G1 X84.651 Y79.473 E0.11666
G1 X83.510 Y77.555 E0.06996
G1 X83.345 Y77.065 E0.01623
G1 X83.239 Y76.506 E0.01782
G1 X83.205 Y76.067 E0.01380
G1 X83.214 Y75.540 E0.01654
G1 X83.243 Y75.271 E0.00850
G1 X83.574 Y75.124 E0.01134
G1 X83.853 Y75.327 E0.01085
G1 X84.275 Y75.707 E0.01779
G1 X84.524 Y75.977 E0.01153
G1 X84.744 Y76.257 E0.01115
G1 X84.938 Y76.552 E0.01109
G1 X85.093 Y76.843 E0.01031
G1 X85.756 Y78.981 E0.07018
G1 X89.395 Y78.207 E0.11666
G1 X89.131 Y75.976 E0.07045
G1 X89.156 Y75.641 E0.01053
G1 X89.212 Y75.305 E0.01067
G1 X89.310 Y74.929 E0.01218
G1 X89.460 Y74.508 E0.01400
G1 X89.681 Y74.030 E0.01654
G1 X89.818 Y73.796 E0.00850
G1 X90.180 Y73.796 E0.01134
G1 X90.353 Y74.096 E0.01085
G1 X90.581 Y74.609 E0.01761
G1 X90.751 Y75.146 E0.01767
G1 X90.820 Y75.480 E0.01067
G1 X90.867 Y75.991 E0.01610
G1 X90.612 Y78.148 E0.06809
M204 S1250
G1 X91.020 Y77.910 F9000.000
M204 S800
;TYPE:External perimeter
G1 F1200.000
G1 X93.986 Y78.540 E0.09508
G1 X94.557 Y76.700 E0.06042
G1 X94.843 Y76.191 E0.01831
G1 X95.216 Y75.702 E0.01929
G1 X95.546 Y75.355 E0.01500
G1 X95.970 Y74.985 E0.01764
G1 X96.381 Y74.690 E0.01585
G1 X97.108 Y75.014 E0.02496
G1 X97.168 Y75.595 E0.01830
G1 X97.167 Y76.199 E0.01895
G1 X97.131 Y76.597 E0.01254
G1 X97.065 Y76.978 E0.01212
G1 X96.967 Y77.353 E0.01214
G1 X96.836 Y77.712 E0.01197
G1 X95.849 Y79.370 E0.06051
G1 X98.302 Y81.152 E0.09508
G1 X99.573 Y79.703 E0.06042
G1 X100.045 Y79.352 E0.01844
G1 X100.579 Y79.061 E0.01907
G1 X101.279 Y78.791 E0.02354
G1 X101.559 Y78.712 E0.00910
G1 X102.057 Y78.609 E0.01596
G1 X102.592 Y79.200 E0.02501
G1 X102.329 Y79.948 E0.02485
G1 X102.162 Y80.306 E0.01238
G1 X101.966 Y80.656 E0.01259
G1 X101.751 Y80.978 E0.01212
G1 X101.508 Y81.280 E0.01214
G1 X101.243 Y81.554 E0.01197
G1 X99.667 Y82.668 E0.06051
G1 X101.183 Y85.294 E0.09508
G1 X102.933 Y84.487 E0.06042
G1 X103.503 Y84.359 E0.01831
G1 X104.116 Y84.309 E0.01929
G1 X104.594 Y84.322 E0.01500
G1 X105.153 Y84.390 E0.01764
G1 X105.647 Y84.497 E0.01585
G1 X105.893 Y85.254 E0.02496
G1 X105.501 Y85.688 E0.01830
G1 X105.052 Y86.092 E0.01895
G1 X104.732 Y86.331 E0.01254
G1 X104.404 Y86.537 E0.01212
G1 X104.060 Y86.714 E0.01214
G1 X103.706 Y86.857 E0.01197
G1 X101.813 Y87.234 E0.06051
G1 X102.130 Y90.249 E0.09508
G1 X104.057 Y90.224 E0.06042
G1 X104.634 Y90.340 E0.01844
G1 X105.208 Y90.541 E0.01907
G1 X105.877 Y90.882 E0.02354
