; generated by PrusaSlicer 2.3.3 on 2021-12-17 at 12:31:53 UTC


;
;

;
;
; 

; external perimeters extrusion width = 0.45mm
; perimeters extrusion width = 0.45mm
; infill extrusion width = 0.45mm
; solid infill extrusion width = 0.45mm
; top infill extrusion width = 0.40mm
; first layer extrusion width = 0.42mm

M73 P0 R48
M201 X1250 Y1250 Z400 E5000 ; sets maximum accelerations, mm/sec^2
M203 X180 Y180 Z12 E80 ; sets maximum feedrates, mm/sec
M204 P1250 R1250 T1250 ; sets acceleration (P, T) and retract acceleration (R), mm/sec^2
M205 X8.00 Y8.00 Z2.00 E10.00 ; sets the jerk limits, mm/sec
M205 S0 T0 ; sets the minimum extruding and travel feed rate, mm/sec
M107
;TYPE:Custom
G90 ; use absolute coordinates
M83 ; extruder relative mode
M104 S170 ; set extruder temp for bed leveling
M140 S60 ; set bed temp
M109 R170 ; wait for bed leveling temp
M190 S60 ; wait for bed temp
G28 ; home all without mesh bed level
G29 ; mesh bed leveling 
M104 S225 ; set extruder temp
G92 E0.0
G1 Y-2.0 X179 F2400
G1 Z3 F720
M109 S225 ; wait for extruder temp

; intro line
G1 X170 F1000
G1 Z0.2 F720
G1 X110.0 E8.0 F900
G1 X40.0 E10.0 F700
G92 E0.0

M221 S95 ; set flow
G21 ; set units to millimeters
G90 ; use absolute coordinates
M83 ; use relative distances for extrusion
M900 K0.2 ; Filament gcode LA 1.5
; ; Filament gcode LA 1.0
;LAYER_CHANGE
;Z:0.2
;HEIGHT:0.2
;BEFORE_LAYER_CHANGE
G92 E0.0
;0.2


G1 E-3.20000 F4200.000
G1 Z0.200 F9000.000
;AFTER_LAYER_CHANGE
;0.2
G1 Z0.400
G1 X68.531 Y58.550
G1 Z0.200
G1 E3.20000 F2400.000
M204 S800
;TYPE:Skirt
;WIDTH:0.42
G1 F1200.000
G1 X69.088 Y57.997 E0.02461
G1 X69.894 Y57.371 E0.03200
G1 X70.773 Y56.867 E0.03178
G1 X71.514 Y56.555 E0.02519
G1 X72.264 Y56.331 E0.02456
G1 X73.272 Y56.159 E0.03205
G1 X106.004 Y56.123 E1.02628
G1 X107.430 Y56.263 E0.04495
G1 X108.769 Y56.663 E0.04380
G1 X109.832 Y57.197 E0.03731
G1 X110.953 Y58.033 E0.04385
G1 X111.915 Y59.092 E0.04486
G1 X112.633 Y60.273 E0.04334
G1 X113.071 Y61.397 E0.03782
G1 X113.341 Y62.768 E0.04381
G1 X113.377 Y116.534 E1.68580
G1 X113.304 Y117.532 E0.03137
G1 X113.155 Y118.295 E0.02437
G1 X112.926 Y119.040 E0.02444
G1 X112.510 Y119.970 E0.03193
G1 X112.101 Y120.647 E0.02480
G1 X111.462 Y121.459 E0.03241
G1 X110.719 Y122.170 E0.03224
G1 X110.058 Y122.660 E0.02580
G1 X109.190 Y123.152 E0.03129
G1 X108.430 Y123.465 E0.02576
G1 X107.440 Y123.735 E0.03217
G1 X106.416 Y123.865 E0.03236
G1 X73.942 Y123.876 E1.01822
G1 X72.972 Y123.805 E0.03049
G1 X72.201 Y123.654 E0.02462
G1 X71.460 Y123.426 E0.02432
G1 X70.530 Y123.010 E0.03193
G1 X69.647 Y122.455 E0.03272
G1 X69.010 Y121.933 E0.02580
G1 X68.298 Y121.181 E0.03248
G1 X67.706 Y120.347 E0.03206
G1 X67.313 Y119.614 E0.02610
G1 X66.944 Y118.654 E0.03224
G1 X66.754 Y117.884 E0.02485
G1 X66.632 Y116.859 E0.03236
G1 X66.623 Y63.466 E1.67412
G1 X66.696 Y62.468 E0.03137
G1 X66.845 Y61.705 E0.02437
G1 X67.074 Y60.962 E0.02437
G1 X67.488 Y60.034 E0.03188
G1 X67.898 Y59.355 E0.02485
G1 X68.494 Y58.597 E0.03024
M204 S1250
; printing object box.stl id:0 copy 0
G1 E-2.24000 F4200.000
;WIPE_START
G1 F7200.000
G1 X69.088 Y57.997 E-0.46790
G1 X69.721 Y57.506 E-0.44410
;WIPE_END
G1 E-0.04800 F4200.000
G1 Z0.400 F9000.000
G1 X103.682 Y93.226
G1 Z0.200
G1 E3.20000 F2400.000
M204 S800
;TYPE:Perimeter
G1 F1200.000
G1 X104.069 Y92.901 E0.01586
G1 X104.513 Y92.659 E0.01586
G1 X104.996 Y92.510 E0.01585
G1 X105.484 Y92.461 E0.01537
G1 X105.885 Y92.490 E0.01261
G1 X106.369 Y92.613 E0.01565
G1 X106.824 Y92.833 E0.01586
G1 X107.228 Y93.138 E0.01586
G1 X107.562 Y93.517 E0.01586
G1 X107.815 Y93.955 E0.01586
G1 X107.976 Y94.435 E0.01586
G1 X108.039 Y94.937 E0.01586
G1 X108.001 Y95.441 E0.01586
G1 X107.864 Y95.928 E0.01586
G1 X107.634 Y96.378 E0.01586
G1 X107.318 Y96.774 E0.01586
G1 X106.931 Y97.099 E0.01586
G1 X106.487 Y97.341 E0.01586
G1 X106.003 Y97.490 E0.01586
G1 X105.500 Y97.540 E0.01586
G1 X104.997 Y97.490 E0.01586
G1 X104.513 Y97.341 E0.01586
G1 X104.069 Y97.099 E0.01586
G1 X103.682 Y96.774 E0.01586
G1 X103.371 Y96.384 E0.01563
G1 X103.182 Y96.038 E0.01236
G1 X103.024 Y95.565 E0.01563
G1 X102.961 Y95.063 E0.01586
G1 X102.999 Y94.559 E0.01586
G1 X103.136 Y94.072 E0.01586
G1 X103.366 Y93.622 E0.01586
G1 X103.644 Y93.273 E0.01398
M204 S1250
G1 X103.939 Y93.508 F9000.000
M204 S800
;TYPE:External perimeter
G1 F1200.000
G1 X104.283 Y93.214 E0.01418
G1 X104.661 Y93.009 E0.01349
G1 X105.072 Y92.882 E0.01349
G1 X105.489 Y92.839 E0.01317
G1 X105.824 Y92.864 E0.01053
G1 X106.239 Y92.969 E0.01342
G1 X106.627 Y93.156 E0.01349
G1 X106.970 Y93.416 E0.01349
G1 X107.255 Y93.738 E0.01349
G1 X107.470 Y94.111 E0.01349
G1 X107.607 Y94.519 E0.01349
G1 X107.660 Y94.946 E0.01349
G1 X107.628 Y95.375 E0.01349
G1 X107.512 Y95.790 E0.01349
G1 X107.315 Y96.173 E0.01349
M73 P1 R48
G1 X107.047 Y96.509 E0.01349
G1 X106.717 Y96.786 E0.01349
G1 X106.339 Y96.991 E0.01349
G1 X105.928 Y97.118 E0.01349
G1 X105.500 Y97.161 E0.01349
G1 X105.072 Y97.118 E0.01349
G1 X104.661 Y96.991 E0.01349
G1 X104.283 Y96.786 E0.01349
G1 X103.953 Y96.509 E0.01349
G1 X103.686 Y96.175 E0.01341
G1 X103.529 Y95.886 E0.01029
G1 X103.393 Y95.481 E0.01341
G1 X103.340 Y95.054 E0.01349
G1 X103.372 Y94.625 E0.01349
G1 X103.488 Y94.210 E0.01349
G1 X103.685 Y93.827 E0.01349
G1 X103.902 Y93.555 E0.01091
M204 S1250
G1 X103.828 Y93.124 F9000.000
G1 E-2.24000 F4200.000
;WIPE_START
G1 F7200.000
G1 X104.283 Y93.214 E-0.28332
G1 X104.661 Y93.009 E-0.23849
G1 X105.072 Y92.882 E-0.23840
G1 X105.344 Y92.854 E-0.15179
;WIPE_END
G1 E-0.04800 F4200.000
G1 Z0.400 F9000.000
G1 X77.039 Y94.937
G1 Z0.200
G1 E3.20000 F2400.000
M204 S800
;TYPE:Perimeter
G1 F1200.000
G1 X77.001 Y95.441 E0.01586
G1 X76.864 Y95.928 E0.01586
G1 X76.634 Y96.378 E0.01586
G1 X76.318 Y96.774 E0.01586
G1 X75.931 Y97.099 E0.01586
G1 X75.487 Y97.341 E0.01586
G1 X75.003 Y97.490 E0.01586
G1 X74.500 Y97.540 E0.01586
G1 X73.997 Y97.490 E0.01586
G1 X73.513 Y97.341 E0.01586
G1 X73.069 Y97.099 E0.01586
G1 X72.682 Y96.774 E0.01586
G1 X72.371 Y96.384 E0.01563
G1 X72.182 Y96.038 E0.01236
G1 X72.024 Y95.565 E0.01563
G1 X71.961 Y95.063 E0.01586
G1 X71.999 Y94.559 E0.01586
G1 X72.136 Y94.072 E0.01586
G1 X72.366 Y93.622 E0.01586
G1 X72.682 Y93.226 E0.01586
G1 X73.069 Y92.901 E0.01586
G1 X73.513 Y92.659 E0.01586
G1 X73.996 Y92.510 E0.01585
G1 X74.484 Y92.461 E0.01537
G1 X74.885 Y92.490 E0.01261
G1 X75.369 Y92.613 E0.01565
G1 X75.824 Y92.833 E0.01586
G1 X76.228 Y93.138 E0.01586
G1 X76.562 Y93.517 E0.01586
G1 X76.815 Y93.955 E0.01586
G1 X76.976 Y94.435 E0.01586
G1 X77.032 Y94.877 E0.01398
M204 S1250
G1 X76.658 Y94.924 F9000.000
M204 S800
;TYPE:External perimeter
G1 F1200.000
G1 X76.628 Y95.375 E0.01418
G1 X76.512 Y95.790 E0.01349
G1 X76.315 Y96.173 E0.01349
G1 X76.047 Y96.509 E0.01349
G1 X75.717 Y96.786 E0.01349
G1 X75.339 Y96.991 E0.01349
G1 X74.928 Y97.118 E0.01349
G1 X74.500 Y97.161 E0.01349
G1 X74.072 Y97.118 E0.01349
G1 X73.661 Y96.991 E0.01349
G1 X73.283 Y96.786 E0.01349
G1 X72.953 Y96.509 E0.01349
G1 X72.686 Y96.175 E0.01341
G1 X72.529 Y95.886 E0.01029
G1 X72.393 Y95.481 E0.01341
G1 X72.340 Y95.054 E0.01349
G1 X72.372 Y94.625 E0.01349
G1 X72.488 Y94.210 E0.01349
G1 X72.685 Y93.827 E0.01349
G1 X72.953 Y93.491 E0.01349
G1 X73.283 Y93.214 E0.01349
G1 X73.661 Y93.009 E0.01349
G1 X74.072 Y92.882 E0.01349
G1 X74.489 Y92.839 E0.01317
G1 X74.824 Y92.864 E0.01053
G1 X75.239 Y92.969 E0.01342
G1 X75.627 Y93.156 E0.01349
G1 X75.970 Y93.416 E0.01349
G1 X76.255 Y93.738 E0.01349
G1 X76.470 Y94.111 E0.01349
G1 X76.607 Y94.519 E0.01349
G1 X76.650 Y94.864 E0.01091
M204 S1250
G1 X77.010 Y95.113 F9000.000
G1 E-2.24000 F4200.000
;WIPE_START
G1 F7200.000
G1 X76.628 Y95.375 E-0.28332
G1 X76.512 Y95.790 E-0.23848
G1 X76.315 Y96.173 E-0.23849
G1 X76.145 Y96.387 E-0.15171
;WIPE_END
G1 E-0.04800 F4200.000
G1 Z0.400 F9000.000
G1 X74.500 Y66.540
G1 Z0.200
G1 E3.20000 F2400.000
M204 S800
;TYPE:Perimeter
G1 F1200.000
G1 X73.997 Y66.490 E0.01586
G1 X73.513 Y66.341 E0.01586
G1 X73.069 Y66.099 E0.01586
G1 X72.682 Y65.774 E0.01586
G1 X72.371 Y65.384 E0.01563
G1 X72.182 Y65.038 E0.01236
G1 X72.024 Y64.565 E0.01563
G1 X71.961 Y64.063 E0.01586
G1 X71.999 Y63.559 E0.01586
G1 X72.136 Y63.072 E0.01586
G1 X72.366 Y62.622 E0.01586
G1 X72.682 Y62.226 E0.01586
G1 X73.069 Y61.901 E0.01586
G1 X73.513 Y61.659 E0.01586
G1 X73.996 Y61.510 E0.01585
G1 X74.484 Y61.461 E0.01537
G1 X74.885 Y61.490 E0.01261
G1 X75.369 Y61.613 E0.01565
G1 X75.824 Y61.833 E0.01586
G1 X76.228 Y62.138 E0.01586
G1 X76.562 Y62.517 E0.01586
G1 X76.815 Y62.955 E0.01586
G1 X76.976 Y63.435 E0.01586
G1 X77.039 Y63.937 E0.01586
G1 X77.001 Y64.441 E0.01586
G1 X76.864 Y64.928 E0.01586
G1 X76.634 Y65.378 E0.01586
G1 X76.318 Y65.774 E0.01586
G1 X75.931 Y66.099 E0.01586
G1 X75.487 Y66.341 E0.01586
G1 X75.003 Y66.490 E0.01586
G1 X74.560 Y66.534 E0.01398
M204 S1250
G1 X74.522 Y66.159 F9000.000
M204 S800
;TYPE:External perimeter
G1 F1200.000
G1 X74.072 Y66.118 E0.01418
G1 X73.661 Y65.991 E0.01349
G1 X73.283 Y65.786 E0.01349
G1 X72.953 Y65.509 E0.01349
G1 X72.686 Y65.175 E0.01341
G1 X72.529 Y64.886 E0.01029
G1 X72.393 Y64.481 E0.01341
G1 X72.340 Y64.054 E0.01349
G1 X72.372 Y63.625 E0.01349
G1 X72.488 Y63.210 E0.01349
G1 X72.685 Y62.827 E0.01349
G1 X72.953 Y62.491 E0.01349
G1 X73.283 Y62.214 E0.01349
G1 X73.661 Y62.009 E0.01349
G1 X74.072 Y61.882 E0.01349
G1 X74.489 Y61.839 E0.01317
G1 X74.824 Y61.864 E0.01053
G1 X75.239 Y61.969 E0.01342
G1 X75.627 Y62.156 E0.01349
G1 X75.970 Y62.416 E0.01349
G1 X76.255 Y62.738 E0.01349
G1 X76.470 Y63.111 E0.01349
G1 X76.607 Y63.519 E0.01349
G1 X76.660 Y63.946 E0.01349
G1 X76.628 Y64.375 E0.01349
G1 X76.512 Y64.790 E0.01349
G1 X76.315 Y65.173 E0.01349
G1 X76.047 Y65.509 E0.01349
G1 X75.717 Y65.786 E0.01349
G1 X75.339 Y65.991 E0.01349
G1 X74.928 Y66.118 E0.01349
G1 X74.582 Y66.153 E0.01091
M204 S1250
G1 X74.325 Y66.507 F9000.000
G1 E-2.24000 F4200.000
;WIPE_START
G1 F7200.000
G1 X74.072 Y66.118 E-0.28331
G1 X73.661 Y65.991 E-0.23849
G1 X73.283 Y65.786 E-0.23849
G1 X73.073 Y65.610 E-0.15171
;WIPE_END
G1 E-0.04800 F4200.000
G1 Z0.400 F9000.000
G1 X81.050 Y71.601
G1 Z0.200
G1 E3.20000 F2400.000
M204 S800
;TYPE:Perimeter
G1 F1200.000
G1 X81.454 Y71.165 E0.01866
G1 X81.881 Y70.749 E0.01866
G1 X82.327 Y70.355 E0.01866
G1 X82.792 Y69.984 E0.01866
G1 X83.275 Y69.637 E0.01866
G1 X83.775 Y69.314 E0.01866
G1 X84.291 Y69.016 E0.01866
G1 X84.821 Y68.745 E0.01866
G1 X85.363 Y68.500 E0.01866
G1 X85.917 Y68.283 E0.01866
G1 X86.481 Y68.093 E0.01866
G1 X87.054 Y67.932 E0.01866
G1 X87.635 Y67.799 E0.01866
G1 X88.221 Y67.696 E0.01866
G1 X88.811 Y67.622 E0.01866
G1 X89.405 Y67.578 E0.01866
G1 X89.979 Y67.563 E0.01799
G1 X90.595 Y67.577 E0.01932
G1 X91.189 Y67.622 E0.01868
G1 X91.779 Y67.696 E0.01866
G1 X92.365 Y67.799 E0.01866
G1 X92.946 Y67.932 E0.01866
G1 X93.519 Y68.093 E0.01866
G1 X94.083 Y68.283 E0.01866
G1 X94.637 Y68.500 E0.01866
G1 X95.179 Y68.745 E0.01866
G1 X95.709 Y69.016 E0.01866
G1 X96.225 Y69.314 E0.01866
G1 X96.725 Y69.637 E0.01866
G1 X97.208 Y69.984 E0.01866
G1 X97.673 Y70.355 E0.01866
G1 X98.119 Y70.749 E0.01866
G1 X98.546 Y71.165 E0.01866
G1 X98.950 Y71.601 E0.01866
G1 X99.333 Y72.057 E0.01866
G1 X99.692 Y72.532 E0.01866
G1 X100.028 Y73.023 E0.01866
G1 X100.338 Y73.531 E0.01866
G1 X100.623 Y74.054 E0.01866
G1 X100.881 Y74.590 E0.01866
G1 X101.112 Y75.139 E0.01866
G1 X101.316 Y75.698 E0.01866
G1 X101.491 Y76.267 E0.01866
G1 X101.638 Y76.844 E0.01866
G1 X101.756 Y77.427 E0.01866
G1 X101.845 Y78.016 E0.01866
G1 X101.904 Y78.608 E0.01866
G1 X101.934 Y79.202 E0.01866
G1 X101.934 Y79.798 E0.01866
G1 X101.904 Y80.392 E0.01866
G1 X101.845 Y80.984 E0.01866
G1 X101.756 Y81.573 E0.01866
G1 X101.638 Y82.156 E0.01866
G1 X101.491 Y82.733 E0.01866
G1 X101.316 Y83.302 E0.01866
G1 X101.112 Y83.861 E0.01866
G1 X100.881 Y84.410 E0.01866
G1 X100.623 Y84.946 E0.01866
G1 X100.338 Y85.469 E0.01866
G1 X100.028 Y85.977 E0.01866
G1 X99.692 Y86.468 E0.01866
G1 X99.333 Y86.943 E0.01866
G1 X98.950 Y87.399 E0.01866
G1 X98.546 Y87.835 E0.01866
G1 X98.119 Y88.251 E0.01866
G1 X97.673 Y88.645 E0.01866
G1 X97.208 Y89.016 E0.01866
G1 X96.725 Y89.363 E0.01866
G1 X96.225 Y89.686 E0.01866
G1 X95.709 Y89.984 E0.01866
G1 X95.179 Y90.255 E0.01866
G1 X94.637 Y90.500 E0.01866
G1 X94.083 Y90.717 E0.01866
G1 X93.519 Y90.907 E0.01866
G1 X92.946 Y91.068 E0.01866
G1 X92.365 Y91.201 E0.01866
G1 X91.779 Y91.304 E0.01866
G1 X91.189 Y91.378 E0.01866
G1 X90.595 Y91.422 E0.01866
G1 X90.000 Y91.437 E0.01866
G1 X89.405 Y91.422 E0.01866
G1 X88.811 Y91.378 E0.01866
G1 X88.221 Y91.304 E0.01866
G1 X87.635 Y91.201 E0.01866
G1 X87.054 Y91.068 E0.01866
G1 X86.481 Y90.907 E0.01866
G1 X85.917 Y90.717 E0.01866
G1 X85.363 Y90.500 E0.01866
G1 X84.821 Y90.255 E0.01866
G1 X84.291 Y89.984 E0.01866
G1 X83.775 Y89.686 E0.01866
G1 X83.275 Y89.363 E0.01866
G1 X82.792 Y89.016 E0.01866
G1 X82.327 Y88.645 E0.01866
G1 X81.881 Y88.251 E0.01866
G1 X81.454 Y87.835 E0.01866
G1 X81.050 Y87.399 E0.01866
G1 X80.664 Y86.939 E0.01882
G1 X80.140 Y86.223 E0.02783
G1 X79.664 Y85.473 E0.02783
G1 X79.377 Y84.946 E0.01882
G1 X79.119 Y84.410 E0.01866
G1 X78.888 Y83.861 E0.01866
G1 X78.684 Y83.302 E0.01866
G1 X78.509 Y82.733 E0.01866
G1 X78.362 Y82.156 E0.01866
G1 X78.244 Y81.573 E0.01866
G1 X78.155 Y80.984 E0.01866
G1 X78.096 Y80.392 E0.01866
G1 X78.066 Y79.798 E0.01866
G1 X78.066 Y79.202 E0.01866
G1 X78.096 Y78.608 E0.01866
G1 X78.155 Y78.016 E0.01866
G1 X78.244 Y77.427 E0.01866
G1 X78.362 Y76.844 E0.01866
G1 X78.509 Y76.267 E0.01866
G1 X78.684 Y75.698 E0.01866
G1 X78.888 Y75.139 E0.01866
G1 X79.119 Y74.590 E0.01866
G1 X79.377 Y74.054 E0.01866
G1 X79.662 Y73.531 E0.01866
G1 X79.972 Y73.023 E0.01866
G1 X80.308 Y72.532 E0.01866
G1 X80.667 Y72.057 E0.01866
G1 X81.011 Y71.647 E0.01678
M204 S1250
G1 X81.300 Y71.890 F9000.000
M204 S800
;TYPE:External perimeter
G1 F1200.000
G1 X81.724 Y71.428 E0.01966
G1 X82.137 Y71.026 E0.01807
G1 X82.569 Y70.644 E0.01807
G1 X83.020 Y70.285 E0.01807
G1 X83.488 Y69.949 E0.01807
G1 X83.972 Y69.636 E0.01807
G1 X84.471 Y69.348 E0.01807
G1 X84.984 Y69.085 E0.01807
G1 X85.510 Y68.848 E0.01807
G1 X86.046 Y68.637 E0.01807
G1 X86.593 Y68.453 E0.01807
G1 X87.147 Y68.297 E0.01807
G1 X87.709 Y68.169 E0.01807
G1 X88.277 Y68.069 E0.01807
G1 X88.849 Y67.997 E0.01807
G1 X89.424 Y67.954 E0.01807
G1 X89.979 Y67.940 E0.01741
G1 X90.576 Y67.954 E0.01873
G1 X91.151 Y67.997 E0.01808
G1 X91.723 Y68.069 E0.01807
G1 X92.291 Y68.169 E0.01807
G1 X92.853 Y68.297 E0.01807
G1 X93.407 Y68.453 E0.01807
G1 X93.954 Y68.637 E0.01807
G1 X94.490 Y68.848 E0.01807
G1 X95.016 Y69.085 E0.01807
G1 X95.529 Y69.348 E0.01807
G1 X96.028 Y69.636 E0.01807
G1 X96.512 Y69.949 E0.01807
G1 X96.980 Y70.285 E0.01807
G1 X97.431 Y70.644 E0.01807
G1 X97.863 Y71.026 E0.01807
G1 X98.276 Y71.428 E0.01807
G1 X98.668 Y71.851 E0.01807
G1 X99.038 Y72.292 E0.01807
G1 X99.386 Y72.752 E0.01807
G1 X99.711 Y73.228 E0.01807
G1 X100.011 Y73.720 E0.01807
G1 X100.287 Y74.226 E0.01807
G1 X100.537 Y74.745 E0.01807
G1 X100.761 Y75.277 E0.01807
G1 X100.958 Y75.818 E0.01807
G1 X101.128 Y76.369 E0.01807
G1 X101.270 Y76.928 E0.01807
G1 X101.385 Y77.493 E0.01807
G1 X101.470 Y78.063 E0.01807
G1 X101.528 Y78.636 E0.01807
G1 X101.557 Y79.212 E0.01807
G1 X101.557 Y79.788 E0.01807
G1 X101.528 Y80.364 E0.01807
G1 X101.470 Y80.937 E0.01807
G1 X101.385 Y81.507 E0.01807
G1 X101.270 Y82.072 E0.01807
G1 X101.128 Y82.631 E0.01807
G1 X100.958 Y83.182 E0.01807
G1 X100.761 Y83.723 E0.01807
G1 X100.537 Y84.255 E0.01807
G1 X100.287 Y84.774 E0.01807
G1 X100.011 Y85.280 E0.01807
G1 X99.711 Y85.772 E0.01807
G1 X99.386 Y86.248 E0.01807
G1 X99.038 Y86.708 E0.01807
G1 X98.668 Y87.149 E0.01807
G1 X98.276 Y87.572 E0.01807
G1 X97.863 Y87.974 E0.01807
G1 X97.431 Y88.356 E0.01807
G1 X96.980 Y88.715 E0.01807
G1 X96.512 Y89.051 E0.01807
G1 X96.028 Y89.364 E0.01807
G1 X95.529 Y89.652 E0.01807
G1 X95.016 Y89.915 E0.01807
G1 X94.490 Y90.152 E0.01807
G1 X93.954 Y90.363 E0.01807
G1 X93.407 Y90.547 E0.01807
G1 X92.853 Y90.703 E0.01807
G1 X92.291 Y90.831 E0.01807
G1 X91.723 Y90.931 E0.01807
G1 X91.151 Y91.003 E0.01807
G1 X90.576 Y91.046 E0.01807
G1 X90.000 Y91.060 E0.01807
G1 X89.424 Y91.046 E0.01807
G1 X88.849 Y91.003 E0.01807
G1 X88.277 Y90.931 E0.01807
