; generated by PrusaSlicer 2.4.1 on 2022-03-11 at 08:56:00 UTC


;
;

;
;
; 

; external perimeters extrusion width = 0.45mm
; perimeters extrusion width = 0.45mm
; infill extrusion width = 0.45mm
; solid infill extrusion width = 0.45mm
; top infill extrusion width = 0.40mm
; first layer extrusion width = 0.42mm

; external perimeters extrusion width = 0.45mm
; perimeters extrusion width = 0.45mm
; infill extrusion width = 0.45mm
; solid infill extrusion width = 0.45mm
; top infill extrusion width = 0.40mm
; first layer extrusion width = 0.42mm

M73 P0 R116
M107
;TYPE:Custom
G90 ; use absolute coordinates
M83 ; extruder relative mode
M104 S170 ; set extruder temp for bed leveling
M140 S60 ; set bed temp
M109 R170 ; wait for bed leveling temp
M190 S60 ; wait for bed temp
G28 ; home all without mesh bed level
G29 ; mesh bed leveling 
M104 S215 ; set extruder temp
G92 E0.0
G1 Y-2.0 X179 F2400
G1 Z3 F720
M109 S215 ; wait for extruder temp

; intro line
G1 X170 F1000
G1 Z0.2 F720
G1 X110.0 E8.0 F900
G1 X40.0 E10.0 F700
G92 E0.0

M221 S95 ; set flow
G21 ; set units to millimeters
G90 ; use absolute coordinates
M83 ; use relative distances for extrusion
M900 K0.2 ; Filament gcode LA 1.5
; ; Filament gcode LA 1.0
M107
;LAYER_CHANGE
;Z:0.2
;HEIGHT:0.2
;BEFORE_LAYER_CHANGE
G92 E0.0
;0.2


G1 E-3.2 F4200
G1 Z.2 F9000
;AFTER_LAYER_CHANGE
;0.2
G1 Z.4
G1 X27.456 Y67.953
G1 Z.2
G1 E3.2 F2400
M204 S800
;TYPE:Skirt/Brim
;WIDTH:0.42
G1 F1200
G1 X29.34 Y67.247 E.06308
G1 X31.052 Y66.745 E.05593
G1 X33.639 Y66.156 E.08322
G1 X35.68 Y65.794 E.06499
G1 X39.246 Y65.304 E.11285
G1 X46.434 Y64.666 E.22624
G1 X54.851 Y64.259 E.26422
G1 X64.39 Y64.124 E.29912
G1 X74.9 Y64.268 E.32957
G1 X92.411 Y64.812 E.54931
G1 X105.184 Y65.359 E.40086
G1 X116.954 Y66.044 E.36966
G1 X128.495 Y66.96 E.36301
G1 X141.418 Y68.255 E.40721
G1 X158.961 Y70.191 E.5534
G1 X160.217 Y70.724 E.04278
M73 P0 R115
G1 X161.063 Y72.304 E.05621
G1 X162.25 Y83.553 E.35464
G1 X166.496 Y132.644 E1.54496
G1 X166.492 Y133.758 E.03494
G1 X165.306 Y145.006 E.35464
G1 X164.779 Y146.265 E.04278
G1 X163.203 Y147.12 E.05621
G1 X139.717 Y149.679 E.74075
G1 X131.715 Y150.443 E.25206
G1 X124.688 Y151.018 E.22104
G1 X114.163 Y151.701 E.33071
G1 X101.2 Y152.322 E.40691
G1 X84.921 Y152.887 E.51073
G1 X72.125 Y153.166 E.4013
G1 X63.863 Y153.158 E.25906
G1 X55.581 Y152.918 E.25977
G1 X47.831 Y152.433 E.2435
G1 X41.942 Y151.813 E.18566
G1 X37.035 Y150.98 E.15603
G1 X33.582 Y150.063 E.11203
G1 X31.785 Y149.393 E.06015
G1 X30.75 Y148.918 E.0357
G1 X29.4 Y148.155 E.04862
G1 X28.366 Y147.417 E.03982
G1 X27.545 Y146.692 E.03435
G1 X26.845 Y145.92 E.03267
G1 X26.4 Y145.266 E.02481
G1 X26.074 Y144.592 E.02347
G1 X25.493 Y142.96 E.05431
G1 X21.832 Y131.191 E.38647
G1 X17.59 Y87.237 E1.38454
G1 X17.579 Y86.348 E.02786
G1 X17.689 Y85.633 E.02271
G1 X21.257 Y74.334 E.37151
G1 X21.874 Y72.62 E.05712
G1 X22.478 Y71.555 E.03838
G1 X23.303 Y70.619 E.03913
G1 X24.621 Y69.519 E.05383
G1 X26.017 Y68.649 E.05158
G1 X27.402 Y67.98 E.04824
M204 S1250
; printing object ISAF_420_sail_dinghy_half_hull.stl id:1 copy 0
G1 E-2.24 F4200
;WIPE_START
G1 F7200
G1 X28.942 Y67.398 E-.912
;WIPE_END
G1 E-.048 F4200
G1 Z.4 F9000
G1 X62.151 Y83.994
G1 Z.2
G1 E3.2 F2400
M204 S800
;TYPE:Perimeter
G1 F1200
G1 X62.151 Y85.833 E.05765
G1 X22.926 Y86.194 E1.22994
G1 X21.897 Y86.22 E.03226
G1 X21.333 Y86.292 E.01782
G1 X21.096 Y86.354 E.0077
G1 X21.181 Y86.029 E.01053
G1 X21.319 Y85.655 E.01251
G1 X23.017 Y79.538 E.19905
G1 X23.971 Y76.26 E.10703
G1 X24.643 Y74.21 E.06767
G1 X24.923 Y73.583 E.02152
G1 X25.206 Y73.209 E.01471
G1 X25.606 Y72.797 E.018
G1 X26.137 Y72.335 E.02208
G1 X26.491 Y72.071 E.01383
G1 X27.191 Y71.62 E.02613
G1 X27.557 Y71.414 E.01314
G1 X28.331 Y71.027 E.02715
G1 X29.571 Y70.516 E.04205
G1 X30.288 Y70.266 E.02378
G1 X31.834 Y69.811 E.05055
G1 X33.446 Y69.426 E.05196
G1 X34.264 Y69.258 E.0262
G1 X36.159 Y68.921 E.06033
G1 X38.103 Y68.636 E.06161
G1 X40.185 Y68.383 E.06574
G1 X41.705 Y68.223 E.04793
G1 X44.53 Y67.976 E.08891
G1 X46.636 Y67.824 E.06621
G1 X49.318 Y67.662 E.08425
G1 X52.772 Y67.498 E.1084
G1 X54.944 Y67.422 E.06816
G1 X58.416 Y67.337 E.10891
G1 X61.42 Y67.291 E.09419
G1 X61.954 Y67.245 E.0168
G1 X62.347 Y67.169 E.01256
G1 X62.292 Y67.282 E.00396
G1 X62.197 Y67.794 E.0163
G1 X62.162 Y68.17 E.01186
G1 X62.154 Y68.691 E.01634
G1 X62.151 Y83.934 E.47793
M204 S1250
G1 E-2.24 F4200
;WIPE_START
G1 F7200
G1 X62.151 Y85.58 E-.912
;WIPE_END
G1 E-.048 F4200
G1 Z.4 F9000
G1 X158.746 Y83.863
G1 Z.2
G1 E3.2 F2400
M204 S800
G1 F1200
G1 X158.353 Y83.794 E.01251
G1 X157.509 Y83.796 E.02647
G1 X157.507 Y74.444 E.2932
G1 X157.491 Y73.924 E.01632
G1 X157.423 Y73.377 E.01729
G1 X157.345 Y73.071 E.00989
G1 X157.562 Y73.153 E.00727
G1 X157.951 Y73.242 E.01249
G1 X158.469 Y82.258 E.28314
G1 X158.541 Y83.092 E.02627
G1 X158.642 Y83.552 E.01475
G1 X158.727 Y83.806 E.00841
M204 S1250
G1 X159.195 Y84.012 F9000
M204 S800
;TYPE:External perimeter
G1 F1200
G1 X159.529 Y84.012 E.01048
G1 X159.531 Y84.269 E.00809
G1 X159.1 Y84.291 E.01353
G1 X158.316 Y84.17 E.02486
G1 X157.831 Y84.16 E.01523
G1 X157.132 Y84.189 E.02193
G1 X157.13 Y74.45 E.30533
G1 X157.115 Y73.953 E.01559
G1 X157.052 Y73.447 E.01601
G1 X156.89 Y72.809 E.02063
G1 X140.632 Y71.014 E.51286
G1 X135.957 Y70.523 E.14737
G1 X131.481 Y70.078 E.14104
G1 X126.698 Y69.638 E.15061
G1 X121.905 Y69.24 E.15079
G1 X118.333 Y68.975 E.11232
G1 X113.429 Y68.65 E.15409
G1 X107.174 Y68.294 E.19645
G1 X101.086 Y67.998 E.1911
G1 X95.035 Y67.745 E.1899
G1 X87.795 Y67.485 E.22713
G1 X79.652 Y67.235 E.25546
G1 X73.014 Y67.079 E.20817
G1 X67.133 Y67.006 E.18441
G1 X62.771 Y67.011 E.13676
G1 X62.704 Y67.301 E.00932
G1 X62.653 Y67.403 E.00358
G1 X62.571 Y67.846 E.01411
G1 X62.539 Y68.19 E.01086
G1 X62.531 Y68.694 E.0158
G1 X62.528 Y86.207 E.54908
G1 X22.932 Y86.571 E1.24156
G1 X21.926 Y86.596 E.03156
G1 X21.405 Y86.663 E.01645
G1 X20.922 Y86.79 E.01568
G1 X20.478 Y86.794 E.01391
G1 X20.332 Y86.757 E.00473
G1 X20.34 Y86.664 E.00292
G1 X20.669 Y86.492 E.01166
G1 X20.821 Y85.916 E.01868
G1 X20.96 Y85.539 E.01258
G1 X22.654 Y79.435 E.19864
G1 X23.61 Y76.15 E.10725
G1 X24.147 Y74.474 E.05519
G1 X24.292 Y74.072 E.0134
G1 X24.519 Y73.537 E.01821
G1 X24.76 Y73.156 E.01414
G1 X24.926 Y72.957 E.00812
G1 X25.346 Y72.523 E.01894
G1 X25.9 Y72.041 E.02303
G1 X26.276 Y71.761 E.01468
G1 X26.996 Y71.297 E.02688
G1 X27.38 Y71.081 E.01379
G1 X28.175 Y70.684 E.02788
G1 X29.437 Y70.163 E.0428
G1 X30.172 Y69.907 E.0244
G1 X31.737 Y69.447 E.05115
G1 X33.364 Y69.058 E.05245
G1 X34.193 Y68.887 E.02654
G1 X36.099 Y68.549 E.06067
G1 X38.053 Y68.262 E.06194
G1 X40.142 Y68.008 E.06598
G1 X41.669 Y67.847 E.04813
G1 X44.5 Y67.6 E.08911
G1 X46.611 Y67.447 E.06636
G1 X49.298 Y67.285 E.0844
G1 X52.756 Y67.122 E.10855
G1 X54.933 Y67.045 E.0683
G1 X58.409 Y66.96 E.10902
G1 X61.401 Y66.914 E.09383
G1 X61.902 Y66.871 E.01576
G1 X62.389 Y66.777 E.01555
G1 X62.852 Y66.716 E.01464
G1 X64.875 Y66.713 E.06344
G1 X70.105 Y66.761 E.164
G1 X74.835 Y66.854 E.14832
G1 X81.841 Y67.047 E.21975
G1 X91.091 Y67.353 E.29018
G1 X96.853 Y67.573 E.1808
G1 X102.794 Y67.833 E.18647
G1 X108.548 Y68.125 E.18062
G1 X114.317 Y68.464 E.18121
G1 X119.033 Y68.783 E.1482
G1 X122.509 Y69.046 E.10931
G1 X127.241 Y69.444 E.14889
G1 X131.75 Y69.863 E.14198
G1 X136.446 Y70.332 E.14797
G1 X141.139 Y70.827 E.14797
G1 X157.01 Y72.581 E.50064
G1 X157.326 Y72.661 E.01024
G1 X157.672 Y72.791 E.01158
G1 X158.043 Y72.877 E.01194
G1 X158.309 Y72.915 E.00844
G1 X158.845 Y82.231 E.29258
G1 X158.914 Y83.036 E.02533
G1 X159.006 Y83.451 E.01334
G1 X159.175 Y83.955 E.01666
M204 S1250
G1 X159.226 Y84.344 F9000
G1 E-2.24 F4200
;WIPE_START
G1 F7200
G1 X159.529 Y84.012 E-.19843
G1 X159.531 Y84.269 E-.1429
G1 X159.1 Y84.291 E-.23913
G1 X158.509 Y84.2 E-.33154
;WIPE_END
G1 E-.048 F4200
G1 Z.4 F9000
G1 X158.195 Y79.459
G1 Z.2
G1 E3.2 F2400
M204 S800
;TYPE:Solid infill
;WIDTH:0.445026
G1 F1200
G1 X157.791 Y79.055 E.01908
G1 X157.791 Y79.624 E.01902
G1 X158.049 Y79.882 E.01219
G1 X158.084 Y80.485 E.02021
G1 X157.791 Y80.193 E.01383
G1 X157.791 Y80.762 E.01902
G1 X158.118 Y81.088 E.01546
G1 X158.153 Y81.692 E.02021
G1 X157.791 Y81.33 E.0171
G1 X157.792 Y81.899 E.01902
G1 X158.188 Y82.296 E.01876
G1 X158.242 Y82.918 E.02088
G1 X157.792 Y82.468 E.02129
G1 X157.792 Y83.037 E.01902
G1 X158.451 Y83.696 E.03119
M204 S1250
G1 E-2.24 F4200
;WIPE_START
G1 F7200
G1 X157.792 Y83.037 E-.51691
G1 X157.792 Y82.468 E-.3152
G1 X157.894 Y82.57 E-.07989
;WIPE_END
G1 E-.048 F4200
G1 Z.4 F9000
G1 X157.88 Y78.488
G1 Z.2
G1 E3.2 F2400
M204 S800
;TYPE:Gap fill
;WIDTH:0.399026
G1 F1200
G1 X157.856 Y77.678 E.02397
M204 S1250
M204 S800
;WIDTH:0.354748
G1 X157.833 Y76.869 E.02099
M204 S1250
M204 S800
;WIDTH:0.31047
G1 X157.81 Y76.06 E.01801
M204 S1250
M204 S800
;WIDTH:0.266192
G1 X157.787 Y75.251 E.01503
M204 S1250
M204 S800
;WIDTH:0.221914
G1 X157.763 Y74.441 E.01205
M204 S1250
M204 S800
;WIDTH:0.177636
G1 X157.763 Y74.439 E.00002
M204 S1250
M204 S800
;WIDTH:0.177548
G1 X157.74 Y73.908 E.00596
M204 S1250
M204 S800
;WIDTH:0.163785
G1 X157.739 Y73.902 E.00006
M204 S1250
M204 S800
;WIDTH:0.193504
G1 X157.691 Y73.376 E.00661
M204 S1250
G1 E-2.24 F4200
;WIPE_START
G1 F7200
G1 X157.739 Y73.902 E-.29264
;WIPE_END
G1 E-.66736 F4200
G1 Z.4 F9000
G1 X62.067 Y67.972
G1 Z.2
G1 E3.2 F2400
M204 S800
;TYPE:Solid infill
;WIDTH:0.421061
G1 F1200
G1 X61.65 Y67.555 E.01855
G1 X61.138 Y67.578 E.01611
G1 X61.877 Y68.317 E.03287
G1 X61.871 Y68.846 E.01664
G1 X60.611 Y67.586 E.05603
G1 X60.084 Y67.594 E.01656
G1 X61.871 Y69.381 E.07945
G1 X61.871 Y69.915 E.01681
G1 X59.558 Y67.602 E.10287
G1 X59.031 Y67.61 E.01656
G1 X61.871 Y70.45 E.12628
G1 X61.871 Y70.985 E.01681
G1 X58.504 Y67.618 E.1497
G1 X57.982 Y67.63 E.01644
G1 X61.871 Y71.519 E.17294
G1 X61.871 Y72.054 E.01681
G1 X57.46 Y67.643 E.19614
G1 X56.938 Y67.656 E.01642
G1 X61.871 Y72.589 E.21935
G1 X61.87 Y73.123 E.01681
G1 X56.416 Y67.669 E.24256
G1 X55.894 Y67.681 E.01642
G1 X61.87 Y73.658 E.26577
G1 X61.87 Y74.193 E.01681
G1 X55.372 Y67.694 E.28897
G1 X54.851 Y67.708 E.01638
G1 X61.87 Y74.727 E.31213
G1 X61.87 Y75.262 E.01681
M73 P1 R115
G1 X54.334 Y67.726 E.3351
G1 X53.818 Y67.744 E.01625
G1 X61.87 Y75.797 E.35806
G1 X61.87 Y76.332 E.01681
G1 X53.301 Y67.763 E.38103
G1 X52.785 Y67.781 E.01625
G1 X61.87 Y76.866 E.40399
G1 X61.87 Y77.401 E.01681
G1 X52.274 Y67.805 E.42669
G1 X51.763 Y67.829 E.01607
G1 X61.87 Y77.936 E.44939
G1 X61.87 Y78.47 E.01681
G1 X51.253 Y67.853 E.4721
G1 X50.742 Y67.877 E.01607
G1 X61.869 Y79.005 E.4948
G1 X61.869 Y79.54 E.01681
G1 X50.231 Y67.902 E.5175
G1 X49.721 Y67.926 E.01607
G1 X61.869 Y80.074 E.5402
G1 X61.869 Y80.609 E.01681
G1 X49.212 Y67.951 E.56283
G1 X48.707 Y67.982 E.01589
G1 X61.869 Y81.144 E.58525
G1 X61.869 Y81.678 E.01681
G1 X48.203 Y68.012 E.60767
G1 X47.699 Y68.043 E.01589
G1 X61.869 Y82.213 E.6301
G1 X61.869 Y82.748 E.01681
G1 X47.194 Y68.073 E.65252
G1 X46.69 Y68.104 E.01589
G1 X61.869 Y83.282 E.67494
G1 X61.869 Y83.817 E.01681
M73 P1 R114
G1 X46.191 Y68.139 E.69713
G1 X45.692 Y68.175 E.01572
G1 X61.869 Y84.352 E.7193
G1 X61.868 Y84.886 E.01681
G1 X45.193 Y68.211 E.74148
G1 X44.695 Y68.247 E.01572
G1 X61.868 Y85.421 E.76365
G1 X61.868 Y85.553 E.00414
G1 X61.469 Y85.556 E.01256
G1 X44.201 Y68.288 E.76785
G1 X43.709 Y68.331 E.01552
G1 X60.939 Y85.561 E.76616
G1 X60.409 Y85.566 E.01666
G1 X43.217 Y68.374 E.76446
G1 X42.725 Y68.417 E.01552
G1 X59.879 Y85.571 E.76277
G1 X59.349 Y85.576 E.01666
G1 X42.234 Y68.46 E.76107
G1 X41.742 Y68.503 E.01552
G1 X58.819 Y85.581 E.75938
G1 X58.29 Y85.586 E.01666
G1 X41.258 Y68.554 E.75734
G1 X40.774 Y68.605 E.0153
G1 X57.76 Y85.591 E.75529
G1 X57.23 Y85.595 E.01666
G1 X40.29 Y68.656 E.75325
G1 X39.812 Y68.713 E.01513
G1 X56.7 Y85.6 E.75093
G1 X56.17 Y85.605 E.01666
G1 X39.336 Y68.771 E.74856
G1 X38.859 Y68.829 E.0151
G1 X55.64 Y85.61 E.7462
G1 X55.11 Y85.615 E.01666
G1 X38.382 Y68.887 E.74383
G1 X37.911 Y68.95 E.01496
G1 X54.58 Y85.62 E.74124
G1 X54.05 Y85.625 E.01666
G1 X37.444 Y69.019 E.73841
G1 X36.978 Y69.087 E.01482
G1 X53.52 Y85.63 E.73559
G1 X52.991 Y85.634 E.01666
G1 X36.512 Y69.155 E.73276
G1 X36.049 Y69.228 E.01471
G1 X52.461 Y85.639 E.72975
G1 X51.931 Y85.644 E.01666
G1 X35.595 Y69.309 E.72638
G1 X35.141 Y69.389 E.0145
G1 X51.401 Y85.649 E.72301
G1 X50.871 Y85.654 E.01666
G1 X34.687 Y69.47 E.71965
G1 X34.235 Y69.553 E.01445
G1 X50.341 Y85.659 E.71619
G1 X49.811 Y85.664 E.01666
G1 X33.791 Y69.644 E.71234
G1 X33.352 Y69.739 E.01413
G1 X49.281 Y85.669 E.70831
G1 X48.751 Y85.673 E.01666
G1 X32.92 Y69.843 E.70395
G1 X32.489 Y69.946 E.01396
G1 X48.222 Y85.678 E.69958
G1 X47.692 Y85.683 E.01666
G1 X32.057 Y70.049 E.69522
G1 X31.637 Y70.164 E.01368
G1 X47.162 Y85.688 E.69031
G1 X46.632 Y85.693 E.01666
G1 X31.224 Y70.285 E.68512
G1 X30.811 Y70.407 E.01354
G1 X46.102 Y85.698 E.67993
G1 X45.572 Y85.703 E.01666
G1 X30.398 Y70.529 E.67474
G1 X30 Y70.666 E.01322
G1 X45.042 Y85.708 E.66885
G1 X44.512 Y85.712 E.01666
G1 X29.607 Y70.807 E.66279
G1 X29.228 Y70.963 E.01288
G1 X43.982 Y85.717 E.65606
G1 X43.453 Y85.722 E.01666
G1 X28.85 Y71.119 E.64934
G1 X28.471 Y71.275 E.01288
G1 X42.923 Y85.727 E.64261
G1 X42.393 Y85.732 E.01666
G1 X28.113 Y71.452 E.63497
G1 X27.756 Y71.63 E.01254
G1 X41.863 Y85.737 E.62727
G1 X41.333 Y85.742 E.01666
G1 X27.412 Y71.82 E.61903
G1 X27.083 Y72.026 E.0122
G1 X40.803 Y85.747 E.6101
G1 X40.273 Y85.752 E.01666
G1 X26.757 Y72.236 E.601
G1 X26.445 Y72.458 E.01206
G1 X39.743 Y85.756 E.59133
G1 X39.213 Y85.761 E.01666
G1 X26.15 Y72.698 E.58087
G1 X25.864 Y72.947 E.01192
G1 X38.683 Y85.766 E.57002
G1 X38.154 Y85.771 E.01666
G1 X25.596 Y73.213 E.55839
G1 X25.339 Y73.491 E.0119
M73 P2 R114
G1 X37.624 Y85.776 E.54625
G1 X37.094 Y85.781 E.01666
G1 X25.124 Y73.811 E.53224
G1 X24.962 Y74.183 E.01277
G1 X36.564 Y85.786 E.51591
G1 X36.034 Y85.791 E.01666
G1 X24.814 Y74.57 E.49893
G1 X24.68 Y74.972 E.0133
M73 P2 R113
G1 X35.504 Y85.795 E.4813
G1 X34.974 Y85.8 E.01666
G1 X24.551 Y75.377 E.4635
G1 X24.421 Y75.782 E.01338
G1 X34.444 Y85.805 E.4457
G1 X33.914 Y85.81 E.01666
G1 X24.291 Y76.187 E.4279
G1 X24.167 Y76.598 E.01349
G1 X33.385 Y85.815 E.40985
G1 X32.855 Y85.82 E.01666
G1 X24.047 Y77.012 E.39165
G1 X23.926 Y77.426 E.01356
G1 X32.325 Y85.825 E.37346
G1 X31.795 Y85.83 E.01666
G1 X23.806 Y77.84 E.35526
G1 X23.685 Y78.254 E.01356
G1 X31.265 Y85.834 E.33706
G1 X30.735 Y85.839 E.01666
G1 X23.564 Y78.669 E.31886
G1 X23.444 Y79.083 E.01356
G1 X30.205 Y85.844 E.30066
G1 X29.675 Y85.849 E.01666
G1 X23.323 Y79.497 E.28246
G1 X23.206 Y79.914 E.01363
G1 X29.145 Y85.854 E.26412
G1 X28.615 Y85.859 E.01666
G1 X23.089 Y80.333 E.24572
G1 X22.973 Y80.751 E.01366
G1 X28.086 Y85.864 E.22732
G1 X27.556 Y85.869 E.01666
G1 X22.857 Y81.17 E.20893
G1 X22.741 Y81.589 E.01366
G1 X27.026 Y85.873 E.19053
G1 X26.496 Y85.878 E.01666
G1 X22.625 Y82.007 E.17213
G1 X22.509 Y82.426 E.01366
G1 X25.966 Y85.883 E.15373
G1 X25.436 Y85.888 E.01666
G1 X22.393 Y82.845 E.13533
G1 X22.276 Y83.263 E.01366
G1 X24.906 Y85.893 E.11694
G1 X24.376 Y85.898 E.01666
G1 X22.16 Y83.682 E.09854
G1 X22.044 Y84.1 E.01366
G1 X23.846 Y85.903 E.08014
G1 X23.317 Y85.908 E.01666
G1 X21.928 Y84.519 E.06174
G1 X21.812 Y84.938 E.01366
G1 X22.789 Y85.915 E.04344
G1 X22.267 Y85.928 E.01641
G1 X21.696 Y85.356 E.0254
G1 X21.577 Y85.773 E.01361
G1 X21.911 Y86.106 E.01482
M204 S1250
; stop printing object ISAF_420_sail_dinghy_half_hull.stl id:1 copy 0
; printing object ISAF_420_sail_dinghy_half_hull.stl id:0 copy 0
G1 E-2.24 F4200
;WIPE_START
G1 F7200
G1 X21.577 Y85.773 E-.26126
G1 X21.696 Y85.356 E-.23991
G1 X22.22 Y85.881 E-.41083
;WIPE_END
G1 E-.048 F4200
G1 Z.4 F9000
G1 X161.751 Y133.515
G1 Z.2
G1 E3.2 F2400
M204 S800
;TYPE:Perimeter
;WIDTH:0.42
G1 F1200
G1 X162.596 Y133.517 E.02647
G1 X162.989 Y133.448 E.01251
G1 X162.884 Y133.759 E.01029
G1 X162.783 Y134.218 E.01475
G1 X162.711 Y135.053 E.02627
G1 X162.193 Y144.068 E.28314
G1 X161.805 Y144.157 E.01249
G1 X161.588 Y144.239 E.00727
G1 X161.665 Y143.934 E.00989
G1 X161.733 Y143.386 E.01729
G1 X161.75 Y142.866 E.01632
G1 X161.751 Y133.575 E.29132
M204 S1250
G1 E-2.24 F4200
;WIPE_START
G1 F7200
