; generated by PrusaSlicer 2.4.0 on 2022-02-04 at 16:03:02 UTC


;
;

;
;
; 

; external perimeters extrusion width = 0.45mm
; perimeters extrusion width = 0.45mm
; infill extrusion width = 0.45mm
; solid infill extrusion width = 0.45mm
; top infill extrusion width = 0.40mm
; first layer extrusion width = 0.42mm

M73 P0 R75
M201 X1250 Y1250 Z400 E5000 ; sets maximum accelerations, mm/sec^2
M203 X180 Y180 Z12 E80 ; sets maximum feedrates, mm/sec
M204 P1250 R1250 T1250 ; sets acceleration (P, T) and retract acceleration (R), mm/sec^2
M205 X8.00 Y8.00 Z2.00 E10.00 ; sets the jerk limits, mm/sec
M205 S0 T0 ; sets the minimum extruding and travel feed rate, mm/sec
M107
;TYPE:Custom
G90 ; use absolute coordinates
M83 ; extruder relative mode
M104 S170 ; set extruder temp for bed leveling
M140 S60 ; set bed temp
M109 R170 ; wait for bed leveling temp
M190 S60 ; wait for bed temp
G28 ; home all without mesh bed level
G29 ; mesh bed leveling 
M104 S215 ; set extruder temp
G92 E0.0
G1 Y-2.0 X179 F2400
G1 Z3 F720
M109 S215 ; wait for extruder temp

; intro line
G1 X170 F1000
G1 Z0.2 F720
G1 X110.0 E8.0 F900
G1 X40.0 E10.0 F700
G92 E0.0

M221 S95 ; set flow
G21 ; set units to millimeters
G90 ; use absolute coordinates
M83 ; use relative distances for extrusion
M900 K0.2 ; Filament gcode LA 1.5
; ; Filament gcode LA 1.0
M107
;LAYER_CHANGE
;Z:0.2
;HEIGHT:0.2
;BEFORE_LAYER_CHANGE
G92 E0.0
;0.2


G1 E-3.2 F4200
G1 Z.2 F9000
;AFTER_LAYER_CHANGE
;0.2
G1 Z.4
G1 X66.991 Y68.984
G1 Z.2
G1 E3.2 F2400
M204 S800
;TYPE:Skirt/Brim
;WIDTH:0.42
G1 F1200
G1 X68.14 Y67.883 E.0499
G1 X70.345 Y66.065 E.08962
G1 X71.677 Y65.126 E.05109
G1 X74.096 Y63.676 E.08842
G1 X75.51 Y62.964 E.04964
G1 X78.16 Y61.87 E.08988
G1 X79.66 Y61.377 E.04952
G1 X82.446 Y60.688 E.09
G1 X83.999 Y60.424 E.04939
G1 X86.861 Y60.155 E.09012
G1 X88.46 Y60.124 E.05014
G1 X91.391 Y60.291 E.09203
G1 X94.308 Y60.749 E.09261
G1 X97.188 Y61.499 E.0933
G1 X99.963 Y62.525 E.09276
G1 X102.623 Y63.821 E.09277
G1 X105.155 Y65.383 E.09329
G1 X107.507 Y67.178 E.09276
G1 X109.68 Y69.208 E.09325
G1 X111.635 Y71.436 E.09293
G1 X113.356 Y73.843 E.09278
G1 X114.832 Y76.408 E.0928
G1 X116.045 Y79.105 E.0927
G1 X116.987 Y81.915 E.09292
G1 X117.647 Y84.804 E.09293
G1 X118.02 Y87.79 E.09434
G1 X118.094 Y90.66 E.09003
G1 X118.013 Y92.304 E.0516
G1 X117.638 Y95.245 E.09296
G1 X116.991 Y98.073 E.09096
G1 X116.025 Y100.943 E.09496
G1 X114.837 Y103.581 E.0907
G1 X113.363 Y106.147 E.09281
G1 X111.642 Y108.555 E.0928
G1 X109.641 Y110.832 E.09504
G1 X107.467 Y112.855 E.09309
G1 X105.106 Y114.65 E.09301
G1 X102.582 Y116.201 E.09287
G1 X99.924 Y117.491 E.09264
G1 X97.146 Y118.514 E.09282
G1 X94.309 Y119.251 E.09191
G1 X91.367 Y119.711 E.09336
G1 X88.384 Y119.876 E.09369
G1 X85.373 Y119.74 E.0945
G1 X82.589 Y119.34 E.08817
G1 X81.094 Y119.013 E.04799
G1 X79.562 Y118.593 E.04983
G1 X76.905 Y117.648 E.0884
G1 X74.092 Y116.322 E.09752
G1 X71.674 Y114.873 E.08838
G1 X70.435 Y114.002 E.04748
G1 X69.185 Y113.023 E.04978
G1 X67.094 Y111.119 E.08869
G1 X65.018 Y108.816 E.09721
G1 X63.352 Y106.549 E.0882
G1 X62.542 Y105.262 E.04768
M73 P0 R74
G1 X62.092 Y104.268 E.03422
G1 X61.899 Y103.083 E.03765
G1 X61.898 Y77.049 E.81627
G1 X62.033 Y75.944 E.03491
G1 X62.429 Y74.933 E.03404
G1 X63.325 Y73.491 E.05323
G1 X65.082 Y71.106 E.09287
G1 X66.95 Y69.028 E.08762
M204 S1250
; printing object claresWatchStand.stl id:0 copy 0
G1 E-2.24 F4200
;WIPE_START
G1 F7200
G1 X68.136 Y67.886 E-.912
;WIPE_END
G1 E-.048 F4200
G1 Z.4 F9000
G1 X65.328 Y76.269
G1 Z.2
G1 E3.2 F2400
M204 S800
;TYPE:Perimeter
G1 F1200
G1 X65.935 Y75.279 E.03644
G1 X66.695 Y74.189 E.04164
G1 X67.503 Y73.143 E.04147
G1 X68.366 Y72.135 E.04159
G1 X69.278 Y71.17 E.04163
G1 X70.236 Y70.253 E.04157
G1 X71.238 Y69.384 E.04159
G1 X72.284 Y68.566 E.04163
G1 X73.366 Y67.801 E.04156
G1 X74.487 Y67.091 E.0416
G1 X75.642 Y66.437 E.04163
G1 X76.827 Y65.841 E.04156
G1 X78.04 Y65.305 E.04159
G1 X79.28 Y64.83 E.04164
G1 X80.539 Y64.417 E.04155
G1 X81.819 Y64.067 E.0416
G1 X83.116 Y63.781 E.04165
G1 X84.422 Y63.559 E.04154
G1 X85.74 Y63.403 E.0416
G1 X87.063 Y63.313 E.04159
G1 X88.391 Y63.288 E.04166
G1 X89.715 Y63.329 E.04153
G1 X91.038 Y63.436 E.0416
G1 X92.353 Y63.608 E.0416
G1 X93.658 Y63.846 E.04159
G1 X94.951 Y64.148 E.04163
G1 X96.223 Y64.513 E.0415
G1 X97.479 Y64.941 E.04159
G1 X98.711 Y65.431 E.04159
G1 X99.918 Y65.982 E.04159
G1 X101.095 Y66.592 E.04158
G1 X102.241 Y67.26 E.04158
G1 X103.362 Y67.99 E.04194
G1 X104.436 Y68.768 E.04159
G1 X105.47 Y69.599 E.04158
G1 X106.461 Y70.48 E.04159
G1 X107.408 Y71.41 E.04161
G1 X108.303 Y72.381 E.04139
G1 X109.153 Y73.399 E.04159
G1 X109.952 Y74.459 E.04163
G1 X110.697 Y75.557 E.0416
G1 X111.386 Y76.691 E.04159
G1 X112.018 Y77.857 E.04159
G1 X112.592 Y79.053 E.04159
G1 X113.105 Y80.276 E.04159
G1 X113.557 Y81.523 E.04159
G1 X113.947 Y82.792 E.04159
G1 X114.273 Y84.077 E.0416
G1 X114.535 Y85.378 E.04159
G1 X114.732 Y86.69 E.04159
G1 X114.864 Y88.01 E.04159
G1 X114.93 Y89.335 E.0416
G1 X114.93 Y90.661 E.04159
G1 X114.864 Y91.99 E.04172
G1 X114.732 Y93.31 E.04159
G1 X114.535 Y94.622 E.04159
G1 X114.273 Y95.923 E.04159
G1 X113.947 Y97.208 E.0416
G1 X113.557 Y98.477 E.04159
G1 X113.105 Y99.724 E.04159
G1 X112.592 Y100.947 E.04159
G1 X112.018 Y102.143 E.04159
G1 X111.386 Y103.309 E.04159
G1 X110.697 Y104.443 E.04159
G1 X109.952 Y105.541 E.04159
G1 X109.153 Y106.601 E.04163
G1 X108.303 Y107.619 E.04159
G1 X107.404 Y108.594 E.04157
G1 X106.458 Y109.522 E.04155
G1 X105.466 Y110.404 E.04163
G1 X104.432 Y111.235 E.04159
G1 X103.358 Y112.013 E.04159
G1 X102.246 Y112.737 E.04159
G1 X101.1 Y113.405 E.04159
G1 X99.922 Y114.016 E.04159
G1 X98.716 Y114.567 E.04159
G1 X97.483 Y115.057 E.04159
G1 X96.228 Y115.486 E.04159
G1 X94.953 Y115.852 E.04159
G1 X93.661 Y116.154 E.04161
G1 X92.356 Y116.391 E.04159
G1 X91.04 Y116.564 E.04159
G1 X89.718 Y116.671 E.04159
G1 X88.388 Y116.712 E.04172
G1 X87.066 Y116.688 E.04147
G1 X85.742 Y116.597 E.0416
G1 X84.425 Y116.441 E.04159
G1 X83.113 Y116.219 E.04172
G1 X81.824 Y115.934 E.04139
G1 X80.539 Y115.583 E.04177
G1 X79.279 Y115.17 E.04157
G1 X78.041 Y114.695 E.0416
G1 X76.826 Y114.158 E.04165
G1 X75.642 Y113.563 E.04153
G1 X74.486 Y112.909 E.04165
G1 X73.366 Y112.198 E.04159
G1 X72.283 Y111.434 E.04154
G1 X71.238 Y110.615 E.04164
G1 X70.235 Y109.747 E.04159
G1 X69.278 Y108.83 E.04156
G1 X68.366 Y107.865 E.04163
G1 X67.503 Y106.857 E.04159
G1 X66.692 Y105.808 E.04159
G1 X65.934 Y104.719 E.04159
G1 X65.238 Y103.607 E.04114
G1 X65.155 Y103.439 E.00589
G1 X65.083 Y103.194 E.008
G1 X65.065 Y103.029 E.0052
G1 X65.081 Y102.767 E.00823
G1 X65.164 Y102.494 E.00896
G1 X65.248 Y102.334 E.00566
G1 X65.356 Y102.188 E.00566
G1 X65.483 Y102.061 E.00566
G1 X65.628 Y101.953 E.00566
G1 X65.788 Y101.868 E.00566
G1 X65.965 Y101.806 E.00589
G1 X89.689 Y96.627 E.76136
G1 X90.311 Y96.459 E.02022
G1 X90.95 Y96.216 E.02143
G1 X91.543 Y95.922 E.02075
G1 X92.11 Y95.566 E.02098
G1 X92.639 Y95.157 E.02098
G1 X93.125 Y94.697 E.02098
G1 X93.564 Y94.192 E.02098
G1 X93.951 Y93.646 E.02098
G1 X94.282 Y93.065 E.02098
G1 X94.554 Y92.453 E.02098
G1 X94.765 Y91.818 E.02098
G1 X94.912 Y91.166 E.02098
G1 X94.995 Y90.502 E.02098
G1 X95.011 Y89.833 E.02098
G1 X94.962 Y89.165 E.02098
G1 X94.847 Y88.506 E.02098
G1 X94.667 Y87.862 E.02098
G1 X94.426 Y87.238 E.02098
G1 X94.124 Y86.641 E.02098
G1 X93.764 Y86.076 E.02098
G1 X93.351 Y85.55 E.02098
G1 X92.893 Y85.072 E.02075
G1 X92.633 Y84.839 E.01095
G1 X92.11 Y84.434 E.02075
G1 X91.543 Y84.078 E.02098
G1 X90.944 Y83.78 E.02098
G1 X90.318 Y83.543 E.02098
G1 X89.689 Y83.373 E.02045
G1 X65.965 Y78.194 E.76136
G1 X65.788 Y78.132 E.00589
G1 X65.628 Y78.047 E.00566
G1 X65.489 Y77.944 E.00543
G1 X65.313 Y77.759 E.008
G1 X65.222 Y77.62 E.0052
G1 X65.12 Y77.387 E.00799
G1 X65.079 Y77.218 E.00543
G1 X65.064 Y77.046 E.00543
G1 X65.086 Y76.792 E.008
G1 X65.168 Y76.53 E.00859
G1 X65.296 Y76.32 E.00772
M204 S1250
G1 X64.774 Y76.497 F9000
M204 S800
;TYPE:External perimeter
G1 F1200
G1 X64.83 Y76.36 E.00466
G1 X65.62 Y75.072 E.04737
G1 X66.39 Y73.966 E.04227
G1 X67.211 Y72.905 E.04206
G1 X68.085 Y71.882 E.04218
G1 X69.011 Y70.904 E.04222
G1 X69.982 Y69.974 E.04216
G1 X70.998 Y69.093 E.04218
G1 X72.059 Y68.263 E.04222
G1 X73.157 Y67.488 E.04214
G1 X74.293 Y66.767 E.04218
G1 X75.465 Y66.104 E.04222
G1 X76.666 Y65.5 E.04214
G1 X77.896 Y64.957 E.04218
G1 X79.154 Y64.474 E.04223
G1 X80.431 Y64.056 E.04213
G1 X81.728 Y63.701 E.04218
G1 X83.044 Y63.41 E.04223
G1 X84.368 Y63.186 E.04213
G1 X85.704 Y63.028 E.04218
G1 X87.047 Y62.936 E.04218
G1 X88.394 Y62.911 E.04224
G1 X89.736 Y62.952 E.04212
G1 X91.077 Y63.061 E.04218
G1 X92.411 Y63.236 E.04218
G1 X93.735 Y63.476 E.04218
G1 X95.046 Y63.783 E.04222
G1 X96.336 Y64.153 E.04209
G1 X97.609 Y64.587 E.04217
G1 X98.859 Y65.085 E.04217
G1 X100.083 Y65.643 E.04217
G1 X101.277 Y66.262 E.04217
G1 X102.439 Y66.939 E.04217
G1 X103.576 Y67.679 E.04253
G1 X104.665 Y68.469 E.04218
G1 X105.713 Y69.311 E.04217
G1 X106.719 Y70.205 E.04217
G1 X107.679 Y71.148 E.0422
G1 X108.587 Y72.132 E.04198
G1 X109.449 Y73.165 E.04218
G1 X110.259 Y74.24 E.04222
G1 X111.014 Y75.353 E.04218
G1 X111.713 Y76.503 E.04218
G1 X112.354 Y77.685 E.04218
G1 X112.936 Y78.898 E.04218
G1 X113.457 Y80.139 E.04218
G1 X113.915 Y81.404 E.04218
G1 X114.31 Y82.69 E.04218
G1 X114.641 Y83.994 E.04218
G1 X114.907 Y85.313 E.04218
G1 X115.106 Y86.643 E.04218
G1 X115.24 Y87.982 E.04218
G1 X115.307 Y89.325 E.04218
G1 X115.307 Y90.671 E.04218
G1 X115.24 Y92.018 E.04231
G1 X115.106 Y93.357 E.04218
G1 X114.907 Y94.687 E.04218
G1 X114.641 Y96.006 E.04218
G1 X114.31 Y97.31 E.04218
G1 X113.915 Y98.596 E.04218
G1 X113.457 Y99.861 E.04218
G1 X112.936 Y101.102 E.04218
G1 X112.354 Y102.315 E.04218
G1 X111.713 Y103.497 E.04218
G1 X111.014 Y104.647 E.04218
G1 X110.259 Y105.76 E.04218
G1 X109.449 Y106.835 E.04222
G1 X108.587 Y107.868 E.04218
G1 X107.675 Y108.857 E.04216
G1 X106.716 Y109.798 E.04214
G1 X105.709 Y110.692 E.04222
G1 X104.661 Y111.535 E.04218
G1 X103.571 Y112.324 E.04218
G1 X102.444 Y113.058 E.04218
G1 X101.282 Y113.736 E.04218
G1 X100.087 Y114.355 E.04218
G1 X98.864 Y114.913 E.04218
G1 X97.614 Y115.411 E.04218
G1 X96.341 Y115.846 E.04218
G1 X95.048 Y116.217 E.04218
G1 X93.738 Y116.523 E.04219
G1 X92.414 Y116.764 E.04218
G1 X91.08 Y116.939 E.04218
G1 X89.739 Y117.048 E.04218
G1 X88.391 Y117.089 E.0423
G1 X87.05 Y117.064 E.04206
G1 X85.707 Y116.973 E.04218
G1 X84.371 Y116.814 E.04218
G1 X83.041 Y116.589 E.0423
G1 X81.734 Y116.301 E.04198
G1 X80.431 Y115.944 E.04236
G1 X79.153 Y115.526 E.04216
G1 X77.897 Y115.044 E.04218
G1 X76.665 Y114.499 E.04224
G1 X75.464 Y113.896 E.04211
G1 X74.292 Y113.232 E.04224
G1 X73.156 Y112.512 E.04218
G1 X72.058 Y111.737 E.04213
G1 X70.998 Y110.907 E.04223
G1 X69.981 Y110.026 E.04218
G1 X69.01 Y109.096 E.04215
G1 X68.085 Y108.118 E.04221
G1 X67.211 Y107.095 E.04218
G1 X66.388 Y106.031 E.04218
G1 X65.619 Y104.927 E.04218
G1 X64.909 Y103.791 E.04202
G1 X64.803 Y103.576 E.00751
G1 X64.712 Y103.268 E.01006
G1 X64.687 Y103.038 E.00726
G1 X64.707 Y102.715 E.01014
G1 X64.818 Y102.342 E.0122
G1 X64.928 Y102.133 E.00743
G1 X65.069 Y101.942 E.00743
G1 X65.236 Y101.774 E.00743
G1 X65.426 Y101.633 E.00743
G1 X65.636 Y101.522 E.00743
G1 X65.861 Y101.443 E.00751
G1 X89.599 Y96.261 E.7618
G1 X90.199 Y96.099 E.01949
G1 X90.795 Y95.873 E.01997
M73 P1 R74
G1 X91.358 Y95.592 E.01973
G1 X91.894 Y95.257 E.01981
G1 X92.394 Y94.87 E.01981
G1 X92.853 Y94.436 E.01981
G1 X93.267 Y93.959 E.01981
G1 X93.632 Y93.443 E.01981
G1 X93.945 Y92.894 E.01981
G1 X94.202 Y92.317 E.01981
G1 X94.401 Y91.717 E.01981
G1 X94.54 Y91.101 E.01981
G1 X94.618 Y90.474 E.01981
G1 X94.634 Y89.842 E.01981
G1 X94.587 Y89.212 E.01981
G1 X94.478 Y88.589 E.01981
G1 X94.309 Y87.98 E.01981
G1 X94.081 Y87.391 E.01981
G1 X93.795 Y86.827 E.01981
G1 X93.456 Y86.294 E.01981
G1 X93.066 Y85.797 E.01981
G1 X92.63 Y85.343 E.01973
G1 X92.391 Y85.128 E.01007
G1 X91.894 Y84.743 E.01973
G1 X91.358 Y84.408 E.01981
G1 X90.793 Y84.126 E.01981
G1 X90.202 Y83.902 E.01981
G1 X89.599 Y83.739 E.01957
G1 X65.861 Y78.557 E.7618
G1 X65.636 Y78.478 E.00751
G1 X65.426 Y78.367 E.00743
G1 X65.238 Y78.227 E.00735
G1 X65.017 Y77.994 E.01006
G1 X64.889 Y77.801 E.00726
G1 X64.761 Y77.507 E.01006
G1 X64.706 Y77.279 E.00735
G1 X64.686 Y77.046 E.00735
G1 X64.713 Y76.726 E.01006
G1 X64.759 Y76.555 E.00555
M204 S1250
G1 X64.919 Y76.466 F9000
G1 E-2.24 F4200
;WIPE_START
G1 F7200
G1 X64.83 Y76.36 E-.11535
G1 X65.581 Y75.134 E-.79665
;WIPE_END
G1 E-.048 F4200
G1 Z.4 F9000
G1 X109.052 Y73.455
G1 Z.2
G1 E3.2 F2400
M204 S800
;TYPE:Solid infill
;WIDTH:0.420461
G1 F1200
G1 X106.268 Y70.687 E.12324
G1 X105.287 Y69.815 E.0412
G1 X104.264 Y68.993 E.04119
G1 X103.51 Y68.447 E.02923
G1 X109.795 Y74.731 E.279
G1 X110.459 Y75.71 E.03714
G1 X110.799 Y76.269 E.02054
G1 X101.943 Y67.413 E.39316
G1 X100.703 Y66.708 E.04478
G1 X111.512 Y77.516 E.47986
G1 X111.766 Y77.985 E.01675
G1 X112.06 Y78.598 E.02134
G1 X99.618 Y66.156 E.55237
G1 X98.636 Y65.708 E.0339
G1 X112.505 Y79.577 E.61574
G1 X112.881 Y80.487 E.03089
G1 X97.746 Y65.352 E.67193
G1 X96.904 Y65.044 E.02814
G1 X113.184 Y81.324 E.72278
G1 X113.444 Y82.118 E.02622
G1 X96.097 Y64.771 E.77015
G1 X95.348 Y64.556 E.02445
G1 X113.68 Y82.887 E.81383
G1 X113.861 Y83.603 E.02317
G1 X94.619 Y64.361 E.85426
G1 X93.922 Y64.198 E.02246
G1 X114.031 Y84.306 E.89274
G1 X114.165 Y84.975 E.02141
G1 X93.249 Y64.059 E.9286
G1 X92.596 Y63.94 E.02083
G1 X114.287 Y85.63 E.96297
G1 X114.381 Y86.259 E.01994
G1 X91.965 Y63.843 E.99519
G1 X91.351 Y63.762 E.01945
G1 X114.467 Y86.878 E1.02625
G1 X114.526 Y87.471 E.01871
G1 X90.751 Y63.696 E1.0555
G1 X90.17 Y63.649 E.01829
G1 X114.583 Y88.062 E1.08383
G1 X114.611 Y88.624 E.01766
G1 X89.595 Y63.608 E1.11061
G1 X89.044 Y63.591 E.01731
G1 X114.639 Y89.186 E1.13632
G1 X114.647 Y89.728 E.01701
G1 X88.493 Y63.574 E1.16113
G1 X87.964 Y63.579 E.01661
G1 X114.647 Y90.262 E1.18462
G1 X114.64 Y90.789 E.01655
G1 X87.44 Y63.588 E1.2076
G1 X86.923 Y63.606 E.01623
G1 X114.615 Y91.298 E1.22941
G1 X114.59 Y91.806 E.01599
G1 X86.423 Y63.64 E1.25047
G1 X85.924 Y63.674 E.01572
M73 P1 R73
G1 X114.549 Y92.299 E1.27084
G1 X114.5 Y92.785 E.01532
G1 X85.439 Y63.724 E1.29019
G1 X84.962 Y63.78 E.01509
G1 X114.452 Y93.27 E1.30924
G1 X114.382 Y93.735 E.01474
G1 X84.485 Y63.837 E1.32734
G1 X84.027 Y63.913 E.01456
M73 P2 R73
G1 X114.313 Y94.199 E1.34456
G1 X114.239 Y94.659 E.01464
G1 X83.57 Y63.99 E1.36157
G1 X83.116 Y64.07 E.01448
G1 X114.15 Y95.104 E1.37776
G1 X114.06 Y95.548 E.01423
G1 X82.679 Y64.167 E1.39321
G1 X82.241 Y64.263 E.01406
G1 X113.965 Y95.987 E1.4084
G1 X113.857 Y96.413 E.01379
G1 X81.807 Y64.363 E1.42287
G1 X81.388 Y64.478 E.01364
G1 X113.749 Y96.839 E1.43669
G1 X113.636 Y97.259 E.01367
G1 X80.969 Y64.593 E1.45026
G1 X80.553 Y64.71 E.01358
G1 X113.51 Y97.668 E1.46318
G1 X113.385 Y98.076 E.01341
G1 X80.15 Y64.842 E1.47546
G1 X79.748 Y64.974 E.01328
G1 X113.255 Y98.481 E1.48757
G1 X113.113 Y98.872 E.01309
G1 X79.347 Y65.107 E1.49906
G1 X78.961 Y65.255 E.01297
G1 X112.971 Y99.264 E1.50989
G1 X112.828 Y99.655 E.01306
G1 X78.576 Y65.403 E1.52065
G1 X78.19 Y65.551 E.01297
G1 X112.67 Y100.031 E1.53077
G1 X112.512 Y100.407 E.0128
G1 X77.818 Y65.713 E1.54028
G1 X77.447 Y65.876 E.01271
G1 X112.354 Y100.783 E1.54971
G1 X112.183 Y101.146 E.01259
G1 X77.077 Y66.04 E1.55856
G1 X76.716 Y66.213 E.01256
G1 X112.01 Y101.507 E1.56689
G1 X111.837 Y101.868 E.01256
M73 P3 R73
G1 X76.361 Y66.392 E1.57498
G1 X76.006 Y66.57 E.01248
G1 X111.655 Y102.22 E1.58269
G1 X111.467 Y102.566 E.01236
G1 X75.655 Y66.754 E1.58991
G1 X75.315 Y66.947 E.0123
M73 P3 R72
G1 X111.28 Y102.912 E1.59671
G1 X111.088 Y103.255 E.01232
G1 X94.406 Y86.572 E.74063
G1 X93.995 Y85.912 E.0244
G1 X93.565 Y85.364 E.02188
G1 X93.09 Y84.869 E.02154
G1 X92.815 Y84.621 E.01162
G1 X92.272 Y84.201 E.02154
G1 X91.648 Y83.815 E.02304
G1 X74.974 Y67.14 E.74028
G1 X74.633 Y67.333 E.0123
G1 X90.676 Y83.376 E.71223
G1 X90.406 Y83.274 E.00907
G1 X89.903 Y83.138 E.01633
G1 X74.306 Y67.54 E.69245
G1 X73.979 Y67.748 E.01215
G1 X89.21 Y82.979 E.6762
G1 X88.527 Y82.83 E.02195
G1 X73.653 Y67.955 E.66038
