; generated by PrusaSlicer 2.4.0 on 2022-02-03 at 08:26:03 UTC


;
;

;
;
; 

; external perimeters extrusion width = 0.45mm
; perimeters extrusion width = 0.45mm
; infill extrusion width = 0.45mm
; solid infill extrusion width = 0.45mm
; top infill extrusion width = 0.40mm
; first layer extrusion width = 0.42mm

M73 P0 R78
M201 X1250 Y1250 Z400 E5000 ; sets maximum accelerations, mm/sec^2
M203 X180 Y180 Z12 E80 ; sets maximum feedrates, mm/sec
M204 P1250 R1250 T1250 ; sets acceleration (P, T) and retract acceleration (R), mm/sec^2
M205 X8.00 Y8.00 Z2.00 E10.00 ; sets the jerk limits, mm/sec
M205 S0 T0 ; sets the minimum extruding and travel feed rate, mm/sec
M107
;TYPE:Custom
G90 ; use absolute coordinates
M83 ; extruder relative mode
M104 S170 ; set extruder temp for bed leveling
M140 S60 ; set bed temp
M109 R170 ; wait for bed leveling temp
M190 S60 ; wait for bed temp
G28 ; home all without mesh bed level
G29 ; mesh bed leveling 
M104 S215 ; set extruder temp
G92 E0.0
G1 Y-2.0 X179 F2400
G1 Z3 F720
M109 S215 ; wait for extruder temp

; intro line
G1 X170 F1000
G1 Z0.2 F720
G1 X110.0 E8.0 F900
G1 X40.0 E10.0 F700
G92 E0.0

M221 S95 ; set flow
G21 ; set units to millimeters
G90 ; use absolute coordinates
M83 ; use relative distances for extrusion
M900 K0.2 ; Filament gcode LA 1.5
; ; Filament gcode LA 1.0
M107
;LAYER_CHANGE
;Z:0.2
;HEIGHT:0.2
;BEFORE_LAYER_CHANGE
G92 E0.0
;0.2


M73 P0 R77
G1 E-3.2 F4200
G1 Z.2 F9000
;AFTER_LAYER_CHANGE
;0.2
G1 Z.4
G1 X67.028 Y69.387
G1 Z.2
G1 E3.2 F2400
M204 S800
;TYPE:Skirt/Brim
;WIDTH:0.42
G1 F1200
G1 X69.11 Y67.405 E.09013
G1 X70.369 Y66.374 E.05102
G1 X72.704 Y64.739 E.08936
G1 X74.073 Y63.925 E.04995
G1 X76.658 Y62.639 E.09053
G1 X78.087 Y62.056 E.04839
G1 X80.808 Y61.174 E.08968
G1 X82.346 Y60.799 E.04965
G1 X85.166 Y60.329 E.08962
G1 X86.744 Y60.186 E.0497
G1 X89.57 Y60.14 E.08861
G1 X91.185 Y60.233 E.05071
G1 X94.12 Y60.629 E.09287
G1 X97.008 Y61.317 E.09309
G1 X99.807 Y62.285 E.09285
G1 X102.496 Y63.525 E.09286
G1 X105.038 Y65.018 E.09241
G1 X107.417 Y66.751 E.0923
G1 X109.643 Y68.739 E.09357
G1 X111.612 Y70.881 E.09123
G1 X113.389 Y73.243 E.09267
G1 X114.929 Y75.779 E.09301
G1 X116.205 Y78.443 E.09263
G1 X117.212 Y81.22 E.09262
G1 X117.933 Y84.053 E.09166
G1 X118.377 Y86.979 E.09279
G1 X118.531 Y90.059 E.09669
G1 X118.379 Y93.011 E.09268
G1 X117.937 Y95.931 E.0926
G1 X117.212 Y98.783 E.09226
G1 X116.205 Y101.56 E.09261
G1 X114.929 Y104.224 E.09263
G1 X113.395 Y106.75 E.09265
G1 X111.62 Y109.112 E.09266
G1 X109.608 Y111.299 E.09316
G1 X107.402 Y113.265 E.09264
G1 X105.011 Y115.003 E.09268
G1 X102.461 Y116.497 E.09267
G1 X99.746 Y117.743 E.09367
G1 X96.951 Y118.703 E.09266
G1 X94.072 Y119.383 E.09276
G1 X91.144 Y119.775 E.09261
G1 X88.183 Y119.875 E.0929
G1 X85.152 Y119.672 E.09526
G1 X82.392 Y119.213 E.08772
G1 X80.916 Y118.858 E.0476
G1 X77.967 Y117.9 E.09723
G1 X75.379 Y116.766 E.08859
G1 X73.982 Y116.027 E.04954
G1 X72.672 Y115.243 E.04786
G1 X70.367 Y113.627 E.08826
G1 X68.067 Y111.653 E.09504
G1 X65.979 Y109.455 E.09506
G1 X64.256 Y107.243 E.08792
G1 X63.396 Y105.959 E.04846
G1 X61.862 Y103.217 E.0985
G1 X61.608 Y102.498 E.02393
G1 X61.483 Y101.752 E.02371
G1 X61.471 Y78.471 E.72996
G1 X61.556 Y77.728 E.02345
G1 X61.734 Y77.1 E.02046
G1 X62.595 Y75.39 E.06003
G1 X64.164 Y72.889 E.09257
G1 X65.137 Y71.575 E.05127
G1 X66.989 Y69.433 E.08879
M204 S1250
; printing object claresWatchStand.stl id:0 copy 0
G1 E-2.24 F4200
;WIPE_START
G1 F7200
G1 X68.179 Y68.295 E-.912
;WIPE_END
G1 E-.048 F4200
G1 Z.4 F9000
G1 X64.753 Y78.085
G1 Z.2
G1 E3.2 F2400
M204 S800
;TYPE:Perimeter
G1 F1200
G1 X65.382 Y76.888 E.04238
G1 X66.061 Y75.751 E.04154
G1 X66.795 Y74.648 E.04152
G1 X67.582 Y73.584 E.04152
G1 X68.424 Y72.558 E.04162
G1 X69.313 Y71.577 E.04151
G1 X70.249 Y70.641 E.0415
G1 X71.234 Y69.751 E.0416
G1 X72.259 Y68.912 E.04153
G1 X73.322 Y68.127 E.04146
G1 X74.428 Y67.393 E.0416
G1 X75.566 Y66.715 E.04153
G1 X76.734 Y66.096 E.04146
G1 X77.936 Y65.534 E.0416
G1 X79.162 Y65.032 E.04153
G1 X80.41 Y64.593 E.04147
G1 X81.681 Y64.215 E.04159
G1 X82.968 Y63.901 E.04153
G1 X84.267 Y63.652 E.04147
G1 X85.58 Y63.466 E.04159
G1 X86.9 Y63.347 E.04153
G1 X88.223 Y63.292 E.04153
G1 X89.547 Y63.304 E.0415
G1 X90.87 Y63.381 E.04156
G1 X92.187 Y63.523 E.04153
G1 X93.495 Y63.731 E.04153
G1 X94.791 Y64.003 E.04153
G1 X96.074 Y64.34 E.04157
G1 X97.336 Y64.739 E.04152
G1 X98.577 Y65.2 E.04152
G1 X99.794 Y65.723 E.04152
G1 X100.984 Y66.305 E.04152
G1 X102.143 Y66.945 E.04152
G1 X103.269 Y67.641 E.04152
G1 X104.359 Y68.393 E.04152
G1 X105.411 Y69.198 E.04152
G1 X106.421 Y70.054 E.04152
G1 X107.388 Y70.959 E.04152
G1 X108.312 Y71.915 E.04167
G1 X109.184 Y72.91 E.04149
G1 X110.006 Y73.949 E.04153
G1 X110.775 Y75.027 E.04153
G1 X111.491 Y76.143 E.04156
G1 X112.15 Y77.292 E.04153
G1 X112.751 Y78.472 E.04153
G1 X113.293 Y79.68 E.04153
G1 X113.774 Y80.914 E.04153
G1 X114.193 Y82.171 E.04153
G1 X114.55 Y83.446 E.04153
G1 X114.843 Y84.738 E.04153
G1 X115.072 Y86.042 E.04153
G1 X115.236 Y87.357 E.04153
G1 X115.334 Y88.677 E.04153
G1 X115.367 Y90.002 E.04153
G1 X115.334 Y91.326 E.04153
G1 X115.236 Y92.646 E.04153
G1 X115.072 Y93.961 E.04153
G1 X114.843 Y95.265 E.04153
G1 X114.55 Y96.557 E.04153
G1 X114.193 Y97.832 E.04153
G1 X113.774 Y99.089 E.04153
G1 X113.293 Y100.323 E.04153
G1 X112.751 Y101.531 E.04153
G1 X112.15 Y102.711 E.04153
G1 X111.491 Y103.86 E.04153
G1 X110.775 Y104.976 E.04156
G1 X110.006 Y106.054 E.04153
G1 X109.184 Y107.093 E.04153
G1 X108.312 Y108.088 E.04149
G1 X107.39 Y109.042 E.04159
G1 X106.424 Y109.947 E.04149
G1 X105.412 Y110.804 E.04159
G1 X104.36 Y111.609 E.04153
G1 X103.27 Y112.361 E.04153
G1 X102.143 Y113.058 E.04153
G1 X100.983 Y113.699 E.04155
G1 X99.794 Y114.281 E.04153
G1 X98.576 Y114.803 E.04153
G1 X97.333 Y115.265 E.04159
G1 X96.071 Y115.664 E.04149
G1 X94.788 Y116 E.0416
G1 X93.493 Y116.272 E.04148
G1 X92.185 Y116.48 E.04153
G1 X90.867 Y116.622 E.04156
G1 X89.545 Y116.699 E.04153
G1 X88.221 Y116.711 E.04152
G1 X86.897 Y116.656 E.04153
G1 X85.583 Y116.537 E.04138
G1 X84.267 Y116.351 E.04167
G1 X82.966 Y116.102 E.04152
G1 X81.684 Y115.789 E.0414
G1 X80.41 Y115.41 E.04165
G1 X79.16 Y114.97 E.04155
G1 X77.935 Y114.469 E.04151
G1 X76.735 Y113.908 E.04153
G1 X75.564 Y113.287 E.04156
G1 X74.427 Y112.61 E.04149
G1 X73.324 Y111.877 E.04153
G1 X72.257 Y111.089 E.04158
G1 X71.233 Y110.252 E.04147
G1 X70.251 Y109.363 E.04153
G1 X69.311 Y108.424 E.04166
G1 X68.424 Y107.446 E.04142
G1 X67.584 Y106.422 E.04152
G1 X66.795 Y105.355 E.04162
G1 X66.061 Y104.252 E.04152
G1 X65.382 Y103.115 E.04154
G1 X64.768 Y101.959 E.04104
G1 X64.694 Y101.778 E.00612
G1 X64.649 Y101.595 E.00589
G1 X64.634 Y101.37 E.00709
G1 X64.654 Y101.183 E.00589
G1 X64.7 Y101.008 E.00566
G1 X64.772 Y100.843 E.00566
G1 X64.867 Y100.689 E.00566
G1 X64.984 Y100.552 E.00566
G1 X65.12 Y100.433 E.00566
G1 X65.273 Y100.336 E.00566
G1 X65.438 Y100.263 E.00566
G1 X65.619 Y100.213 E.00589
G1 X89.648 Y96.715 E.76136
G1 X90.279 Y96.592 E.02017
G1 X90.608 Y96.502 E.01069
G1 X90.932 Y96.395 E.01069
G1 X91.543 Y96.144 E.0207
G1 X92.132 Y95.831 E.02093
G1 X92.688 Y95.461 E.02093
G1 X93.205 Y95.038 E.02093
G1 X93.679 Y94.566 E.02099
G1 X94.097 Y94.058 E.02064
G1 X94.298 Y93.773 E.01092
G1 X94.638 Y93.207 E.0207
G1 X94.923 Y92.604 E.02093
G1 X95.149 Y91.976 E.02093
G1 X95.311 Y91.328 E.02093
G1 X95.409 Y90.668 E.02093
G1 X95.442 Y90.002 E.02093
G1 X95.409 Y89.335 E.02093
G1 X95.311 Y88.675 E.02093
G1 X95.149 Y88.027 E.02093
G1 X94.926 Y87.406 E.0207
G1 X94.785 Y87.088 E.01092
G1 X94.476 Y86.512 E.02047
G1 X94.29 Y86.218 E.01092
G1 X93.896 Y85.688 E.0207
G1 X93.447 Y85.194 E.02093
G1 X92.951 Y84.747 E.02093
G1 X92.414 Y84.35 E.02093
G1 X91.841 Y84.008 E.02093
G1 X91.237 Y83.724 E.02093
G1 X90.615 Y83.503 E.0207
G1 X90.279 Y83.411 E.01092
G1 X89.648 Y83.288 E.02017
G1 X65.626 Y79.791 E.76113
G1 X65.375 Y79.715 E.00821
G1 X65.227 Y79.64 E.00522
G1 X65.023 Y79.488 E.00799
G1 X64.909 Y79.367 E.0052
G1 X64.769 Y79.154 E.008
G1 X64.7 Y78.995 E.00543
G1 X64.656 Y78.827 E.00543
G1 X64.634 Y78.566 E.00823
G1 X64.675 Y78.29 E.00873
G1 X64.732 Y78.141 E.005
M204 S1250
G1 X64.266 Y78.419 F9000
M204 S800
;TYPE:External perimeter
G1 F1200
G1 X64.311 Y78.187 E.00743
G1 X64.427 Y77.882 E.01023
G1 X65.053 Y76.703 E.04184
G1 X65.742 Y75.549 E.04213
G1 X66.486 Y74.432 E.04211
G1 X67.285 Y73.352 E.0421
G1 X68.138 Y72.311 E.04221
G1 X69.04 Y71.316 E.04209
G1 X69.989 Y70.368 E.04209
G1 X70.988 Y69.465 E.04219
G1 X72.027 Y68.615 E.04212
G1 X73.106 Y67.818 E.04204
G1 X74.227 Y67.073 E.04219
G1 X75.381 Y66.386 E.04212
G1 X76.566 Y65.758 E.04205
G1 X77.785 Y65.188 E.04218
G1 X79.028 Y64.68 E.04212
G1 X80.293 Y64.234 E.04206
G1 X81.583 Y63.851 E.04218
G1 X82.888 Y63.533 E.04212
G1 X84.205 Y63.28 E.04206
G1 X85.537 Y63.092 E.04218
G1 X86.875 Y62.97 E.04212
G1 X88.217 Y62.915 E.04212
G1 X89.559 Y62.927 E.04209
G1 X90.901 Y63.005 E.04215
G1 X92.237 Y63.15 E.04212
G1 X93.563 Y63.36 E.04212
G1 X94.878 Y63.636 E.04212
G1 X96.178 Y63.977 E.04215
G1 X97.459 Y64.382 E.04211
G1 X98.718 Y64.85 E.04211
G1 X99.952 Y65.38 E.04211
G1 X101.158 Y65.97 E.04211
G1 X102.334 Y66.619 E.04211
G1 X103.476 Y67.326 E.04211
G1 X104.581 Y68.088 E.04211
G1 X105.648 Y68.904 E.04211
G1 X106.672 Y69.772 E.04211
G1 X107.653 Y70.69 E.04211
G1 X108.59 Y71.659 E.04226
G1 X109.474 Y72.669 E.04207
G1 X110.307 Y73.722 E.04212
G1 X111.087 Y74.815 E.04212
G1 X111.813 Y75.947 E.04215
G1 X112.481 Y77.112 E.04211
G1 X113.091 Y78.309 E.04212
G1 X113.64 Y79.535 E.04211
G1 X114.129 Y80.786 E.04211
G1 X114.554 Y82.06 E.04211
G1 X114.916 Y83.354 E.04211
G1 X115.213 Y84.663 E.04211
G1 X115.445 Y85.986 E.04212
G1 X115.611 Y87.319 E.04211
G1 X115.711 Y88.659 E.04211
G1 X115.744 Y90.002 E.04211
G1 X115.711 Y91.344 E.04211
G1 X115.611 Y92.684 E.04211
G1 X115.445 Y94.017 E.04211
G1 X115.213 Y95.34 E.04212
G1 X114.916 Y96.649 E.04211
G1 X114.554 Y97.943 E.04211
G1 X114.129 Y99.217 E.04211
G1 X113.64 Y100.468 E.04211
G1 X113.091 Y101.694 E.04211
G1 X112.481 Y102.891 E.04212
G1 X111.813 Y104.056 E.04211
G1 X111.087 Y105.188 E.04215
G1 X110.307 Y106.281 E.04211
G1 X109.474 Y107.334 E.04212
G1 X108.59 Y108.344 E.04207
G1 X107.655 Y109.311 E.04218
G1 X106.675 Y110.228 E.04208
G1 X105.649 Y111.098 E.04218
G1 X104.582 Y111.914 E.04212
G1 X103.476 Y112.677 E.04212
G1 X102.334 Y113.384 E.04212
G1 X101.158 Y114.033 E.04214
G1 X99.951 Y114.624 E.04212
G1 X98.716 Y115.153 E.04212
G1 X97.455 Y115.622 E.04218
G1 X96.176 Y116.026 E.04208
G1 X94.875 Y116.368 E.04218
G1 X93.561 Y116.643 E.04207
G1 X92.235 Y116.854 E.04211
G1 X90.898 Y116.998 E.04215
G1 X89.557 Y117.076 E.04211
G1 X88.214 Y117.088 E.04211
G1 X86.872 Y117.033 E.04211
G1 X85.539 Y116.912 E.04197
G1 X84.205 Y116.723 E.04226
G1 X82.886 Y116.47 E.04211
G1 X81.585 Y116.153 E.04198
G1 X80.294 Y115.769 E.04224
G1 X79.026 Y115.323 E.04213
G1 X77.784 Y114.815 E.04209
G1 X76.567 Y114.245 E.04211
G1 X75.379 Y113.616 E.04215
G1 X74.226 Y112.929 E.04207
G1 X73.107 Y112.186 E.04211
G1 X72.025 Y111.387 E.04217
G1 X70.987 Y110.538 E.04206
G1 X69.991 Y109.637 E.04211
G1 X69.038 Y108.685 E.04225
G1 X68.138 Y107.692 E.04201
G1 X67.287 Y106.653 E.04211
G1 X66.486 Y105.571 E.04221
G1 X65.742 Y104.454 E.04211
G1 X65.053 Y103.3 E.04213
G1 X64.426 Y102.119 E.04193
G1 X64.334 Y101.895 E.00759
G1 X64.277 Y101.662 E.00751
G1 X64.257 Y101.352 E.00974
G1 X64.283 Y101.114 E.00751
G1 X64.343 Y100.885 E.00743
G1 X64.437 Y100.667 E.00743
G1 X64.562 Y100.466 E.00743
G1 X64.715 Y100.286 E.00743
G1 X64.894 Y100.13 E.00743
G1 X65.094 Y100.003 E.00743
G1 X65.31 Y99.907 E.00743
G1 X65.541 Y99.843 E.00751
G1 X89.585 Y96.344 E.7618
G1 X90.193 Y96.224 E.01944
G1 X90.802 Y96.041 E.01993
G1 X91.382 Y95.803 E.01968
G1 X91.939 Y95.507 E.01976
G1 X92.463 Y95.157 E.01976
G1 X92.951 Y94.758 E.01976
G1 X93.399 Y94.312 E.01983
G1 X93.797 Y93.829 E.01962
G1 X93.981 Y93.567 E.01005
G1 X94.305 Y93.029 E.01968
G1 X94.575 Y92.459 E.01976
G1 X94.788 Y91.866 E.01976
G1 X94.941 Y91.255 E.01976
G1 X95.034 Y90.631 E.01976
G1 X95.065 Y90.002 E.01976
G1 X95.034 Y89.372 E.01976
G1 X94.941 Y88.748 E.01976
G1 X94.788 Y88.137 E.01976
G1 X94.576 Y87.546 E.01968
G1 X94.446 Y87.253 E.01005
G1 X94.15 Y86.702 E.0196
G1 X93.979 Y86.432 E.01005
G1 X93.604 Y85.928 E.01968
G1 X93.18 Y85.462 E.01976
G1 X92.712 Y85.039 E.01976
G1 X92.205 Y84.665 E.01976
G1 X91.664 Y84.342 E.01976
G1 X91.094 Y84.073 E.01976
G1 X90.502 Y83.863 E.01968
G1 X90.193 Y83.779 E.01005
G1 X89.585 Y83.659 E.01944
G1 X65.544 Y80.16 E.76172
G1 X65.235 Y80.067 E.01012
M73 P1 R77
G1 X65.027 Y79.962 E.00728
G1 X64.77 Y79.77 E.01006
G1 X64.612 Y79.601 E.00726
G1 X64.436 Y79.333 E.01006
G1 X64.343 Y79.118 E.00734
G1 X64.283 Y78.891 E.00735
G1 X64.262 Y78.479 E.01295
M204 S1250
G1 X64.481 Y78.32 F9000
G1 E-2.24 F4200
;WIPE_START
G1 F7200
G1 X64.311 Y78.187 E-.16432
G1 X64.427 Y77.882 E-.18073
G1 X64.907 Y76.978 E-.56695
;WIPE_END
G1 E-.048 F4200
G1 Z.4 F9000
G1 X109.421 Y73.393
G1 Z.2
G1 E3.2 F2400
M204 S800
;TYPE:Solid infill
;WIDTH:0.420423
G1 F1200
G1 X107.185 Y71.156 E.09927
G1 X106.233 Y70.265 E.04093
G1 X105.234 Y69.418 E.04113
G1 X103.947 Y68.453 E.05049
G1 X110.193 Y74.699 E.27727
G1 X110.541 Y75.185 E.01878
G1 X111.246 Y76.285 E.04102
G1 X102.392 Y67.431 E.39304
G1 X102 Y67.189 E.01447
G1 X101.142 Y66.715 E.03079
G1 X111.95 Y77.523 E.4798
G1 X112.502 Y78.609 E.03825
G1 X100.061 Y66.168 E.55229
G1 X99.676 Y65.98 E.01344
G1 X99.085 Y65.726 E.02019
G1 X112.936 Y79.577 E.61486
G1 X113.298 Y80.473 E.03032
G1 X98.18 Y65.354 E.67113
G1 X97.33 Y65.038 E.02845
G1 X113.611 Y81.319 E.72274
G1 X113.879 Y82.121 E.02653
G1 X96.542 Y64.785 E.76959
G1 X95.779 Y64.555 E.02503
G1 X114.096 Y82.872 E.81314
G1 X114.297 Y83.607 E.0239
G1 X95.055 Y64.365 E.85417
G1 X94.357 Y64.201 E.02249
G1 X114.453 Y84.297 E.8921
G1 X114.598 Y84.976 E.02177
G1 X93.681 Y64.059 E.92851
G1 X93.032 Y63.944 E.02069
G1 X114.711 Y85.623 E.96236
G1 X114.814 Y86.26 E.02024
G1 X92.398 Y63.843 E.9951
G1 X91.785 Y63.764 E.01939
G1 X114.89 Y86.869 E1.02567
G1 X114.961 Y87.474 E.01911
M73 P1 R76
G1 X91.186 Y63.7 E1.05539
G1 X90.601 Y63.649 E.01843
G1 X115.004 Y88.051 E1.08327
G1 X115.047 Y88.628 E.01816
G1 X90.034 Y63.615 E1.11034
G1 X89.471 Y63.586 E.01771
G1 X115.064 Y89.179 E1.1361
G1 X115.077 Y89.726 E.01719
G1 X88.932 Y63.581 E1.16061
G1 X88.394 Y63.577 E.0169
G1 X115.078 Y90.26 E1.18453
G1 X115.065 Y90.781 E.01636
G1 X87.873 Y63.59 E1.20708
G1 X87.36 Y63.611 E.01611
G1 X115.052 Y91.302 E1.22927
G1 X115.015 Y91.8 E.01565
G1 X86.851 Y63.635 E1.25027
G1 X86.361 Y63.679 E.01543
G1 X114.978 Y92.296 E1.27035
G1 X114.933 Y92.785 E.01542
G1 X85.872 Y63.724 E1.29009
G1 X85.393 Y63.778 E.01514
G1 X114.874 Y93.26 E1.30874
G1 X114.815 Y93.735 E.01502
G1 X84.925 Y63.844 E1.32688
G1 X84.457 Y63.91 E.01483
G1 X114.743 Y94.197 E1.34447
G1 X114.664 Y94.651 E.01448
M73 P2 R76
G1 X84.003 Y63.99 E1.36109
G1 X83.555 Y64.076 E.01431
G1 X114.584 Y95.106 E1.37743
G1 X114.49 Y95.545 E.01411
G1 X83.107 Y64.162 E1.39312
G1 X82.675 Y64.264 E.01394
G1 X114.391 Y95.98 E1.40794
G1 X114.292 Y96.415 E.01401
G1 X82.246 Y64.368 E1.4226
G1 X81.816 Y64.473 E.01387
G1 X114.179 Y96.835 E1.43661
G1 X114.062 Y97.253 E.0136
G1 X81.402 Y64.593 E1.44981
G1 X80.991 Y64.715 E.01348
G1 X113.945 Y97.67 E1.4629
G1 X113.815 Y98.073 E.01331
G1 X80.579 Y64.838 E1.47538
G1 X80.181 Y64.973 E.0132
G1 X113.681 Y98.473 E1.48712
G1 X113.548 Y98.874 E.01324
G1 X79.786 Y65.112 E1.49872
G1 X79.391 Y65.251 E.01314
G1 X113.403 Y99.263 E1.50981
G1 X113.253 Y99.647 E.01294
G1 X79.007 Y65.401 E1.52021
G1 X78.628 Y65.556 E.01285
G1 X113.103 Y100.031 E1.53038
G1 X112.945 Y100.407 E.0128
M73 P2 R75
G1 X78.249 Y65.711 E1.54019
G1 X77.878 Y65.873 E.01273
G1 X112.78 Y100.775 E1.54936
G1 X112.614 Y101.144 E.01268
G1 X77.514 Y66.043 E1.55816
G1 X77.15 Y66.213 E.0126
G1 X112.445 Y101.508 E1.56679
G1 X112.265 Y101.862 E.01246
G1 X76.79 Y66.387 E1.5748
G1 X76.441 Y66.572 E.0124
G1 X112.085 Y102.216 E1.58229
G1 X111.905 Y102.569 E.01246
M73 P3 R75
G1 X76.092 Y66.757 E1.58979
G1 X75.743 Y66.941 E.0124
G1 X111.71 Y102.909 E1.59665
G1 X111.516 Y103.248 E.01228
G1 X94.817 Y86.55 E.74127
