; generated by PrusaSlicer 2.4.0 on 2022-02-18 at 21:56:58 UTC


;
;

;
;
; 

; external perimeters extrusion width = 0.45mm
; perimeters extrusion width = 0.45mm
; infill extrusion width = 0.45mm
; solid infill extrusion width = 0.45mm
; top infill extrusion width = 0.40mm
; first layer extrusion width = 0.42mm

M73 P0 R28
M201 X1250 Y1250 Z400 E5000 ; sets maximum accelerations, mm/sec^2
M203 X180 Y180 Z12 E80 ; sets maximum feedrates, mm/sec
M204 P1250 R1250 T1250 ; sets acceleration (P, T) and retract acceleration (R), mm/sec^2
M205 X8.00 Y8.00 Z2.00 E10.00 ; sets the jerk limits, mm/sec
M205 S0 T0 ; sets the minimum extruding and travel feed rate, mm/sec
M107
;TYPE:Custom
G90 ; use absolute coordinates
M83 ; extruder relative mode
M104 S170 ; set extruder temp for bed leveling
M140 S60 ; set bed temp
M109 R170 ; wait for bed leveling temp
M190 S60 ; wait for bed temp
G28 ; home all without mesh bed level
G29 ; mesh bed leveling 
M104 S215 ; set extruder temp
G92 E0.0
G1 Y-2.0 X179 F2400
G1 Z3 F720
M109 S215 ; wait for extruder temp

; intro line
G1 X170 F1000
G1 Z0.2 F720
G1 X110.0 E8.0 F900
G1 X40.0 E10.0 F700
G92 E0.0

M221 S95 ; set flow
G21 ; set units to millimeters
G90 ; use absolute coordinates
M83 ; use relative distances for extrusion
M900 K0.2 ; Filament gcode LA 1.5
; ; Filament gcode LA 1.0
M107
;LAYER_CHANGE
;Z:0.2
;HEIGHT:0.2
;BEFORE_LAYER_CHANGE
G92 E0.0
;0.2


G1 E-3.2 F4200
G1 Z.2 F9000
;AFTER_LAYER_CHANGE
;0.2
G1 Z.4
G1 X79.505 Y80.356
G1 Z.2
G1 E3.2 F2400
M204 S800
;TYPE:Skirt/Brim
;WIDTH:0.42
G1 F1200
G1 X80.517 Y79.359 E.04455
G1 X81.624 Y78.467 E.04456
G1 X82.814 Y77.691 E.04455
G1 X84.857 Y76.707 E.07109
G1 X86.206 Y76.261 E.04455
G1 X87.593 Y75.951 E.04455
G1 X89.003 Y75.781 E.04455
G1 X90.424 Y75.753 E.04455
G1 X91.84 Y75.866 E.04455
G1 X93.239 Y76.119 E.04455
G1 X94.605 Y76.511 E.04455
G1 X95.925 Y77.036 E.04455
G1 X97.186 Y77.691 E.04455
M73 P1 R28
G1 X98.376 Y78.467 E.04455
G1 X99.483 Y79.359 E.04456
G1 X100.495 Y80.356 E.04455
G1 X101.399 Y81.443 E.04435
G1 X102.195 Y82.621 E.04455
G1 X102.812 Y83.754 E.04046
G1 X103.37 Y85.061 E.04455
G1 X103.796 Y86.416 E.04455
G1 X104.099 Y87.906 E.04768
G1 X104.232 Y89.221 E.04143
G1 X104.239 Y90.642 E.04455
G1 X104.104 Y92.056 E.04455
G1 X103.83 Y93.451 E.04455
G1 X103.417 Y94.81 E.04455
G1 X102.872 Y96.122 E.04455
G1 X102.198 Y97.374 E.04455
G1 X101.403 Y98.551 E.04455
G1 X100.495 Y99.644 E.04455
G1 X99.483 Y100.641 E.04455
G1 X98.376 Y101.533 E.04456
G1 X97.186 Y102.309 E.04455
G1 X95.143 Y103.293 E.07109
G1 X93.794 Y103.739 E.04455
G1 X92.407 Y104.049 E.04455
G1 X90.997 Y104.219 E.04455
G1 X89.576 Y104.247 E.04456
G1 X88.16 Y104.134 E.04455
G1 X86.761 Y103.881 E.04455
G1 X85.395 Y103.489 E.04455
G1 X84.075 Y102.964 E.04455
G1 X82.814 Y102.309 E.04455
G1 X81.624 Y101.533 E.04455
G1 X80.517 Y100.641 E.04455
G1 X79.505 Y99.644 E.04455
G1 X78.597 Y98.551 E.04455
G1 X77.802 Y97.374 E.04455
G1 X77.128 Y96.122 E.04455
G1 X76.583 Y94.81 E.04456
G1 X76.172 Y93.457 E.04435
G1 X75.901 Y92.094 E.04358
G1 X75.768 Y90.779 E.04142
G1 X75.761 Y89.358 E.04455
G1 X75.896 Y87.944 E.04455
G1 X76.17 Y86.549 E.04455
G1 X76.583 Y85.19 E.04455
G1 X77.128 Y83.878 E.04455
G1 X77.802 Y82.626 E.04455
G1 X78.597 Y81.449 E.04455
G1 X79.467 Y80.402 E.04267
M204 S1250
G1 X79.756 Y80.643 F9000
M204 S800
G1 F1200
G1 X80.774 Y79.635 E.0449
G1 X81.852 Y78.768 E.04338
G1 X83.01 Y78.012 E.04337
G1 X84.986 Y77.061 E.06873
G1 X86.299 Y76.626 E.04337
G1 X87.649 Y76.324 E.04338
G1 X89.022 Y76.158 E.04337
G1 X90.405 Y76.129 E.04338
G1 X91.784 Y76.239 E.04337
G1 X93.146 Y76.485 E.04337
G1 X94.476 Y76.865 E.04337
G1 X95.761 Y77.376 E.04337
G1 X96.989 Y78.012 E.04338
G1 X98.148 Y78.768 E.04337
G1 X99.226 Y79.635 E.04338
G1 X100.212 Y80.605 E.04337
G1 X101.093 Y81.664 E.04318
G1 X101.868 Y82.81 E.04337
G1 X102.528 Y84.033 E.04357
G1 X103.06 Y85.31 E.04338
G1 X103.462 Y86.633 E.04338
G1 X103.726 Y87.958 E.04234
G1 X103.856 Y89.249 E.0407
G1 X103.862 Y90.633 E.04338
G1 X103.73 Y92.01 E.04337
G1 X103.462 Y93.367 E.04337
G1 X103.06 Y94.69 E.04338
G1 X102.528 Y95.967 E.04338
G1 X101.871 Y97.185 E.04337
G1 X101.097 Y98.331 E.04337
G1 X100.212 Y99.395 E.04337
G1 X99.226 Y100.365 E.04337
G1 X98.148 Y101.232 E.04338
G1 X96.989 Y101.988 E.04337
G1 X95.014 Y102.939 E.06873
G1 X93.701 Y103.374 E.04337
G1 X92.351 Y103.676 E.04338
G1 X90.978 Y103.842 E.04337
G1 X89.595 Y103.871 E.04338
G1 X88.216 Y103.761 E.04337
G1 X86.854 Y103.515 E.04337
G1 X85.524 Y103.135 E.04337
G1 X84.239 Y102.624 E.04338
G1 X83.01 Y101.988 E.04338
G1 X81.852 Y101.232 E.04337
G1 X80.774 Y100.365 E.04337
G1 X79.788 Y99.395 E.04337
G1 X78.903 Y98.331 E.04337
G1 X78.129 Y97.185 E.04337
G1 X77.472 Y95.967 E.04337
G1 X76.981 Y94.802 E.03966
G1 X76.569 Y93.487 E.04321
G1 X76.274 Y92.042 E.04622
G1 X76.144 Y90.751 E.0407
G1 X76.138 Y89.367 E.04338
G1 X76.27 Y87.99 E.04337
G1 X76.538 Y86.633 E.04337
G1 X76.94 Y85.31 E.04337
G1 X77.472 Y84.033 E.04338
G1 X78.129 Y82.815 E.04337
G1 X78.903 Y81.669 E.04337
G1 X79.718 Y80.689 E.03996
M204 S1250
; printing object hub.stl id:0 copy 0
G1 E-2.24 F4200
;WIPE_START
G1 F7200
G1 X80.774 Y79.635 E-.82673
G1 X80.894 Y79.539 E-.08527
;WIPE_END
G1 E-.048 F4200
G1 Z.4 F9000
G1 X88.596 Y87.263
G1 Z.2
G1 E3.2 F2400
M204 S800
;TYPE:Perimeter
G1 F1200
G1 X91.948 Y87.263 E.10511
G1 X92.393 Y87.673 E.01897
G1 X92.614 Y87.924 E.01047
G1 X92.807 Y88.194 E.01042
G1 X92.973 Y88.482 E.01042
G1 X93.109 Y88.786 E.01042
G1 X93.215 Y89.101 E.01042
G1 X93.288 Y89.425 E.01043
G1 X93.329 Y89.755 E.01042
G1 X93.337 Y90.088 E.01042
G1 X93.311 Y90.419 E.01042
G1 X93.253 Y90.746 E.01042
G1 X93.163 Y91.066 E.01043
G1 X93.041 Y91.376 E.01042
G1 X92.889 Y91.671 E.01042
G1 X92.709 Y91.951 E.01042
G1 X92.497 Y92.216 E.01065
G1 X92.15 Y92.554 E.01517
G1 X91.879 Y92.759 E.01065
G1 X91.595 Y92.932 E.01042
G1 X91.296 Y93.076 E.01042
G1 X90.983 Y93.19 E.01042
G1 X90.661 Y93.272 E.01042
G1 X90.332 Y93.321 E.01042
G1 X90 Y93.338 E.01043
G1 X89.668 Y93.321 E.01042
G1 X89.339 Y93.272 E.01042
G1 X89.017 Y93.19 E.01042
G1 X88.704 Y93.076 E.01042
G1 X88.405 Y92.932 E.01042
G1 X88.121 Y92.759 E.01042
G1 X87.856 Y92.558 E.01042
G1 X87.612 Y92.332 E.01043
G1 X87.392 Y92.083 E.01042
G1 X87.198 Y91.813 E.01042
G1 X87.031 Y91.526 E.01042
G1 X86.894 Y91.223 E.01042
G1 X86.788 Y90.908 E.01042
G1 X86.714 Y90.584 E.01042
G1 X86.672 Y90.254 E.01042
G1 X86.663 Y89.921 E.01043
G1 X86.687 Y89.59 E.01042
G1 X86.745 Y89.262 E.01042
G1 X86.834 Y88.942 E.01043
G1 X86.955 Y88.632 E.01042
G1 X87.106 Y88.336 E.01042
G1 X87.286 Y88.057 E.01042
G1 X87.499 Y87.789 E.01072
G1 X88.044 Y87.263 E.02375
G1 X88.536 Y87.263 E.01543
M204 S1250
G1 X88.196 Y87.64 F9000
M204 S800
;TYPE:External perimeter
G1 F1200
G1 X91.801 Y87.64 E.11303
G1 X92.123 Y87.937 E.01373
G1 X92.318 Y88.159 E.00926
G1 X92.49 Y88.398 E.00925
G1 X92.637 Y88.654 E.00925
G1 X92.757 Y88.923 E.00925
G1 X92.851 Y89.203 E.00925
G1 X92.916 Y89.49 E.00925
G1 X92.952 Y89.783 E.00924
G1 X92.959 Y90.078 E.00925
G1 X92.937 Y90.372 E.00925
G1 X92.885 Y90.662 E.00925
G1 X92.805 Y90.946 E.00925
G1 X92.697 Y91.22 E.00924
G1 X92.562 Y91.482 E.00924
G1 X92.402 Y91.73 E.00925
G1 X92.217 Y91.962 E.00933
G1 X91.904 Y92.267 E.0137
G1 X91.666 Y92.447 E.00933
G1 X91.415 Y92.6 E.00925
G1 X91.149 Y92.728 E.00925
G1 X90.872 Y92.829 E.00925
G1 X90.586 Y92.902 E.00925
G1 X90.295 Y92.946 E.00924
G1 X90 Y92.96 E.00925
G1 X89.705 Y92.946 E.00925
G1 X89.414 Y92.902 E.00925
G1 X89.128 Y92.829 E.00925
G1 X88.851 Y92.728 E.00925
G1 X88.585 Y92.6 E.00925
G1 X88.334 Y92.447 E.00925
G1 X88.099 Y92.269 E.00924
G1 X87.882 Y92.068 E.00925
G1 X87.687 Y91.847 E.00925
G1 X87.515 Y91.608 E.00925
G1 X87.367 Y91.353 E.00925
G1 X87.245 Y91.084 E.00925
G1 X87.151 Y90.805 E.00925
G1 X87.085 Y90.518 E.00925
G1 X87.048 Y90.225 E.00924
G1 X87.041 Y89.93 E.00925
G1 X87.062 Y89.636 E.00925
G1 X87.113 Y89.346 E.00924
G1 X87.192 Y89.062 E.00925
G1 X87.3 Y88.787 E.00924
G1 X87.434 Y88.524 E.00925
G1 X87.593 Y88.276 E.00925
G1 X87.779 Y88.043 E.00935
G1 X88.153 Y87.682 E.01631
M204 S1250
G1 X88.296 Y87.253 F9000
G1 E-2.24 F4200
;WIPE_START
G1 F7200
G1 X89.799 Y87.663 E-.912
;WIPE_END
G1 E-.048 F4200
G1 Z.4 F9000
G1 X83.846 Y81.234
G1 Z.2
G1 E3.2 F2400
M204 S800
;TYPE:Perimeter
G1 F1200
G1 X84.644 Y80.723 E.02972
G1 X85.113 Y80.467 E.01675
G1 X85.594 Y80.235 E.01675
G1 X86.086 Y80.028 E.01675
G1 X86.588 Y79.845 E.01675
G1 X87.099 Y79.688 E.01675
G1 X87.616 Y79.556 E.01675
G1 X88.14 Y79.45 E.01675
G1 X88.668 Y79.37 E.01675
G1 X89.199 Y79.317 E.01675
G1 X89.733 Y79.291 E.01675
G1 X90.267 Y79.291 E.01675
G1 X90.801 Y79.317 E.01674
G1 X91.332 Y79.37 E.01675
G1 X91.86 Y79.45 E.01675
G1 X92.384 Y79.556 E.01675
G1 X92.901 Y79.688 E.01675
G1 X93.412 Y79.845 E.01675
G1 X93.914 Y80.028 E.01675
G1 X94.406 Y80.235 E.01675
G1 X94.887 Y80.467 E.01675
G1 X95.356 Y80.723 E.01675
G1 X95.812 Y81.001 E.01675
G1 X96.253 Y81.302 E.01675
G1 X96.679 Y81.624 E.01675
G1 X97.088 Y81.968 E.01675
G1 X97.48 Y82.331 E.01675
G1 X97.853 Y82.714 E.01675
G1 X98.206 Y83.114 E.01675
G1 X98.539 Y83.532 E.01675
G1 X98.851 Y83.965 E.01675
G1 X99.141 Y84.414 E.01675
G1 X99.408 Y84.877 E.01675
G1 X99.652 Y85.352 E.01675
G1 X99.871 Y85.839 E.01675
G1 X100.067 Y86.336 E.01675
G1 X100.237 Y86.842 E.01675
G1 X100.381 Y87.357 E.01675
G1 X100.5 Y87.877 E.01675
G1 X100.593 Y88.403 E.01675
G1 X100.659 Y88.933 E.01675
G1 X100.699 Y89.466 E.01675
G1 X100.713 Y90 E.01675
G1 X100.699 Y90.534 E.01675
G1 X100.659 Y91.067 E.01675
G1 X100.593 Y91.597 E.01675
G1 X100.5 Y92.123 E.01675
G1 X100.381 Y92.643 E.01675
G1 X100.237 Y93.158 E.01675
G1 X100.067 Y93.664 E.01675
G1 X99.871 Y94.161 E.01675
G1 X99.652 Y94.648 E.01675
G1 X99.408 Y95.123 E.01675
G1 X99.141 Y95.586 E.01675
G1 X98.851 Y96.035 E.01675
G1 X98.539 Y96.468 E.01675
G1 X98.206 Y96.886 E.01675
G1 X97.853 Y97.286 E.01675
G1 X97.48 Y97.669 E.01675
G1 X97.088 Y98.032 E.01675
G1 X96.679 Y98.375 E.01675
G1 X96.253 Y98.698 E.01675
G1 X95.812 Y98.999 E.01675
G1 X95.356 Y99.277 E.01675
G1 X94.887 Y99.533 E.01675
G1 X94.406 Y99.765 E.01675
G1 X93.914 Y99.972 E.01675
G1 X93.412 Y100.155 E.01675
G1 X92.901 Y100.312 E.01675
G1 X92.384 Y100.444 E.01675
G1 X91.86 Y100.55 E.01675
G1 X91.332 Y100.63 E.01675
G1 X90.801 Y100.683 E.01675
G1 X90.267 Y100.709 E.01675
G1 X89.733 Y100.709 E.01675
G1 X89.199 Y100.683 E.01675
G1 X88.668 Y100.63 E.01675
G1 X88.14 Y100.55 E.01675
G1 X87.616 Y100.444 E.01675
G1 X87.099 Y100.312 E.01675
G1 X86.588 Y100.155 E.01675
G1 X86.086 Y99.972 E.01675
G1 X85.594 Y99.765 E.01675
G1 X85.113 Y99.533 E.01675
G1 X84.644 Y99.277 E.01675
G1 X84.188 Y98.999 E.01675
G1 X83.747 Y98.698 E.01675
G1 X83.321 Y98.376 E.01675
G1 X82.912 Y98.032 E.01675
G1 X82.52 Y97.669 E.01675
G1 X82.147 Y97.286 E.01675
G1 X81.794 Y96.886 E.01675
G1 X81.461 Y96.468 E.01675
G1 X81.149 Y96.035 E.01675
G1 X80.859 Y95.586 E.01675
G1 X80.592 Y95.123 E.01675
G1 X80.348 Y94.648 E.01675
G1 X80.129 Y94.161 E.01675
G1 X79.933 Y93.664 E.01675
G1 X79.763 Y93.158 E.01675
G1 X79.619 Y92.643 E.01675
G1 X79.5 Y92.123 E.01675
G1 X79.407 Y91.597 E.01675
G1 X79.341 Y91.067 E.01675
G1 X79.301 Y90.534 E.01675
G1 X79.287 Y90 E.01675
G1 X79.301 Y89.466 E.01675
G1 X79.341 Y88.933 E.01675
G1 X79.407 Y88.403 E.01675
G1 X79.5 Y87.877 E.01675
G1 X79.619 Y87.357 E.01675
G1 X79.763 Y86.842 E.01675
G1 X79.933 Y86.336 E.01675
G1 X80.129 Y85.839 E.01675
G1 X80.348 Y85.352 E.01675
G1 X80.592 Y84.877 E.01675
G1 X80.859 Y84.414 E.01675
G1 X81.149 Y83.965 E.01675
G1 X81.461 Y83.532 E.01675
G1 X81.794 Y83.114 E.01675
G1 X82.147 Y82.714 E.01675
G1 X82.52 Y82.331 E.01675
G1 X82.912 Y81.968 E.01675
G1 X83.321 Y81.624 E.01675
G1 X83.796 Y81.268 E.01863
M204 S1250
G1 X83.296 Y81.17 F9000
M204 S800
;TYPE:External perimeter
G1 F1200
G1 X83.983 Y80.684 E.0264
G1 X84.455 Y80.396 E.01734
G1 X84.941 Y80.131 E.01734
G1 X85.439 Y79.892 E.01734
G1 X85.948 Y79.677 E.01734
G1 X86.468 Y79.488 E.01734
G1 X86.996 Y79.325 E.01734
G1 X87.532 Y79.188 E.01734
G1 X88.074 Y79.079 E.01734
G1 X88.621 Y78.996 E.01734
G1 X89.171 Y78.941 E.01734
G1 X89.724 Y78.914 E.01734
G1 X90.277 Y78.914 E.01734
G1 X90.829 Y78.941 E.01733
G1 X91.379 Y78.996 E.01734
G1 X91.926 Y79.079 E.01734
G1 X92.468 Y79.188 E.01734
G1 X93.004 Y79.325 E.01734
G1 X93.532 Y79.488 E.01734
G1 X94.052 Y79.677 E.01734
G1 X94.561 Y79.892 E.01734
G1 X95.059 Y80.131 E.01734
G1 X95.545 Y80.396 E.01734
G1 X96.017 Y80.684 E.01734
G1 X96.474 Y80.996 E.01734
G1 X96.914 Y81.33 E.01734
G1 X97.338 Y81.685 E.01734
G1 X97.743 Y82.061 E.01734
G1 X98.129 Y82.457 E.01734
G1 X98.495 Y82.872 E.01734
G1 X98.84 Y83.304 E.01734
G1 X99.163 Y83.753 E.01734
G1 X99.463 Y84.217 E.01734
G1 X99.739 Y84.696 E.01734
G1 X99.992 Y85.188 E.01734
G1 X100.219 Y85.692 E.01734
G1 X100.421 Y86.207 E.01734
G1 X100.597 Y86.731 E.01734
G1 X100.747 Y87.264 E.01734
G1 X100.87 Y87.803 E.01734
G1 X100.966 Y88.347 E.01734
G1 X101.035 Y88.896 E.01734
G1 X101.076 Y89.447 E.01734
G1 X101.09 Y90 E.01734
G1 X101.076 Y90.553 E.01734
G1 X101.035 Y91.104 E.01734
G1 X100.966 Y91.653 E.01734
G1 X100.87 Y92.197 E.01734
G1 X100.747 Y92.737 E.01734
G1 X100.597 Y93.269 E.01734
G1 X100.421 Y93.793 E.01734
G1 X100.219 Y94.308 E.01734
G1 X99.992 Y94.812 E.01734
G1 X99.739 Y95.304 E.01734
G1 X99.463 Y95.783 E.01734
G1 X99.163 Y96.247 E.01734
G1 X98.84 Y96.696 E.01734
G1 X98.495 Y97.128 E.01734
G1 X98.129 Y97.543 E.01734
G1 X97.743 Y97.939 E.01734
G1 X97.338 Y98.315 E.01734
G1 X96.914 Y98.67 E.01734
G1 X96.474 Y99.004 E.01734
G1 X96.017 Y99.316 E.01734
G1 X95.545 Y99.604 E.01734
G1 X95.059 Y99.869 E.01734
G1 X94.561 Y100.108 E.01734
G1 X94.052 Y100.323 E.01734
G1 X93.532 Y100.512 E.01734
G1 X93.004 Y100.675 E.01734
G1 X92.468 Y100.812 E.01734
G1 X91.926 Y100.921 E.01734
G1 X91.379 Y101.004 E.01734
G1 X90.829 Y101.059 E.01734
G1 X90.276 Y101.086 E.01734
G1 X89.724 Y101.086 E.01734
G1 X89.171 Y101.059 E.01734
G1 X88.621 Y101.004 E.01734
G1 X88.074 Y100.921 E.01734
G1 X87.532 Y100.812 E.01734
G1 X86.996 Y100.675 E.01734
G1 X86.468 Y100.512 E.01734
G1 X85.948 Y100.323 E.01734
G1 X85.439 Y100.108 E.01734
G1 X84.941 Y99.869 E.01734
G1 X84.455 Y99.604 E.01734
G1 X83.983 Y99.316 E.01734
G1 X83.526 Y99.004 E.01734
G1 X83.086 Y98.67 E.01734
G1 X82.662 Y98.315 E.01734
G1 X82.257 Y97.939 E.01734
G1 X81.871 Y97.543 E.01734
G1 X81.505 Y97.128 E.01734
G1 X81.16 Y96.696 E.01734
G1 X80.837 Y96.247 E.01734
G1 X80.537 Y95.783 E.01734
G1 X80.261 Y95.304 E.01734
G1 X80.008 Y94.812 E.01734
G1 X79.781 Y94.308 E.01734
G1 X79.579 Y93.793 E.01734
G1 X79.403 Y93.269 E.01734
G1 X79.253 Y92.737 E.01734
G1 X79.13 Y92.197 E.01734
G1 X79.034 Y91.653 E.01734
G1 X78.965 Y91.104 E.01734
G1 X78.924 Y90.553 E.01734
G1 X78.91 Y90 E.01734
G1 X78.924 Y89.447 E.01734
M73 P2 R28
G1 X78.965 Y88.896 E.01734
G1 X79.034 Y88.347 E.01734
G1 X79.13 Y87.803 E.01734
G1 X79.253 Y87.263 E.01734
G1 X79.403 Y86.731 E.01734
G1 X79.579 Y86.207 E.01734
G1 X79.781 Y85.692 E.01734
G1 X80.008 Y85.188 E.01734
G1 X80.261 Y84.696 E.01734
G1 X80.537 Y84.217 E.01734
G1 X80.837 Y83.753 E.01734
G1 X81.16 Y83.304 E.01734
G1 X81.505 Y82.872 E.01734
G1 X81.871 Y82.457 E.01734
G1 X82.257 Y82.061 E.01734
G1 X82.662 Y81.685 E.01734
G1 X83.248 Y81.207 E.02371
M204 S1250
G1 X83.664 Y81.326 F9000
G1 E-2.24 F4200
;WIPE_START
G1 F7200
G1 X83.983 Y80.684 E-.4999
G1 X84.455 Y80.396 E-.30643
G1 X84.623 Y80.305 E-.10567
;WIPE_END
G1 E-.048 F4200
G1 Z.4 F9000
G1 X96.042 Y81.295
G1 Z.2
G1 E3.2 F2400
M204 S800
;TYPE:Solid infill
;WIDTH:0.422118
G1 F1200
G1 X97.646 Y82.906 E.07168
G1 X97.99 Y83.296 E.0164
G1 X98.314 Y83.702 E.0164
G1 X98.618 Y84.125 E.0164
G1 X99.073 Y84.862 E.02733
G1 X95.135 Y80.924 E.1756
G1 X94.758 Y80.719 E.01353
G1 X94.079 Y80.405 E.02359
G1 X99.6 Y85.926 E.24619
G1 X99.917 Y86.778 E.02868
G1 X93.221 Y80.082 E.29859
G1 X92.473 Y79.87 E.02451
G1 X100.131 Y87.528 E.34147
G1 X100.271 Y88.205 E.02179
G1 X91.792 Y79.726 E.37809
G1 X91.168 Y79.638 E.01986
G1 X100.362 Y88.832 E.40996
G1 X100.412 Y89.419 E.01857
G1 X90.583 Y79.59 E.43829
G1 X90.031 Y79.573 E.01742
G1 X100.429 Y89.972 E.46368
G1 X100.417 Y90.497 E.01654
G1 X89.506 Y79.585 E.48655
G1 X89.006 Y79.621 E.01582
