; generated by PrusaSlicer 2.4.0 on 2022-02-22 at 21:45:43 UTC


;
;

;
;
; 

; external perimeters extrusion width = 0.45mm
; perimeters extrusion width = 0.45mm
; infill extrusion width = 0.45mm
; solid infill extrusion width = 0.45mm
; top infill extrusion width = 0.40mm
; first layer extrusion width = 0.42mm

M73 P0 R28
M201 X1250 Y1250 Z400 E5000 ; sets maximum accelerations, mm/sec^2
M203 X180 Y180 Z12 E80 ; sets maximum feedrates, mm/sec
M204 P1250 R1250 T1250 ; sets acceleration (P, T) and retract acceleration (R), mm/sec^2
M205 X8.00 Y8.00 Z2.00 E10.00 ; sets the jerk limits, mm/sec
M205 S0 T0 ; sets the minimum extruding and travel feed rate, mm/sec
M107
;TYPE:Custom
G90 ; use absolute coordinates
M83 ; extruder relative mode
M104 S170 ; set extruder temp for bed leveling
M140 S60 ; set bed temp
M109 R170 ; wait for bed leveling temp
M190 S60 ; wait for bed temp
G28 ; home all without mesh bed level
G29 ; mesh bed leveling 
M104 S215 ; set extruder temp
G92 E0.0
G1 Y-2.0 X179 F2400
G1 Z3 F720
M109 S215 ; wait for extruder temp

; intro line
G1 X170 F1000
G1 Z0.2 F720
G1 X110.0 E8.0 F900
G1 X40.0 E10.0 F700
G92 E0.0

M221 S95 ; set flow
G21 ; set units to millimeters
G90 ; use absolute coordinates
M83 ; use relative distances for extrusion
M900 K0.2 ; Filament gcode LA 1.5
; ; Filament gcode LA 1.0
M107
;LAYER_CHANGE
;Z:0.2
;HEIGHT:0.2
;BEFORE_LAYER_CHANGE
G92 E0.0
;0.2


G1 E-3.2 F4200
G1 Z.2 F9000
;AFTER_LAYER_CHANGE
;0.2
G1 Z.4
G1 X58.273 Y67.461
G1 Z.2
G1 E3.2 F2400
M204 S800
;TYPE:Skirt/Brim
;WIDTH:0.42
G1 F1200
G1 X58.908 Y67.01 E.02442
G1 X59.59 Y66.66 E.02403
G1 X95.02 Y55.126 E1.16826
G1 X95.976 Y54.909 E.03075
M73 P1 R28
G1 X96.869 Y54.866 E.02801
G1 X98.033 Y55.036 E.0369
G1 X99.116 Y55.446 E.03629
G1 X100.105 Y56.093 E.03706
G1 X100.997 Y57.033 E.04064
G1 X122.769 Y87.006 E1.16154
G1 X123.204 Y87.786 E.02801
G1 X123.472 Y88.518 E.02442
G1 X123.632 Y89.28 E.02442
G1 X123.68 Y90.058 E.02442
G1 X123.619 Y90.808 E.02359
G1 X123.439 Y91.592 E.02525
G1 X123.155 Y92.318 E.02443
G1 X122.769 Y92.994 E.02442
G1 X100.909 Y123.082 E1.16608
G1 X99.996 Y123.994 E.04047
M73 P1 R27
G1 X99.024 Y124.6 E.0359
G1 X97.898 Y124.998 E.03745
G1 X96.615 Y125.136 E.04047
G1 X95.84 Y125.071 E.02437
G1 X95.02 Y124.874 E.02645
G1 X59.98 Y113.488 E1.1552
G1 X59.273 Y113.193 E.02402
G1 X58.595 Y112.785 E.02482
G1 X57.993 Y112.291 E.02442
G1 X57.384 Y111.604 E.02878
G1 X56.962 Y110.942 E.02459
G1 X56.644 Y110.231 E.02442
G1 X56.431 Y109.482 E.02442
G1 X56.323 Y108.595 E.02802
G1 X56.319 Y71.607 E1.15973
G1 X56.385 Y70.774 E.02621
G1 X56.561 Y70.015 E.02443
G1 X56.845 Y69.289 E.02443
G1 X57.231 Y68.613 E.02442
G1 X57.71 Y67.999 E.02442
G1 X58.23 Y67.502 E.02254
M204 S1250
; printing object lizzieTag.stl id:0 copy 0
G1 E-2.24 F4200
;WIPE_START
G1 F7200
G1 X58.908 Y67.01 E-.4646
G1 X59.59 Y66.66 E-.42464
G1 X59.629 Y66.648 E-.02276
;WIPE_END
G1 E-.048 F4200
G1 Z.4 F9000
G1 X93.655 Y112.701
G1 Z.2
G1 E3.2 F2400
M204 S800
;TYPE:Perimeter
G1 F1200
G1 X93.954 Y112.547 E.01055
G1 X94.306 Y112.409 E.01184
G1 X94.669 Y112.307 E.01184
G1 X95.041 Y112.242 E.01184
G1 X95.417 Y112.213 E.01184
G1 X95.795 Y112.223 E.01184
G1 X96.17 Y112.27 E.01184
G1 X96.538 Y112.354 E.01184
G1 X96.896 Y112.474 E.01184
G1 X97.24 Y112.629 E.01184
G1 X97.567 Y112.818 E.01184
G1 X97.874 Y113.039 E.01184
G1 X98.157 Y113.288 E.01184
G1 X98.414 Y113.565 E.01184
G1 X98.642 Y113.866 E.01184
G1 X98.838 Y114.188 E.01184
G1 X99.002 Y114.529 E.01184
G1 X99.131 Y114.883 E.01184
G1 X99.227 Y115.257 E.01209
G1 X99.295 Y115.817 E.01769
G1 X99.295 Y116.189 E.01166
G1 X99.257 Y116.565 E.01183
G1 X99.183 Y116.935 E.01184
G1 X99.071 Y117.296 E.01184
G1 X98.925 Y117.643 E.01184
G1 X98.744 Y117.975 E.01184
G1 X98.531 Y118.287 E.01184
G1 X98.289 Y118.576 E.01184
G1 X98.018 Y118.84 E.01184
G1 X97.723 Y119.076 E.01184
G1 X97.406 Y119.28 E.01184
G1 X97.07 Y119.453 E.01184
G1 X96.718 Y119.591 E.01184
G1 X96.355 Y119.693 E.01184
G1 X95.983 Y119.758 E.01184
G1 X95.606 Y119.787 E.01184
G1 X95.229 Y119.777 E.01184
G1 X94.854 Y119.73 E.01184
G1 X94.486 Y119.646 E.01184
G1 X94.128 Y119.526 E.01184
G1 X93.784 Y119.371 E.01184
G1 X93.457 Y119.182 E.01184
G1 X93.15 Y118.961 E.01184
G1 X92.867 Y118.712 E.01184
G1 X92.61 Y118.435 E.01184
G1 X92.382 Y118.134 E.01184
G1 X92.185 Y117.812 E.01184
G1 X92.021 Y117.471 E.01184
G1 X91.892 Y117.116 E.01184
G1 X91.797 Y116.743 E.01209
G1 X91.728 Y116.183 E.01769
G1 X91.729 Y115.811 E.01166
G1 X91.766 Y115.435 E.01183
G1 X91.841 Y115.065 E.01184
G1 X91.952 Y114.704 E.01184
G1 X92.099 Y114.357 E.01184
G1 X92.28 Y114.025 E.01184
G1 X92.492 Y113.713 E.01184
G1 X92.735 Y113.424 E.01184
G1 X93.006 Y113.16 E.01184
G1 X93.301 Y112.924 E.01184
G1 X93.602 Y112.73 E.01125
M204 S1250
G1 X93.521 Y113.231 F9000
M204 S800
;TYPE:External perimeter
G1 F1200
G1 X93.807 Y113.047 E.01066
G1 X94.109 Y112.891 E.01066
G1 X94.426 Y112.767 E.01066
G1 X94.753 Y112.675 E.01066
G1 X95.088 Y112.616 E.01066
G1 X95.427 Y112.591 E.01066
G1 X95.767 Y112.599 E.01066
G1 X96.104 Y112.641 E.01066
G1 X96.436 Y112.717 E.01066
G1 X96.758 Y112.825 E.01066
G1 X97.068 Y112.965 E.01066
G1 X97.362 Y113.135 E.01066
G1 X97.638 Y113.334 E.01066
G1 X97.893 Y113.559 E.01066
G1 X98.124 Y113.808 E.01066
G1 X98.33 Y114.079 E.01066
G1 X98.507 Y114.369 E.01066
G1 X98.654 Y114.675 E.01066
G1 X98.771 Y114.995 E.01066
G1 X98.855 Y115.327 E.01075
G1 X98.918 Y115.84 E.01621
G1 X98.918 Y116.17 E.01034
G1 X98.884 Y116.508 E.01066
G1 X98.817 Y116.842 E.01066
G1 X98.717 Y117.166 E.01066
G1 X98.584 Y117.48 E.01066
G1 X98.422 Y117.778 E.01066
G1 X98.23 Y118.059 E.01066
G1 X98.012 Y118.32 E.01066
G1 X97.768 Y118.557 E.01066
G1 X97.503 Y118.769 E.01066
G1 X97.217 Y118.953 E.01066
G1 X96.915 Y119.109 E.01066
G1 X96.598 Y119.233 E.01066
G1 X96.271 Y119.325 E.01066
G1 X95.936 Y119.384 E.01066
G1 X95.597 Y119.409 E.01066
G1 X95.257 Y119.401 E.01066
G1 X94.92 Y119.359 E.01066
G1 X94.588 Y119.283 E.01066
G1 X94.266 Y119.175 E.01066
G1 X93.956 Y119.035 E.01066
G1 X93.662 Y118.865 E.01066
G1 X93.386 Y118.666 E.01066
G1 X93.131 Y118.441 E.01066
G1 X92.899 Y118.192 E.01066
G1 X92.694 Y117.921 E.01066
G1 X92.517 Y117.631 E.01066
G1 X92.369 Y117.325 E.01066
G1 X92.253 Y117.005 E.01066
G1 X92.168 Y116.673 E.01075
G1 X92.105 Y116.16 E.01621
G1 X92.106 Y115.83 E.01034
G1 X92.14 Y115.492 E.01066
G1 X92.207 Y115.158 E.01066
G1 X92.307 Y114.834 E.01066
G1 X92.439 Y114.52 E.01066
G1 X92.602 Y114.222 E.01066
G1 X92.793 Y113.941 E.01066
G1 X93.012 Y113.68 E.01066
G1 X93.255 Y113.443 E.01066
G1 X93.474 Y113.268 E.00878
M204 S1250
G1 X93.487 Y112.893 F9000
G1 E-2.24 F4200
;WIPE_START
G1 F7200
G1 X93.807 Y113.047 E-.22151
G1 X94.109 Y112.891 E-.18842
G1 X94.426 Y112.767 E-.1884
G1 X94.753 Y112.675 E-.18841
G1 X94.976 Y112.636 E-.12526
;WIPE_END
G1 E-.048 F4200
G1 Z.4 F9000
G1 X95.922 Y121.84
G1 Z.2
G1 E3.2 F2400
M204 S800
;TYPE:Perimeter
G1 F1200
G1 X61.035 Y110.505 E1.15016
G1 X60.716 Y110.375 E.01079
G1 X60.434 Y110.209 E.01027
G1 X60.118 Y109.943 E.01294
G1 X59.903 Y109.687 E.01049
G1 X59.693 Y109.331 E.01294
G1 X59.577 Y109.025 E.01027
G1 X59.508 Y108.712 E.01004
G1 X59.483 Y108.369 E.01079
G1 X59.483 Y71.631 E1.15191
G1 X59.508 Y71.288 E.01079
M73 P2 R27
G1 X59.577 Y70.975 E.01004
G1 X59.691 Y70.675 E.01004
G1 X59.847 Y70.395 E.01004
G1 X60.045 Y70.135 E.01027
G1 X60.348 Y69.854 E.01294
G1 X60.622 Y69.675 E.01027
G1 X60.919 Y69.537 E.01027
G1 X95.982 Y58.14 E1.156
G1 X96.204 Y58.08 E.00722
G1 X96.628 Y58.028 E.01339
G1 X97.054 Y58.059 E.01339
G1 X97.263 Y58.105 E.0067
G1 X97.459 Y58.169 E.00648
G1 X97.763 Y58.31 E.01049
G1 X97.932 Y58.415 E.00626
G1 X98.193 Y58.625 E.01049
G1 X98.482 Y58.952 E.01369
G1 X120.08 Y88.68 E1.15213
G1 X120.262 Y88.972 E.01079
G1 X120.393 Y89.273 E.01027
G1 X120.491 Y89.673 E.01294
G1 X120.515 Y90 E.01027
G1 X120.491 Y90.327 E.01027
G1 X120.392 Y90.727 E.01294
G1 X120.262 Y91.028 E.01027
G1 X120.08 Y91.32 E.01079
G1 X98.482 Y121.048 E1.15213
G1 X98.342 Y121.222 E.007
G1 X98.102 Y121.455 E.01049
G1 X97.944 Y121.577 E.00626
G1 X97.662 Y121.743 E.01027
G1 X97.358 Y121.866 E.01027
G1 X97.166 Y121.918 E.00626
G1 X96.835 Y121.967 E.01049
G1 X96.635 Y121.972 E.00626
G1 X96.309 Y121.94 E.01027
G1 X95.979 Y121.859 E.01066
M204 S1250
G1 X96.246 Y122.313 F9000
M204 S800
;TYPE:External perimeter
G1 F1200
G1 X95.872 Y122.22 E.01208
G1 X60.905 Y110.859 E1.15276
G1 X60.549 Y110.714 E.01208
G1 X60.223 Y110.523 E.01184
G1 X59.845 Y110.204 E.01551
G1 X59.6 Y109.913 E.01192
G1 X59.349 Y109.486 E.01551
G1 X59.215 Y109.133 E.01184
G1 X59.134 Y108.767 E.01176
G1 X59.106 Y108.383 E.01208
G1 X59.106 Y71.617 E1.15276
G1 X59.134 Y71.233 E.01208
G1 X59.215 Y70.867 E.01176
G1 X59.348 Y70.516 E.01176
G1 X59.53 Y70.188 E.01176
G1 X59.76 Y69.888 E.01184
G1 X60.122 Y69.551 E.01551
G1 X60.438 Y69.344 E.01184
G1 X60.78 Y69.185 E.01184
G1 X95.874 Y57.779 E1.157
G1 X96.123 Y57.711 E.00808
G1 X96.619 Y57.651 E.01567
G1 X97.118 Y57.687 E.01568
G1 X97.362 Y57.741 E.00784
G1 X97.597 Y57.818 E.00777
G1 X97.942 Y57.978 E.01192
G1 X98.151 Y58.107 E.00769
G1 X98.447 Y58.345 E.01192
G1 X98.781 Y58.723 E.01583
G1 X120.393 Y88.47 E1.15284
G1 X120.596 Y88.797 E.01208
G1 X120.747 Y89.143 E.01184
G1 X120.866 Y89.623 E.01551
G1 X120.893 Y90 E.01184
G1 X120.866 Y90.377 E.01184
G1 X120.747 Y90.857 E.01551
G1 X120.596 Y91.203 E.01184
G1 X120.393 Y91.53 E.01208
G1 X98.781 Y121.277 E1.15284
G1 X98.622 Y121.476 E.008
G1 X98.35 Y121.741 E.01192
G1 X98.155 Y121.89 E.00769
G1 X97.829 Y122.081 E.01184
G1 X97.479 Y122.224 E.01184
G1 X97.243 Y122.288 E.00769
G1 X96.867 Y122.343 E.01192
G1 X96.622 Y122.349 E.00769
G1 X96.305 Y122.318 E.00996
M204 S1250
G1 X96.115 Y121.95 F9000
G1 E-2.24 F4200
;WIPE_START
G1 F7200
G1 X95.872 Y122.22 E-.24639
G1 X94.729 Y121.849 E-.66561
;WIPE_END
G1 E-.048 F4200
G1 Z.4 F9000
G1 X96.782 Y58.148
G1 Z.2
M73 P3 R27
G1 E3.2 F2400
M204 S800
;TYPE:Solid infill
;WIDTH:0.42029
G1 F1200
G1 X99.582 Y60.948 E.12428
G1 X101 Y62.9 E.07569
G1 X96.43 Y58.33 E.2028
G1 X95.999 Y58.432 E.01391
G1 X102.418 Y64.852 E.28487
G1 X103.836 Y66.803 E.07569
G1 X95.596 Y58.563 E.36567
G1 X95.193 Y58.694 E.01329
G1 X105.254 Y68.755 E.44646
G1 X106.672 Y70.707 E.07569
G1 X94.79 Y58.825 E.52726
G1 X94.388 Y58.956 E.01329
G1 X108.09 Y72.658 E.60805
G1 X109.508 Y74.61 E.07569
G1 X93.985 Y59.087 E.68885
G1 X93.582 Y59.218 E.01329
G1 X110.926 Y76.561 E.76964
G1 X112.344 Y78.513 E.07569
G1 X93.179 Y59.349 E.85044
G1 X92.776 Y59.479 E.01329
G1 X113.762 Y80.465 E.93123
G1 X115.179 Y82.416 E.07569
G1 X92.374 Y59.61 E1.01203
G1 X91.971 Y59.741 E.01329
G1 X116.597 Y84.368 E1.09282
G1 X118.015 Y86.319 E.07569
G1 X91.568 Y59.872 E1.17362
G1 X91.165 Y60.003 E.01329
G1 X119.433 Y88.271 E1.25441
G1 X119.845 Y88.838 E.022
M73 P4 R27
G1 X120.011 Y89.104 E.00983
G1 X120.124 Y89.364 E.00888
G1 X120.167 Y89.538 E.00564
G1 X90.763 Y60.134 E1.30483
G1 X90.36 Y60.265 E.01329
G1 X120.222 Y90.127 E1.32517
G1 X120.211 Y90.282 E.00487
G1 X120.138 Y90.577 E.00953
G1 X89.957 Y60.396 E1.33932
G1 X89.554 Y60.527 E.01329
G1 X119.977 Y90.95 E1.35004
G1 X119.766 Y91.272 E.01209
G1 X89.151 Y60.658 E1.35852
G1 X88.749 Y60.789 E.01329
G1 X119.541 Y91.581 E1.36643
G1 X119.316 Y91.89 E.01199
M73 P4 R26
G1 X88.346 Y60.919 E1.37434
G1 X87.943 Y61.05 E.01329
G1 X119.092 Y92.199 E1.38225
G1 X118.867 Y92.508 E.01199
M73 P5 R26
G1 X87.54 Y61.181 E1.39015
G1 X87.138 Y61.312 E.01329
G1 X118.643 Y92.817 E1.39806
G1 X118.418 Y93.126 E.01199
G1 X86.735 Y61.443 E1.40597
G1 X86.332 Y61.574 E.01329
G1 X118.193 Y93.435 E1.41388
G1 X117.969 Y93.745 E.01199
G1 X85.929 Y61.705 E1.42178
G1 X85.527 Y61.836 E.01329
G1 X117.744 Y94.054 E1.42969
G1 X117.52 Y94.363 E.01199
G1 X85.124 Y61.967 E1.4376
G1 X84.721 Y62.098 E.01329
M73 P6 R26
G1 X117.295 Y94.672 E1.44551
G1 X117.071 Y94.981 E.01199
G1 X84.318 Y62.229 E1.45341
G1 X83.915 Y62.359 E.01329
G1 X116.846 Y95.29 E1.46132
G1 X116.621 Y95.599 E.01199
G1 X83.513 Y62.49 E1.46923
G1 X83.11 Y62.621 E.01329
G1 X116.397 Y95.908 E1.47714
G1 X116.172 Y96.217 E.01199
G1 X82.707 Y62.752 E1.48504
G1 X82.304 Y62.883 E.01329
G1 X115.948 Y96.526 E1.49295
G1 X115.723 Y96.836 E.01199
M73 P7 R26
G1 X81.902 Y63.014 E1.50086
G1 X81.499 Y63.145 E.01329
G1 X115.499 Y97.145 E1.50877
G1 X115.274 Y97.454 E.01199
G1 X81.096 Y63.276 E1.51667
G1 X80.693 Y63.407 E.01329
G1 X115.049 Y97.763 E1.52458
G1 X114.825 Y98.072 E.01199
G1 X80.29 Y63.538 E1.53249
G1 X79.888 Y63.669 E.01329
G1 X114.6 Y98.381 E1.5404
G1 X114.376 Y98.69 E.01199
G1 X79.485 Y63.799 E1.5483
G1 X79.082 Y63.93 E.01329
M73 P8 R26
G1 X114.151 Y98.999 E1.55621
G1 X113.927 Y99.308 E.01199
G1 X78.679 Y64.061 E1.56412
G1 X78.277 Y64.192 E.01329
M73 P8 R25
G1 X113.702 Y99.617 E1.57203
G1 X113.477 Y99.927 E.01199
G1 X77.874 Y64.323 E1.57993
G1 X77.471 Y64.454 E.01329
G1 X113.253 Y100.236 E1.58784
G1 X113.028 Y100.545 E.01199
G1 X77.068 Y64.585 E1.59575
G1 X76.666 Y64.716 E.01329
G1 X112.804 Y100.854 E1.60366
G1 X112.579 Y101.163 E.01199
M73 P9 R25
G1 X76.263 Y64.847 E1.61156
G1 X75.86 Y64.978 E.01329
G1 X112.354 Y101.472 E1.61947
G1 X112.13 Y101.781 E.01199
G1 X75.457 Y65.109 E1.62738
G1 X75.054 Y65.239 E.01329
G1 X111.905 Y102.09 E1.63529
G1 X111.681 Y102.399 E.01199
G1 X74.652 Y65.37 E1.64319
G1 X74.249 Y65.501 E.01329
G1 X111.456 Y102.709 E1.6511
G1 X111.232 Y103.018 E.01199
M73 P10 R25
G1 X73.846 Y65.632 E1.65901
G1 X73.443 Y65.763 E.01329
G1 X111.007 Y103.327 E1.66692
G1 X110.782 Y103.636 E.01199
G1 X73.041 Y65.894 E1.67483
G1 X72.638 Y66.025 E.01329
G1 X110.558 Y103.945 E1.68273
G1 X110.333 Y104.254 E.01199
G1 X72.235 Y66.156 E1.69064
G1 X71.832 Y66.287 E.01329
G1 X110.109 Y104.563 E1.69855
G1 X109.884 Y104.872 E.01199
G1 X71.429 Y66.418 E1.70646
G1 X71.027 Y66.549 E.01329
M73 P11 R25
G1 X109.66 Y105.181 E1.71436
G1 X109.435 Y105.49 E.01199
G1 X70.624 Y66.679 E1.72227
G1 X70.221 Y66.81 E.01329
G1 X109.21 Y105.8 E1.73018
G1 X108.986 Y106.109 E.01199
G1 X69.818 Y66.941 E1.73809
G1 X69.416 Y67.072 E.01329
G1 X108.761 Y106.418 E1.74599
G1 X108.537 Y106.727 E.01199
M73 P11 R24
G1 X69.013 Y67.203 E1.7539
G1 X68.61 Y67.334 E.01329
M73 P12 R24
G1 X108.312 Y107.036 E1.76181
G1 X108.088 Y107.345 E.01199
G1 X68.207 Y67.465 E1.76972
G1 X67.805 Y67.596 E.01329
G1 X107.863 Y107.654 E1.77762
G1 X107.638 Y107.963 E.01199
G1 X67.402 Y67.727 E1.78553
G1 X66.999 Y67.858 E.01329
G1 X107.414 Y108.272 E1.79344
G1 X107.189 Y108.582 E.01199
G1 X66.596 Y67.989 E1.80135
G1 X66.193 Y68.119 E.01329
M73 P13 R24
G1 X106.965 Y108.891 E1.80925
G1 X106.74 Y109.2 E.01199
G1 X65.791 Y68.25 E1.81716
G1 X65.388 Y68.381 E.01329
G1 X106.515 Y109.509 E1.82507
G1 X106.291 Y109.818 E.01199
G1 X64.985 Y68.512 E1.83298
G1 X64.582 Y68.643 E.01329
G1 X106.066 Y110.127 E1.84088
G1 X105.842 Y110.436 E.01199
G1 X64.18 Y68.774 E1.84879
G1 X63.777 Y68.905 E.01329
M73 P14 R24
G1 X105.617 Y110.745 E1.8567
G1 X105.393 Y111.054 E.01199
G1 X63.374 Y69.036 E1.86461
G1 X62.971 Y69.167 E.01329
G1 X105.168 Y111.363 E1.87251
G1 X104.943 Y111.673 E.01199
G1 X62.569 Y69.298 E1.88042
G1 X62.166 Y69.429 E.01329
G1 X104.719 Y111.982 E1.88833
G1 X104.494 Y112.291 E.01199
M73 P15 R24
G1 X61.763 Y69.559 E1.89624
G1 X61.36 Y69.69 E.01329
G1 X104.27 Y112.6 E1.90414
G1 X104.045 Y112.909 E.01199
M73 P15 R23
G1 X60.964 Y69.827 E1.91178
G1 X60.759 Y69.922 E.00706
G1 X60.618 Y70.015 E.00532
G1 X103.821 Y113.218 E1.91716
G1 X103.596 Y113.527 E.01199
G1 X60.328 Y70.259 E1.92007
G1 X60.085 Y70.55 E.01189
G1 X103.371 Y113.836 E1.92088
G1 X103.147 Y114.145 E.01199
M73 P16 R23
G1 X59.906 Y70.905 E1.91883
G1 X59.849 Y71.056 E.00507
G1 X59.79 Y71.322 E.00856
G1 X102.922 Y114.454 E1.91402
G1 X102.698 Y114.764 E.01199
G1 X59.766 Y71.832 E1.90512
G1 X59.766 Y72.366 E.01675
G1 X102.473 Y115.073 E1.89515
G1 X102.248 Y115.382 E.01199
G1 X59.766 Y72.9 E1.88519
G1 X59.766 Y73.433 E.01675
M73 P17 R23
G1 X102.024 Y115.691 E1.87522
G1 X101.799 Y116 E.01199
G1 X59.766 Y73.967 E1.86526
G1 X59.766 Y74.501 E.01675
G1 X101.575 Y116.309 E1.85529
G1 X101.35 Y116.618 E.01199
G1 X99.328 Y114.596 E.08975
G1 X99.402 Y114.8 E.00682
G1 X99.519 Y115.321 E.01676
G1 X101.126 Y116.927 E.07128
G1 X100.901 Y117.236 E.01199
