; generated by PrusaSlicer 2.4.1 on 2022-04-24 at 19:42:14 UTC


;
;

;
;
; 

; external perimeters extrusion width = 0.45mm
; perimeters extrusion width = 0.45mm
; infill extrusion width = 0.45mm
; solid infill extrusion width = 0.45mm
; top infill extrusion width = 0.40mm
; first layer extrusion width = 0.42mm

; external perimeters extrusion width = 0.45mm
; perimeters extrusion width = 0.45mm
; infill extrusion width = 0.45mm
; solid infill extrusion width = 0.45mm
; top infill extrusion width = 0.40mm
; first layer extrusion width = 0.42mm

; external perimeters extrusion width = 0.45mm
; perimeters extrusion width = 0.45mm
; infill extrusion width = 0.45mm
; solid infill extrusion width = 0.45mm
; top infill extrusion width = 0.40mm
; first layer extrusion width = 0.42mm

; external perimeters extrusion width = 0.45mm
; perimeters extrusion width = 0.45mm
; infill extrusion width = 0.45mm
; solid infill extrusion width = 0.45mm
; top infill extrusion width = 0.40mm
; first layer extrusion width = 0.42mm

; external perimeters extrusion width = 0.45mm
; perimeters extrusion width = 0.45mm
; infill extrusion width = 0.45mm
; solid infill extrusion width = 0.45mm
; top infill extrusion width = 0.40mm
; first layer extrusion width = 0.42mm

M73 P0 R175
M107
;TYPE:Custom
G90 ; use absolute coordinates
M83 ; extruder relative mode
M104 S170 ; set extruder temp for bed leveling
M140 S60 ; set bed temp
M109 R170 ; wait for bed leveling temp
M190 S60 ; wait for bed temp
G28 ; home all without mesh bed level
G29 ; mesh bed leveling 
M104 S215 ; set extruder temp
G92 E0.0
G1 Y-2.0 X179 F2400
G1 Z3 F720
M109 S215 ; wait for extruder temp

; intro line
M73 P0 R174
G1 X170 F1000
G1 Z0.2 F720
G1 X110.0 E8.0 F900
G1 X40.0 E10.0 F700
G92 E0.0

M221 S95 ; set flow
G21 ; set units to millimeters
G90 ; use absolute coordinates
M83 ; use relative distances for extrusion
M900 K0.2 ; Filament gcode LA 1.5
; ; Filament gcode LA 1.0
M107
;LAYER_CHANGE
;Z:0.2
;HEIGHT:0.2
;BEFORE_LAYER_CHANGE
G92 E0.0
;0.2


G1 E-3.2 F4200
G1 Z.2 F9000
;AFTER_LAYER_CHANGE
;0.2
G1 Z.4
G1 X14.743 Y15.325
G1 Z.2
G1 E3.2 F2400
M204 S800
;TYPE:Skirt/Brim
;WIDTH:0.42
G1 F1200
G1 X15.854 Y14.399 E.04534
G1 X17.123 Y13.708 E.04532
G1 X18.504 Y13.277 E.04538
G1 X19.942 Y13.124 E.04533
G1 X160.058 Y13.124 E4.39325
G1 X161.496 Y13.277 E.04533
G1 X162.769 Y13.663 E.04171
G1 X164.043 Y14.33 E.04509
G1 X165.175 Y15.243 E.04561
G1 X166.096 Y16.346 E.04506
G1 X166.693 Y17.399 E.03794
G1 X167.169 Y18.764 E.04533
G1 X167.37 Y20.196 E.04535
G1 X167.376 Y159.558 E4.36959
G1 X167.223 Y160.996 E.04535
G1 X166.797 Y162.365 E.04494
G1 X166.166 Y163.549 E.04208
G1 X165.263 Y164.669 E.0451
G1 X164.153 Y165.596 E.04533
G1 X162.877 Y166.292 E.04558
G1 X161.504 Y166.722 E.04512
G1 X160 Y166.877 E.0474
G1 X19.942 Y166.876 E4.39142
G1 X18.504 Y166.723 E.04533
G1 X17.231 Y166.337 E.04171
G1 X15.95 Y165.666 E.04535
G1 X14.825 Y164.757 E.04536
G1 X13.904 Y163.654 E.04506
G1 X13.207 Y162.376 E.04561
G1 X12.777 Y160.996 E.04533
G1 X12.623 Y159.5 E.04717
G1 X12.624 Y20.442 E4.36008
G1 X12.777 Y19.004 E.04535
G1 X13.207 Y17.623 E.04533
G1 X13.899 Y16.353 E.04535
G1 X14.705 Y15.372 E.03982
M204 S1250
; printing object BOX 5.stl id:4 copy 0
G1 E-2.24 F4200
;WIPE_START
G1 F7200
G1 X15.854 Y14.399 E-.83397
G1 X15.977 Y14.332 E-.07803
;WIPE_END
G1 E-.048 F4200
G1 Z.4 F9000
G1 X157.128 Y35.492
G1 Z.2
G1 E3.2 F2400
M204 S800
;TYPE:External perimeter
G1 F1200
G1 X157.195 Y35.158 E.01066
G1 X157.295 Y34.834 E.01066
G1 X157.427 Y34.52 E.01066
G1 X157.59 Y34.222 E.01066
G1 X157.782 Y33.941 E.01066
G1 X158 Y33.68 E.01066
G1 X158.243 Y33.443 E.01066
G1 X158.509 Y33.231 E.01066
G1 X158.795 Y33.047 E.01066
G1 X159.097 Y32.891 E.01066
G1 X159.414 Y32.767 E.01066
G1 X159.741 Y32.675 E.01066
G1 X160.076 Y32.616 E.01066
G1 X160.415 Y32.591 E.01066
G1 X160.755 Y32.599 E.01066
G1 X161.092 Y32.642 E.01066
G1 X161.424 Y32.717 E.01066
G1 X161.746 Y32.825 E.01066
G1 X162.056 Y32.965 E.01066
G1 X162.35 Y33.135 E.01066
G1 X162.626 Y33.334 E.01066
G1 X162.881 Y33.559 E.01066
G1 X163.112 Y33.808 E.01066
G1 X163.318 Y34.079 E.01066
G1 X163.495 Y34.369 E.01066
G1 X163.643 Y34.675 E.01066
G1 X163.759 Y34.995 E.01066
G1 X163.843 Y35.327 E.01075
G1 X163.906 Y35.838 E.01613
G1 X163.906 Y36.17 E.01042
G1 X163.872 Y36.508 E.01066
G1 X163.805 Y36.842 E.01066
G1 X163.705 Y37.166 E.01066
G1 X163.573 Y37.48 E.01066
G1 X163.41 Y37.778 E.01066
G1 X163.218 Y38.059 E.01066
G1 X163 Y38.32 E.01066
G1 X162.757 Y38.557 E.01066
G1 X162.491 Y38.769 E.01066
G1 X162.205 Y38.953 E.01066
G1 X161.903 Y39.109 E.01066
G1 X161.586 Y39.233 E.01066
G1 X161.259 Y39.325 E.01066
G1 X160.924 Y39.384 E.01066
G1 X160.585 Y39.409 E.01066
G1 X160.245 Y39.401 E.01066
G1 X159.908 Y39.359 E.01066
G1 X159.576 Y39.283 E.01066
G1 X159.254 Y39.175 E.01066
G1 X158.944 Y39.035 E.01066
G1 X158.65 Y38.865 E.01066
G1 X158.374 Y38.666 E.01066
G1 X158.119 Y38.441 E.01066
G1 X157.888 Y38.192 E.01066
G1 X157.682 Y37.921 E.01066
G1 X157.505 Y37.631 E.01066
G1 X157.357 Y37.325 E.01066
G1 X157.241 Y37.005 E.01066
G1 X157.157 Y36.673 E.01075
G1 X157.094 Y36.162 E.01613
G1 X157.094 Y35.83 E.01042
G1 X157.122 Y35.551 E.00878
M204 S1250
G1 X156.862 Y35.28 F9000
G1 X156.717 Y36.185
M204 S800
;TYPE:Perimeter
G1 F1200
G1 X156.785 Y36.743 E.01761
G1 X156.88 Y37.117 E.01209
G1 X157.01 Y37.471 E.01184
G1 X157.173 Y37.812 E.01184
G1 X157.37 Y38.134 E.01184
G1 X157.598 Y38.435 E.01184
G1 X157.855 Y38.712 E.01184
G1 X158.138 Y38.961 E.01184
G1 X158.445 Y39.182 E.01184
G1 X158.772 Y39.371 E.01184
G1 X159.116 Y39.526 E.01184
G1 X159.474 Y39.646 E.01184
G1 X159.766 Y39.713 E.00939
G1 X19.793 Y39.707 E4.38874
G1 X19.382 Y39.667 E.01296
G1 X18.984 Y39.587 E.01273
G1 X18.388 Y39.391 E.01965
G1 X17.829 Y39.109 E.01965
G1 X17.491 Y38.883 E.01274
G1 X17.177 Y38.626 E.01273
G1 X16.74 Y38.166 E.01988
G1 X16.498 Y37.84 E.01273
G1 X16.285 Y37.486 E.01296
G1 X16.108 Y37.112 E.01296
G1 X15.972 Y36.73 E.01273
G1 X15.834 Y36.118 E.01965
G1 X15.787 Y35.476 E.02018
G1 X15.787 Y20.517 E.46903
G1 X15.808 Y20.087 E.01349
G1 X15.868 Y19.685 E.01273
G1 X16.035 Y19.081 E.01965
G1 X16.289 Y18.508 E.01966
G1 X16.498 Y18.16 E.01273
G1 X16.74 Y17.834 E.01273
G1 X17.172 Y17.38 E.01965
G1 X17.66 Y16.999 E.01943
G1 X18.199 Y16.693 E.01943
G1 X18.778 Y16.47 E.01943
G1 X19.382 Y16.334 E.01942
G1 X20.024 Y16.287 E.02018
G1 X160.204 Y16.293 E4.39523
G1 X160.618 Y16.333 E.01306
M73 P0 R173
G1 X161.023 Y16.414 E.01295
G1 X161.419 Y16.534 E.01296
G1 X161.801 Y16.692 E.01296
G1 X162.165 Y16.887 E.01296
G1 X162.509 Y17.117 E.01296
G1 X162.829 Y17.379 E.01296
G1 X163.121 Y17.671 E.01296
G1 X163.383 Y17.991 E.01296
G1 X163.613 Y18.335 E.01296
G1 X163.808 Y18.699 E.01296
G1 X163.966 Y19.081 E.01296
G1 X164.086 Y19.477 E.01296
G1 X164.165 Y19.875 E.01273
G1 X164.213 Y20.524 E.02041
G1 X164.213 Y35.25 E.46173
G1 X164.12 Y34.883 E.01186
G1 X163.99 Y34.529 E.01184
G1 X163.827 Y34.188 E.01184
G1 X163.63 Y33.866 E.01184
G1 X163.402 Y33.565 E.01184
G1 X163.145 Y33.288 E.01184
G1 X162.862 Y33.039 E.01184
G1 X162.555 Y32.818 E.01184
G1 X162.228 Y32.629 E.01184
G1 X161.884 Y32.474 E.01184
G1 X161.526 Y32.354 E.01184
G1 X161.158 Y32.27 E.01184
G1 X160.783 Y32.223 E.01184
G1 X160.406 Y32.213 E.01184
G1 X160.029 Y32.242 E.01184
G1 X159.657 Y32.307 E.01184
G1 X159.294 Y32.409 E.01184
G1 X158.942 Y32.547 E.01184
G1 X158.606 Y32.72 E.01184
G1 X158.289 Y32.925 E.01184
G1 X157.994 Y33.16 E.01184
G1 X157.723 Y33.424 E.01184
G1 X157.481 Y33.713 E.01184
G1 X157.268 Y34.025 E.01184
G1 X157.087 Y34.356 E.01184
G1 X156.941 Y34.704 E.01184
G1 X156.829 Y35.065 E.01184
G1 X156.754 Y35.435 E.01184
G1 X156.717 Y35.811 E.01183
G1 X156.717 Y36.125 E.00986
M204 S1250
G1 E-2.24 F4200
;WIPE_START
G1 F7200
G1 X156.785 Y36.743 E-.34429
G1 X156.88 Y37.117 E-.21371
G1 X157.01 Y37.471 E-.20925
G1 X157.123 Y37.707 E-.14475
;WIPE_END
G1 E-.048 F4200
G1 Z.4 F9000
G1 X160.673 Y40.04
G1 Z.2
G1 E3.2 F2400
M204 S800
;TYPE:External perimeter
G1 F1200
G1 X159.99 Y40.09 E.02149
G1 X19.775 Y40.084 E4.39634
G1 X19.327 Y40.04 E.01412
G1 X18.887 Y39.953 E.01404
G1 X18.244 Y39.74 E.02125
G1 X17.638 Y39.435 E.02125
G1 X17.266 Y39.186 E.01404
G1 X16.92 Y38.902 E.01404
G1 X16.451 Y38.41 E.02133
G1 X16.184 Y38.05 E.01404
G1 X15.952 Y37.664 E.01412
G1 X15.76 Y37.256 E.01412
G1 X15.609 Y36.835 E.01404
G1 X15.46 Y36.173 E.02125
G1 X15.41 Y35.49 E.02149
G1 X15.41 Y20.508 E.46976
G1 X15.432 Y20.05 E.01436
G1 X15.498 Y19.607 E.01404
G1 X15.679 Y18.954 E.02125
G1 X15.954 Y18.334 E.02125
G1 X16.184 Y17.95 E.01404
G1 X16.451 Y17.59 E.01404
G1 X16.918 Y17.099 E.02125
G1 X17.45 Y16.684 E.02117
G1 X18.038 Y16.351 E.02117
G1 X18.668 Y16.108 E.02117
G1 X19.327 Y15.96 E.02117
G1 X20.01 Y15.91 E.02149
G1 X160.222 Y15.916 E4.39624
G1 X160.674 Y15.96 E.01422
G1 X161.115 Y16.048 E.01412
G1 X161.546 Y16.179 E.01412
G1 X161.962 Y16.351 E.01412
G1 X162.36 Y16.563 E.01412
G1 X162.734 Y16.814 E.01412
G1 X163.082 Y17.099 E.01412
G1 X163.401 Y17.418 E.01412
G1 X163.686 Y17.766 E.01412
G1 X163.937 Y18.14 E.01412
G1 X164.149 Y18.538 E.01412
G1 X164.321 Y18.954 E.01412
G1 X164.452 Y19.385 E.01412
G1 X164.539 Y19.824 E.01404
G1 X164.59 Y20.51 E.02157
G1 X164.59 Y35.492 E.46976
G1 X164.568 Y35.95 E.01436
G1 X164.502 Y36.393 E.01404
G1 X164.321 Y37.046 E.02125
G1 X164.046 Y37.666 E.02125
G1 X163.816 Y38.05 E.01404
G1 X163.549 Y38.41 E.01404
G1 X163.082 Y38.901 E.02125
G1 X162.55 Y39.316 E.02117
G1 X161.962 Y39.649 E.02117
G1 X161.332 Y39.892 E.02117
G1 X160.732 Y40.027 E.01929
M204 S1250
G1 X160.425 Y39.726 F9000
G1 X160.627 Y39.725
M204 S800
;TYPE:Gap fill
;WIDTH:0.301072
G1 F1200
G1 X160.955 Y39.676 E.00713
M204 S1250
M204 S800
;WIDTH:0.252613
G1 X160.966 Y39.674 E.00018
M204 S1250
M204 S800
;WIDTH:0.25161
G1 X161.249 Y39.617 E.00501
M204 S1250
M204 S800
;WIDTH:0.238173
G1 X161.317 Y39.598 E.00114
M204 S1250
M204 S800
;WIDTH:0.224576
G1 X161.325 Y39.596 E.00014
M204 S1250
M204 S800
;WIDTH:0.223274
G1 X161.666 Y39.482 E.00539
M204 S1250
M204 S800
;WIDTH:0.189539
G1 X161.673 Y39.48 E.00009
M204 S1250
M204 S800
;WIDTH:0.190334
G1 X161.85 Y39.411 E.00232
M204 S1250
M204 S800
;WIDTH:0.190335
G1 X162.003 Y39.338 E.00208
M204 S1250
M204 S800
;WIDTH:0.166397
G1 X162.008 Y39.335 E.00006
M204 S1250
M204 S800
;WIDTH:0.165835
G1 X162.324 Y39.165 E.00367
M204 S1250
M204 S800
;WIDTH:0.150875
G1 X162.329 Y39.162 E.00005
M204 S1250
M204 S800
;WIDTH:0.156597
G1 X162.413 Y39.111 E.00093
M204 S1250
M204 S800
;WIDTH:0.156596
G1 X162.626 Y38.96 E.00246
M204 S1250
M204 S800
;WIDTH:0.133392
G1 X162.629 Y38.958 E.00003
M204 S1250
M204 S800
;WIDTH:0.137056
G1 X162.911 Y38.735 E.00281
M204 S1250
M204 S800
;WIDTH:0.137341
G1 X162.914 Y38.732 E.00004
M204 S1250
M204 S800
;WIDTH:0.138574
G1 X162.923 Y38.725 E.00009
M204 S1250
M204 S800
;WIDTH:0.138574
G1 X163.167 Y38.478 E.00276
M204 S1250
M204 S800
;WIDTH:0.12574
G1 X163.17 Y38.475 E.00003
M204 S1250
M204 S800
;WIDTH:0.144172
G1 X163.366 Y38.255 E.00248
M204 S1250
M204 S800
;WIDTH:0.144174
G1 X163.406 Y38.204 E.00055
M204 S1250
M204 S800
;WIDTH:0.140282
G1 X163.409 Y38.201 E.00004
M204 S1250
M204 S800
;WIDTH:0.154219
G1 X163.613 Y37.914 E.00325
M204 S1250
M204 S800
;WIDTH:0.154219
G1 X163.617 Y37.908 E.00007
M204 S1250
M204 S800
;WIDTH:0.153788
G1 X163.62 Y37.903 E.00005
M204 S1250
M204 S800
;WIDTH:0.168506
G1 X163.798 Y37.592 E.00375
M204 S1250
M204 S800
;WIDTH:0.169079
G1 X163.801 Y37.586 E.00007
M204 S1250
M204 S800
;WIDTH:0.175053
G1 X163.82 Y37.548 E.00047
M204 S1250
M204 S800
;WIDTH:0.180844
G1 X163.946 Y37.258 E.00363
M204 S1250
M204 S800
;WIDTH:0.181314
G1 X163.948 Y37.251 E.00008
M204 S1250
M204 S800
;WIDTH:0.218946
G1 X164.06 Y36.953 E.00467
M204 S1250
M204 S800
;WIDTH:0.218948
G1 X164.071 Y36.914 E.00059
M204 S1250
M204 S800
;WIDTH:0.217951
G1 X164.074 Y36.905 E.00013
M204 S1250
M204 S800
;WIDTH:0.243286
G1 X164.157 Y36.556 E.00598
M204 S1250
M204 S800
;WIDTH:0.244494
G1 X164.159 Y36.546 E.00017
M204 S1250
M204 S800
;WIDTH:0.28212
G1 X164.2 Y36.329 E.0044
M204 S1250
M204 S800
;WIDTH:0.288685
G1 X164.217 Y36.192 E.00283
M204 S1250
M204 S800
;WIDTH:0.289868
G1 X164.218 Y36.18 E.00025
M204 S1250
M204 S800
;WIDTH:0.328336
G1 X164.238 Y35.917 E.00624
M204 S1250
M204 S800
;WIDTH:0.332725
G1 X164.24 Y35.826 E.0022
M204 S1250
M204 S800
;WIDTH:0.334701
G1 X164.24 Y35.808 E.00044
M204 S1250
M204 S800
;WIDTH:0.369996
G1 X164.226 Y35.438 E.01007
M204 S1250
G1 E-2.24 F4200
;WIPE_START
G1 F7200
G1 X164.24 Y35.808 E-.20511
;WIPE_END
G1 E-.75489 F4200
G1 Z.4 F9000
G1 X160.627 Y39.725
G1 Z.2
G1 E3.2 F2400
M204 S800
;WIDTH:0.301071
G1 F1200
G1 X160.599 Y39.727 E.00059
M204 S1250
M204 S800
;WIDTH:0.301658
G1 X160.587 Y39.727 E.00028
M204 S1250
M204 S800
;WIDTH:0.337051
G1 X160.227 Y39.736 E.00879
M204 S1250
M204 S800
;WIDTH:0.339236
G1 X160.213 Y39.736 E.00036
M204 S1250
M204 S800
;WIDTH:0.359031
G1 X159.954 Y39.729 E.0068
M204 S1250
G1 X158.59 Y39.51 F9000
M204 S800
;WIDTH:0.243084
G1 F1200
G1 X158.288 Y39.424 E.00523
M204 S1250
M204 S800
;WIDTH:0.243085
G1 X158.234 Y39.266 E.00279
M204 S1250
G1 E-2.24 F4200
;WIPE_START
G1 F7200
G1 X158.288 Y39.424 E-.09281
;WIPE_END
G1 E-.86719 F4200
G1 Z.4 F9000
G1 X161.949 Y16.9
G1 Z.2
G1 E3.2 F2400
M204 S800
;TYPE:Solid infill
;WIDTH:0.420568
G1 F1200
G1 X162.913 Y17.864 E.04282
G1 X163.156 Y18.159 E.01201
G1 X163.37 Y18.48 E.01211
G1 X163.552 Y18.82 E.01211
G1 X163.703 Y19.187 E.01247
G1 X161.313 Y16.797 E.10614
G1 X160.955 Y16.689 E.01175
G1 X160.599 Y16.618 E.01138
G1 X163.882 Y19.901 E.14578
G1 X163.926 Y20.479 E.01821
G1 X160.023 Y16.576 E.17334
G1 X159.489 Y16.576 E.01677
G1 X163.93 Y21.017 E.19724
G1 X163.93 Y21.551 E.01677
G1 X158.955 Y16.576 E.22096
G1 X158.42 Y16.576 E.01677
G1 X163.93 Y22.085 E.24468
G1 X163.93 Y22.619 E.01677
G1 X157.886 Y16.576 E.2684
G1 X157.352 Y16.575 E.01677
G1 X163.93 Y23.153 E.29211
G1 X163.93 Y23.687 E.01677
G1 X156.818 Y16.575 E.31583
G1 X156.284 Y16.575 E.01677
G1 X163.93 Y24.222 E.33955
G1 X163.93 Y24.756 E.01677
G1 X155.75 Y16.575 E.36327
G1 X155.216 Y16.575 E.01677
G1 X163.93 Y25.29 E.38699
G1 X163.93 Y25.824 E.01677
G1 X154.682 Y16.575 E.41071
G1 X154.148 Y16.575 E.01677
G1 X163.93 Y26.358 E.43442
G1 X163.93 Y26.892 E.01677
G1 X153.614 Y16.575 E.45814
G1 X153.079 Y16.575 E.01677
G1 X163.93 Y27.426 E.48186
G1 X163.93 Y27.96 E.01677
G1 X152.545 Y16.575 E.50558
G1 X152.011 Y16.575 E.01677
G1 X163.93 Y28.494 E.5293
G1 X163.93 Y29.028 E.01677
G1 X151.477 Y16.575 E.55302
G1 X150.943 Y16.575 E.01677
G1 X163.93 Y29.562 E.57674
G1 X163.93 Y30.096 E.01677
G1 X150.409 Y16.575 E.60045
G1 X149.875 Y16.575 E.01677
G1 X163.93 Y30.63 E.62417
G1 X163.93 Y31.165 E.01677
G1 X149.341 Y16.575 E.64789
G1 X148.807 Y16.575 E.01677
G1 X163.93 Y31.699 E.67161
G1 X163.93 Y32.233 E.01677
G1 X148.273 Y16.575 E.69533
G1 X147.738 Y16.575 E.01677
G1 X163.93 Y32.767 E.71905
G1 X163.93 Y33.301 E.01677
G1 X147.204 Y16.575 E.74276
G1 X146.67 Y16.575 E.01677
G1 X162.63 Y32.535 E.70875
G1 X162.357 Y32.377 E.00989
M73 P1 R173
G1 X161.987 Y32.21 E.01274
G1 X161.662 Y32.101 E.01077
G1 X146.136 Y16.575 E.68949
G1 X145.602 Y16.575 E.01677
G1 X160.991 Y31.964 E.68339
G1 X160.804 Y31.94 E.0059
G1 X160.424 Y31.931 E.01195
G1 X145.068 Y16.575 E.68193
G1 X144.534 Y16.575 E.01677
G1 X159.931 Y31.972 E.68375
G1 X159.486 Y32.061 E.01424
G1 X144 Y16.575 E.68773
G1 X143.466 Y16.575 E.01677
G1 X159.08 Y32.189 E.69341
G1 X158.707 Y32.35 E.01276
G1 X142.932 Y16.575 E.70055
G1 X142.398 Y16.575 E.01677
G1 X158.363 Y32.54 E.70899
G1 X158.045 Y32.757 E.01207
G1 X141.863 Y16.575 E.71862
G1 X141.329 Y16.575 E.01677
G1 X157.754 Y32.999 E.72938
G1 X157.486 Y33.266 E.01186
G1 X140.795 Y16.575 E.74123
G1 X140.261 Y16.575 E.01677
G1 X157.244 Y33.558 E.75419
G1 X157.028 Y33.875 E.01207
G1 X139.727 Y16.575 E.76829
G1 X139.193 Y16.575 E.01677
G1 X156.839 Y34.221 E.78364
G1 X156.68 Y34.595 E.01278
G1 X138.659 Y16.575 E.80027
G1 X138.125 Y16.575 E.01677
M73 P1 R172
G1 X156.553 Y35.003 E.81838
G1 X156.469 Y35.453 E.01436
G1 X137.591 Y16.575 E.83834
G1 X137.057 Y16.575 E.01677
G1 X156.434 Y35.952 E.86052
G1 X156.434 Y36.203 E.00787
G1 X156.474 Y36.526 E.01023
