; generated by PrusaSlicer 2.4.1 on 2022-04-24 at 19:40:46 UTC


;
;

;
;
; 

; external perimeters extrusion width = 0.45mm
; perimeters extrusion width = 0.45mm
; infill extrusion width = 0.45mm
; solid infill extrusion width = 0.45mm
; top infill extrusion width = 0.40mm
; first layer extrusion width = 0.42mm

; external perimeters extrusion width = 0.45mm
; perimeters extrusion width = 0.45mm
; infill extrusion width = 0.45mm
; solid infill extrusion width = 0.45mm
; top infill extrusion width = 0.40mm
; first layer extrusion width = 0.42mm

; external perimeters extrusion width = 0.45mm
; perimeters extrusion width = 0.45mm
; infill extrusion width = 0.45mm
; solid infill extrusion width = 0.45mm
; top infill extrusion width = 0.40mm
; first layer extrusion width = 0.42mm

; external perimeters extrusion width = 0.45mm
; perimeters extrusion width = 0.45mm
; infill extrusion width = 0.45mm
; solid infill extrusion width = 0.45mm
; top infill extrusion width = 0.40mm
; first layer extrusion width = 0.42mm

; external perimeters extrusion width = 0.45mm
; perimeters extrusion width = 0.45mm
; infill extrusion width = 0.45mm
; solid infill extrusion width = 0.45mm
; top infill extrusion width = 0.40mm
; first layer extrusion width = 0.42mm

M73 P0 R183
M107
;TYPE:Custom
G90 ; use absolute coordinates
M83 ; extruder relative mode
M104 S170 ; set extruder temp for bed leveling
M140 S60 ; set bed temp
M109 R170 ; wait for bed leveling temp
M190 S60 ; wait for bed temp
G28 ; home all without mesh bed level
G29 ; mesh bed leveling 
M104 S215 ; set extruder temp
G92 E0.0
G1 Y-2.0 X179 F2400
G1 Z3 F720
M109 S215 ; wait for extruder temp

; intro line
G1 X170 F1000
G1 Z0.2 F720
G1 X110.0 E8.0 F900
G1 X40.0 E10.0 F700
G92 E0.0

M221 S95 ; set flow
G21 ; set units to millimeters
G90 ; use absolute coordinates
M83 ; use relative distances for extrusion
M900 K0.2 ; Filament gcode LA 1.5
; ; Filament gcode LA 1.0
M107
;LAYER_CHANGE
;Z:0.2
;HEIGHT:0.2
;BEFORE_LAYER_CHANGE
G92 E0.0
;0.2


G1 E-3.2 F4200
G1 Z.2 F9000
;AFTER_LAYER_CHANGE
;0.2
G1 Z.4
G1 X14.743 Y15.325
G1 Z.2
G1 E3.2 F2400
M204 S800
;TYPE:Skirt/Brim
;WIDTH:0.42
G1 F1200
G1 X15.853 Y14.399 E.04534
G1 X17.123 Y13.707 E.04534
G1 X18.504 Y13.277 E.04534
G1 X19.942 Y13.124 E.04534
G1 X160.058 Y13.124 E4.39326
G1 X161.496 Y13.277 E.04534
G1 X162.877 Y13.707 E.04534
G1 X164.05 Y14.334 E.0417
G1 X165.172 Y15.24 E.04523
G1 X166.101 Y16.353 E.04545
G1 X166.774 Y17.58 E.04387
G1 X167.166 Y18.753 E.03877
G1 X167.37 Y20.196 E.04572
G1 X167.376 Y159.558 E4.36959
G1 X167.223 Y160.996 E.04535
G1 X166.797 Y162.365 E.04493
G1 X166.17 Y163.542 E.04184
G1 X165.263 Y164.669 E.04536
G1 X164.146 Y165.601 E.04559
G1 X162.88 Y166.291 E.04521
G1 X161.447 Y166.734 E.04704
G1 X160.008 Y166.877 E.04534
G1 X19.942 Y166.876 E4.39168
G1 X18.553 Y166.734 E.04378
G1 X17.231 Y166.337 E.04326
G1 X15.95 Y165.665 E.04535
G1 X14.825 Y164.757 E.04535
G1 X13.899 Y163.647 E.04531
G1 X13.207 Y162.377 E.04536
M73 P0 R182
G1 X12.778 Y161 E.04521
G1 X12.623 Y159.5 E.04728
G1 X12.624 Y20.442 E4.36008
G1 X12.777 Y19.004 E.04534
G1 X13.207 Y17.623 E.04534
G1 X13.899 Y16.353 E.04534
G1 X14.705 Y15.372 E.03982
M204 S1250
; printing object GARAGE 2.stl id:2 copy 0
G1 E-2.24 F4200
;WIPE_START
G1 F7200
G1 X15.853 Y14.399 E-.83405
G1 X15.977 Y14.332 E-.07795
;WIPE_END
G1 E-.048 F4200
G1 Z.4 F9000
G1 X158 Y157.68
G1 Z.2
G1 E3.2 F2400
M204 S800
;TYPE:External perimeter
G1 F1200
G1 X158.243 Y157.443 E.01066
G1 X158.509 Y157.231 E.01066
G1 X158.795 Y157.047 E.01066
G1 X159.097 Y156.891 E.01066
G1 X159.414 Y156.767 E.01066
G1 X159.741 Y156.675 E.01066
G1 X160.076 Y156.616 E.01066
G1 X160.415 Y156.591 E.01066
G1 X160.755 Y156.599 E.01066
G1 X161.092 Y156.642 E.01066
G1 X161.424 Y156.717 E.01066
G1 X161.746 Y156.825 E.01066
G1 X162.056 Y156.965 E.01066
G1 X162.35 Y157.135 E.01066
G1 X162.626 Y157.334 E.01066
G1 X162.881 Y157.559 E.01066
G1 X163.112 Y157.808 E.01066
G1 X163.318 Y158.079 E.01066
G1 X163.495 Y158.369 E.01066
G1 X163.643 Y158.675 E.01066
G1 X163.759 Y158.995 E.01066
G1 X163.843 Y159.327 E.01075
G1 X163.906 Y159.838 E.01613
G1 X163.906 Y160.17 E.01042
G1 X163.872 Y160.508 E.01066
G1 X163.805 Y160.842 E.01066
G1 X163.705 Y161.166 E.01066
G1 X163.573 Y161.48 E.01066
G1 X163.41 Y161.778 E.01066
G1 X163.218 Y162.059 E.01066
G1 X163 Y162.32 E.01066
G1 X162.757 Y162.557 E.01066
G1 X162.491 Y162.769 E.01066
G1 X162.205 Y162.953 E.01066
G1 X161.903 Y163.109 E.01066
G1 X161.586 Y163.233 E.01066
G1 X161.259 Y163.325 E.01066
G1 X160.924 Y163.384 E.01066
G1 X160.585 Y163.409 E.01066
G1 X160.245 Y163.401 E.01066
G1 X159.908 Y163.359 E.01066
G1 X159.576 Y163.283 E.01066
G1 X159.254 Y163.175 E.01066
G1 X158.944 Y163.035 E.01066
G1 X158.65 Y162.865 E.01066
G1 X158.374 Y162.666 E.01066
G1 X158.119 Y162.441 E.01066
G1 X157.888 Y162.192 E.01066
G1 X157.682 Y161.921 E.01066
G1 X157.505 Y161.631 E.01066
G1 X157.357 Y161.325 E.01066
G1 X157.241 Y161.005 E.01066
G1 X157.157 Y160.673 E.01075
G1 X157.094 Y160.162 E.01613
G1 X157.094 Y159.83 E.01042
G1 X157.128 Y159.492 E.01066
G1 X157.195 Y159.158 E.01066
G1 X157.295 Y158.834 E.01066
G1 X157.427 Y158.52 E.01066
G1 X157.59 Y158.222 E.01066
G1 X157.782 Y157.941 E.01066
G1 X157.961 Y157.726 E.00878
M204 S1250
G1 X157.9 Y157.356 F9000
G1 X157.673 Y157.484
M204 S800
;TYPE:Perimeter
G1 F1200
G1 X157.481 Y157.713 E.00937
G1 X157.268 Y158.025 E.01184
G1 X157.087 Y158.356 E.01184
G1 X156.941 Y158.704 E.01184
G1 X156.829 Y159.065 E.01184
G1 X156.754 Y159.435 E.01184
G1 X156.717 Y159.811 E.01183
G1 X156.717 Y160.185 E.01174
G1 X156.785 Y160.743 E.01761
G1 X156.88 Y161.117 E.01209
G1 X157.01 Y161.471 E.01184
G1 X157.173 Y161.812 E.01184
G1 X157.37 Y162.134 E.01184
G1 X157.598 Y162.435 E.01184
G1 X157.855 Y162.712 E.01184
G1 X158.138 Y162.961 E.01184
G1 X158.445 Y163.182 E.01184
G1 X158.772 Y163.371 E.01184
G1 X159.116 Y163.526 E.01184
G1 X159.474 Y163.646 E.01184
G1 X159.766 Y163.713 E.00939
G1 X19.793 Y163.707 E4.38874
G1 X19.382 Y163.667 E.01296
G1 X18.984 Y163.587 E.01273
G1 X18.388 Y163.391 E.01965
G1 X17.829 Y163.109 E.01965
G1 X17.491 Y162.883 E.01274
G1 X17.177 Y162.626 E.01273
G1 X16.74 Y162.166 E.01988
G1 X16.498 Y161.84 E.01273
G1 X16.285 Y161.486 E.01296
G1 X16.108 Y161.112 E.01296
G1 X15.972 Y160.729 E.01274
G1 X15.834 Y160.118 E.01965
G1 X15.787 Y159.476 E.02019
G1 X15.787 Y144.517 E.46903
G1 X15.808 Y144.087 E.01349
G1 X15.868 Y143.685 E.01273
G1 X16.035 Y143.081 E.01965
G1 X16.289 Y142.508 E.01966
G1 X16.498 Y142.16 E.01273
G1 X16.74 Y141.834 E.01273
G1 X17.172 Y141.38 E.01965
G1 X17.66 Y140.999 E.01943
G1 X18.199 Y140.693 E.01943
G1 X18.778 Y140.47 E.01943
G1 X19.382 Y140.334 E.01942
G1 X20.024 Y140.287 E.02018
G1 X160.204 Y140.293 E4.39523
G1 X160.618 Y140.333 E.01306
G1 X161.023 Y140.414 E.01295
G1 X161.419 Y140.534 E.01296
G1 X161.801 Y140.692 E.01296
G1 X162.165 Y140.887 E.01296
G1 X162.509 Y141.117 E.01296
G1 X162.829 Y141.379 E.01296
G1 X163.121 Y141.671 E.01296
G1 X163.383 Y141.991 E.01296
G1 X163.613 Y142.335 E.01296
G1 X163.808 Y142.699 E.01296
G1 X163.966 Y143.081 E.01296
G1 X164.086 Y143.477 E.01296
G1 X164.165 Y143.875 E.01273
G1 X164.213 Y144.524 E.02041
G1 X164.213 Y159.25 E.46173
G1 X164.12 Y158.883 E.01186
G1 X163.99 Y158.529 E.01184
G1 X163.827 Y158.188 E.01184
G1 X163.63 Y157.866 E.01184
G1 X163.402 Y157.565 E.01184
G1 X163.145 Y157.288 E.01184
G1 X162.862 Y157.039 E.01184
G1 X162.555 Y156.818 E.01184
G1 X162.228 Y156.629 E.01184
G1 X161.884 Y156.474 E.01183
G1 X161.526 Y156.354 E.01184
G1 X161.158 Y156.27 E.01184
G1 X160.783 Y156.223 E.01184
G1 X160.406 Y156.213 E.01184
G1 X160.029 Y156.242 E.01184
G1 X159.657 Y156.307 E.01184
G1 X159.294 Y156.409 E.01184
G1 X158.942 Y156.547 E.01184
G1 X158.606 Y156.72 E.01184
G1 X158.289 Y156.925 E.01184
G1 X157.994 Y157.16 E.01184
G1 X157.711 Y157.438 E.01243
M204 S1250
G1 E-2.24 F4200
;WIPE_START
G1 F7200
G1 X157.481 Y157.713 E-.19884
G1 X157.268 Y158.025 E-.20924
G1 X157.087 Y158.356 E-.20926
G1 X156.941 Y158.704 E-.20928
G1 X156.895 Y158.852 E-.08538
;WIPE_END
G1 E-.048 F4200
G1 Z.4 F9000
G1 X160.673 Y164.04
G1 Z.2
G1 E3.2 F2400
M204 S800
;TYPE:External perimeter
G1 F1200
G1 X159.99 Y164.09 E.02149
G1 X19.775 Y164.084 E4.39634
G1 X19.327 Y164.04 E.01412
G1 X18.887 Y163.953 E.01404
G1 X18.244 Y163.74 E.02125
G1 X17.638 Y163.435 E.02125
G1 X17.266 Y163.186 E.01404
G1 X16.92 Y162.902 E.01404
G1 X16.451 Y162.41 E.02133
G1 X16.184 Y162.05 E.01404
G1 X15.952 Y161.664 E.01412
G1 X15.76 Y161.256 E.01412
G1 X15.609 Y160.835 E.01404
G1 X15.46 Y160.173 E.02125
G1 X15.41 Y159.49 E.02149
G1 X15.41 Y144.508 E.46976
G1 X15.432 Y144.05 E.01436
G1 X15.498 Y143.607 E.01404
G1 X15.679 Y142.954 E.02125
G1 X15.954 Y142.334 E.02125
G1 X16.184 Y141.95 E.01404
G1 X16.451 Y141.59 E.01404
G1 X16.918 Y141.099 E.02125
G1 X17.45 Y140.684 E.02117
G1 X18.038 Y140.351 E.02117
G1 X18.668 Y140.108 E.02117
G1 X19.327 Y139.96 E.02117
G1 X20.01 Y139.91 E.02149
G1 X160.222 Y139.916 E4.39624
G1 X160.674 Y139.96 E.01422
G1 X161.115 Y140.048 E.01412
G1 X161.546 Y140.179 E.01412
G1 X161.962 Y140.351 E.01412
G1 X162.36 Y140.563 E.01412
G1 X162.734 Y140.814 E.01412
G1 X163.082 Y141.099 E.01412
G1 X163.401 Y141.418 E.01412
G1 X163.686 Y141.766 E.01412
G1 X163.937 Y142.14 E.01412
G1 X164.149 Y142.538 E.01412
G1 X164.321 Y142.954 E.01412
G1 X164.452 Y143.385 E.01412
G1 X164.539 Y143.824 E.01404
G1 X164.59 Y144.51 E.02157
G1 X164.59 Y159.492 E.46976
G1 X164.568 Y159.95 E.01436
G1 X164.502 Y160.393 E.01404
G1 X164.321 Y161.046 E.02125
G1 X164.046 Y161.666 E.02125
G1 X163.816 Y162.05 E.01404
G1 X163.549 Y162.41 E.01404
G1 X163.082 Y162.901 E.02125
G1 X162.55 Y163.316 E.02117
G1 X161.962 Y163.649 E.02117
G1 X161.332 Y163.892 E.02117
G1 X160.732 Y164.027 E.01929
M204 S1250
G1 X160.425 Y163.726 F9000
G1 X160.627 Y163.725
M204 S800
;TYPE:Gap fill
;WIDTH:0.301043
G1 F1200
G1 X160.955 Y163.676 E.00713
M204 S1250
M204 S800
;WIDTH:0.252585
G1 X160.966 Y163.674 E.00018
M204 S1250
M204 S800
;WIDTH:0.251582
G1 X161.249 Y163.617 E.00501
M204 S1250
M204 S800
;WIDTH:0.238167
G1 X161.317 Y163.598 E.00114
M204 S1250
M204 S800
;WIDTH:0.224576
G1 X161.325 Y163.596 E.00014
M204 S1250
M204 S800
;WIDTH:0.223274
G1 X161.666 Y163.482 E.00539
M204 S1250
M204 S800
;WIDTH:0.189521
G1 X161.673 Y163.48 E.00009
M204 S1250
M204 S800
;WIDTH:0.190325
G1 X161.85 Y163.411 E.00232
M204 S1250
M204 S800
;WIDTH:0.190327
G1 X162.003 Y163.338 E.00208
M204 S1250
M204 S800
;WIDTH:0.166393
G1 X162.008 Y163.335 E.00006
M204 S1250
M204 S800
;WIDTH:0.165832
G1 X162.324 Y163.165 E.00367
M204 S1250
M204 S800
;WIDTH:0.150849
G1 X162.329 Y163.162 E.00005
M204 S1250
M204 S800
;WIDTH:0.156578
G1 X162.413 Y163.111 E.00093
M204 S1250
M204 S800
;WIDTH:0.156579
G1 X162.626 Y162.96 E.00246
M204 S1250
M204 S800
;WIDTH:0.133396
G1 X162.629 Y162.957 E.00003
M204 S1250
M204 S800
;WIDTH:0.137056
G1 X162.911 Y162.735 E.00281
M204 S1250
M204 S800
;WIDTH:0.13734
G1 X162.914 Y162.732 E.00004
M204 S1250
M204 S800
;WIDTH:0.138573
G1 X162.923 Y162.725 E.00009
M204 S1250
M204 S800
;WIDTH:0.138573
G1 X163.167 Y162.478 E.00277
M204 S1250
M204 S800
;WIDTH:0.125737
G1 X163.17 Y162.475 E.00003
M204 S1250
M204 S800
;WIDTH:0.144175
G1 X163.366 Y162.255 E.00248
M204 S1250
M204 S800
;WIDTH:0.144173
G1 X163.406 Y162.204 E.00055
M204 S1250
M204 S800
;WIDTH:0.140282
G1 X163.409 Y162.201 E.00004
M204 S1250
M204 S800
;WIDTH:0.154218
G1 X163.613 Y161.914 E.00325
M204 S1250
M204 S800
;WIDTH:0.154216
G1 X163.617 Y161.908 E.00007
M204 S1250
M204 S800
;WIDTH:0.153789
G1 X163.62 Y161.903 E.00005
M204 S1250
M204 S800
;WIDTH:0.168508
G1 X163.798 Y161.592 E.00375
M204 S1250
M204 S800
;WIDTH:0.169081
G1 X163.801 Y161.586 E.00007
M204 S1250
M204 S800
;WIDTH:0.175051
G1 X163.82 Y161.548 E.00047
M204 S1250
M204 S800
;WIDTH:0.180842
G1 X163.946 Y161.258 E.00363
M204 S1250
M204 S800
;WIDTH:0.181312
G1 X163.948 Y161.251 E.00008
M204 S1250
M204 S800
;WIDTH:0.218946
G1 X164.06 Y160.953 E.00467
M204 S1250
M204 S800
;WIDTH:0.218945
G1 X164.071 Y160.914 E.00059
M204 S1250
M204 S800
;WIDTH:0.217949
G1 X164.074 Y160.905 E.00013
M204 S1250
M204 S800
;WIDTH:0.243279
G1 X164.157 Y160.556 E.00598
M204 S1250
M204 S800
;WIDTH:0.244487
G1 X164.159 Y160.546 E.00017
M204 S1250
M204 S800
;WIDTH:0.28212
G1 X164.2 Y160.329 E.0044
M204 S1250
M204 S800
;WIDTH:0.288686
G1 X164.217 Y160.192 E.00283
M204 S1250
M204 S800
;WIDTH:0.289869
G1 X164.218 Y160.18 E.00025
M204 S1250
M204 S800
;WIDTH:0.328335
G1 X164.238 Y159.917 E.00624
M204 S1250
M204 S800
;WIDTH:0.332725
G1 X164.24 Y159.826 E.0022
M204 S1250
M204 S800
;WIDTH:0.334702
G1 X164.24 Y159.808 E.00044
M204 S1250
M204 S800
;WIDTH:0.369994
G1 X164.226 Y159.438 E.01007
M204 S1250
G1 E-2.24 F4200
;WIPE_START
G1 F7200
G1 X164.24 Y159.808 E-.2051
;WIPE_END
G1 E-.7549 F4200
G1 Z.4 F9000
G1 X160.627 Y163.725
G1 Z.2
G1 E3.2 F2400
M204 S800
;WIDTH:0.301041
G1 F1200
G1 X160.599 Y163.727 E.00059
M204 S1250
M204 S800
;WIDTH:0.301628
G1 X160.587 Y163.727 E.00028
M204 S1250
M204 S800
;WIDTH:0.337029
G1 X160.227 Y163.736 E.00879
M204 S1250
M204 S800
;WIDTH:0.339215
G1 X160.213 Y163.736 E.00036
M204 S1250
M204 S800
;WIDTH:0.35902
G1 X159.954 Y163.729 E.0068
M204 S1250
G1 X158.59 Y163.51 F9000
M204 S800
;WIDTH:0.243069
G1 F1200
G1 X158.288 Y163.424 E.00523
M204 S1250
M204 S800
;WIDTH:0.24307
G1 X158.234 Y163.266 E.00279
M204 S1250
G1 E-2.24 F4200
;WIPE_START
G1 F7200
G1 X158.288 Y163.424 E-.0928
;WIPE_END
G1 E-.8672 F4200
G1 Z.4 F9000
G1 X161.949 Y140.9
G1 Z.2
G1 E3.2 F2400
M204 S800
;TYPE:Solid infill
;WIDTH:0.420568
G1 F1200
G1 X162.913 Y141.864 E.04282
G1 X163.156 Y142.159 E.01201
G1 X163.37 Y142.48 E.01211
G1 X163.552 Y142.82 E.01211
G1 X163.703 Y143.187 E.01247
G1 X161.313 Y140.797 E.10614
G1 X160.955 Y140.689 E.01175
G1 X160.599 Y140.618 E.01138
G1 X163.882 Y143.901 E.14578
G1 X163.926 Y144.479 E.01821
G1 X160.023 Y140.576 E.17334
G1 X159.489 Y140.576 E.01677
G1 X163.93 Y145.017 E.19724
G1 X163.93 Y145.551 E.01677
G1 X158.955 Y140.576 E.22096
G1 X158.42 Y140.576 E.01677
G1 X163.93 Y146.085 E.24468
G1 X163.93 Y146.619 E.01677
G1 X157.886 Y140.576 E.2684
G1 X157.352 Y140.575 E.01677
G1 X163.93 Y147.153 E.29211
G1 X163.93 Y147.687 E.01677
G1 X156.818 Y140.575 E.31583
G1 X156.284 Y140.575 E.01677
G1 X163.93 Y148.222 E.33955
G1 X163.93 Y148.756 E.01677
G1 X155.75 Y140.575 E.36327
G1 X155.216 Y140.575 E.01677
G1 X163.93 Y149.29 E.38699
G1 X163.93 Y149.824 E.01677
G1 X154.682 Y140.575 E.41071
G1 X154.148 Y140.575 E.01677
G1 X163.93 Y150.358 E.43442
G1 X163.93 Y150.892 E.01677
G1 X153.614 Y140.575 E.45814
G1 X153.079 Y140.575 E.01677
G1 X163.93 Y151.426 E.48186
G1 X163.93 Y151.96 E.01677
G1 X152.545 Y140.575 E.50558
G1 X152.011 Y140.575 E.01677
G1 X163.93 Y152.494 E.5293
G1 X163.93 Y153.028 E.01677
G1 X151.477 Y140.575 E.55302
G1 X150.943 Y140.575 E.01677
G1 X163.93 Y153.562 E.57674
G1 X163.93 Y154.096 E.01677
G1 X150.409 Y140.575 E.60045
G1 X149.875 Y140.575 E.01677
G1 X163.93 Y154.63 E.62417
G1 X163.93 Y155.165 E.01677
M73 P0 R181
G1 X149.341 Y140.575 E.64789
G1 X148.807 Y140.575 E.01677
G1 X163.93 Y155.699 E.67161
G1 X163.93 Y156.233 E.01677
G1 X148.273 Y140.575 E.69533
G1 X147.738 Y140.575 E.01677
G1 X163.93 Y156.767 E.71905
G1 X163.93 Y157.301 E.01677
G1 X147.204 Y140.575 E.74276
G1 X146.67 Y140.575 E.01677
G1 X162.63 Y156.535 E.70875
G1 X162.357 Y156.377 E.00989
G1 X161.987 Y156.21 E.01274
G1 X161.662 Y156.101 E.01077
G1 X146.136 Y140.575 E.68949
G1 X145.602 Y140.575 E.01677
G1 X160.991 Y155.964 E.68339
G1 X160.804 Y155.94 E.0059
G1 X160.424 Y155.931 E.01195
G1 X145.068 Y140.575 E.68193
G1 X144.534 Y140.575 E.01677
G1 X159.931 Y155.972 E.68375
G1 X159.486 Y156.061 E.01424
M73 P1 R181
G1 X144 Y140.575 E.68773
G1 X143.466 Y140.575 E.01677
G1 X159.08 Y156.189 E.69341
G1 X158.707 Y156.35 E.01276
G1 X142.932 Y140.575 E.70055
G1 X142.398 Y140.575 E.01677
G1 X158.363 Y156.54 E.70899
G1 X158.045 Y156.757 E.01207
G1 X141.863 Y140.575 E.71862
G1 X141.329 Y140.575 E.01677
G1 X157.754 Y156.999 E.72938
G1 X157.486 Y157.266 E.01186
G1 X140.795 Y140.575 E.74123
G1 X140.261 Y140.575 E.01677
G1 X157.244 Y157.558 E.75419
G1 X157.028 Y157.875 E.01207
