; generated by PrusaSlicer 2.4.1 on 2022-04-25 at 21:17:44 UTC


;
;

;
;
; 

; external perimeters extrusion width = 0.45mm
; perimeters extrusion width = 0.45mm
; infill extrusion width = 0.45mm
; solid infill extrusion width = 0.45mm
; top infill extrusion width = 0.40mm
; first layer extrusion width = 0.42mm

M73 P0 R37
M107
;TYPE:Custom
G90 ; use absolute coordinates
M83 ; extruder relative mode
M104 S170 ; set extruder temp for bed leveling
M140 S60 ; set bed temp
M109 R170 ; wait for bed leveling temp
M190 S60 ; wait for bed temp
G28 ; home all without mesh bed level
G29 ; mesh bed leveling 
M104 S215 ; set extruder temp
G92 E0.0
G1 Y-2.0 X179 F2400
G1 Z3 F720
M109 S215 ; wait for extruder temp

; intro line
G1 X170 F1000
G1 Z0.2 F720
G1 X110.0 E8.0 F900
G1 X40.0 E10.0 F700
G92 E0.0

M221 S95 ; set flow
G21 ; set units to millimeters
G90 ; use absolute coordinates
M83 ; use relative distances for extrusion
M900 K0.2 ; Filament gcode LA 1.5
; ; Filament gcode LA 1.0
M107
;LAYER_CHANGE
;Z:0.2
;HEIGHT:0.2
;BEFORE_LAYER_CHANGE
G92 E0.0
;0.2


G1 E-3.2 F4200
G1 Z.2 F9000
;AFTER_LAYER_CHANGE
;0.2
G1 Z.4
G1 X17.915 Y75.424
G1 Z.2
G1 E3.2 F2400
M204 S800
;TYPE:Skirt/Brim
;WIDTH:0.42
G1 F1200
G1 X18.86 Y75.212 E.03038
G1 X20 Y75.123 E.03585
G1 X160.058 Y75.124 E4.39143
G1 X161.496 Y75.277 E.04534
M73 P1 R36
G1 X162.877 Y75.707 E.04534
G1 X164.05 Y76.334 E.0417
G1 X165.172 Y77.24 E.04523
G1 X166.101 Y78.353 E.04545
G1 X166.774 Y79.58 E.04387
G1 X167.166 Y80.753 E.03877
G1 X167.37 Y82.196 E.04572
G1 X167.376 Y97.558 E.48166
G1 X167.306 Y98.517 E.03013
G1 X167.141 Y99.349 E.02661
G1 X166.793 Y100.377 E.03403
G1 X166.297 Y101.342 E.03403
G1 X165.665 Y102.225 E.03403
G1 X164.919 Y102.997 E.03366
G1 X164.153 Y103.596 E.0305
G1 X163.214 Y104.14 E.03403
G1 X162.197 Y104.542 E.03429
G1 X161.144 Y104.787 E.03391
G1 X160 Y104.877 E.03597
G1 X19.696 Y104.87 E4.39912
G1 X18.504 Y104.723 E.03768
G1 X17.235 Y104.339 E.04158
G1 X16.158 Y103.797 E.03779
G1 X15.09 Y103.005 E.0417
G1 X14.261 Y102.134 E.03768
G1 X13.522 Y101.029 E.0417
G1 X13.035 Y99.93 E.03768
G1 X12.714 Y98.652 E.04132
G1 X12.623 Y97.5 E.03623
G1 X12.623 Y82.5 E.47032
G1 X12.694 Y81.483 E.03195
G1 X12.859 Y80.651 E.02661
G1 X13.207 Y79.623 E.03403
G1 X13.703 Y78.658 E.03403
G1 X14.335 Y77.775 E.03403
G1 X15.09 Y76.995 E.03403
G1 X15.95 Y76.334 E.03403
G1 X16.899 Y75.807 E.03403
G1 X17.858 Y75.445 E.03215
M204 S1250
; printing object CONTAINER.stl id:0 copy 0
G1 E-2.24 F4200
;WIPE_START
G1 F7200
G1 X18.86 Y75.212 E-.56995
G1 X19.475 Y75.164 E-.34205
;WIPE_END
G1 E-.048 F4200
G1 Z.4 F9000
G1 X157.128 Y97.492
G1 Z.2
G1 E3.2 F2400
M204 S800
;TYPE:External perimeter
G1 F1200
G1 X157.195 Y97.158 E.01066
G1 X157.295 Y96.834 E.01066
G1 X157.427 Y96.52 E.01066
G1 X157.59 Y96.222 E.01066
G1 X157.782 Y95.941 E.01066
G1 X158 Y95.68 E.01066
G1 X158.243 Y95.443 E.01066
G1 X158.509 Y95.231 E.01066
G1 X158.795 Y95.047 E.01066
G1 X159.097 Y94.891 E.01066
G1 X159.414 Y94.767 E.01066
G1 X159.741 Y94.675 E.01066
G1 X160.076 Y94.616 E.01066
G1 X160.415 Y94.591 E.01066
G1 X160.755 Y94.599 E.01066
G1 X161.092 Y94.641 E.01066
G1 X161.424 Y94.717 E.01066
G1 X161.746 Y94.825 E.01066
G1 X162.056 Y94.965 E.01066
G1 X162.35 Y95.135 E.01066
G1 X162.626 Y95.334 E.01066
G1 X162.881 Y95.559 E.01066
G1 X163.112 Y95.808 E.01066
G1 X163.318 Y96.079 E.01066
G1 X163.495 Y96.369 E.01066
G1 X163.643 Y96.675 E.01066
G1 X163.759 Y96.995 E.01066
G1 X163.843 Y97.327 E.01075
G1 X163.906 Y97.838 E.01613
G1 X163.906 Y98.17 E.01042
G1 X163.872 Y98.508 E.01066
G1 X163.805 Y98.842 E.01066
G1 X163.705 Y99.166 E.01066
G1 X163.573 Y99.48 E.01066
G1 X163.41 Y99.778 E.01066
G1 X163.218 Y100.059 E.01066
G1 X163 Y100.32 E.01066
G1 X162.757 Y100.557 E.01066
G1 X162.491 Y100.769 E.01066
G1 X162.205 Y100.953 E.01066
G1 X161.903 Y101.109 E.01066
G1 X161.586 Y101.233 E.01066
G1 X161.259 Y101.325 E.01066
G1 X160.924 Y101.384 E.01066
G1 X160.585 Y101.409 E.01066
G1 X160.245 Y101.401 E.01066
G1 X159.908 Y101.359 E.01066
G1 X159.576 Y101.283 E.01066
G1 X159.254 Y101.175 E.01066
G1 X158.944 Y101.035 E.01066
G1 X158.65 Y100.865 E.01066
G1 X158.374 Y100.666 E.01066
G1 X158.119 Y100.441 E.01066
G1 X157.888 Y100.192 E.01066
G1 X157.682 Y99.921 E.01066
G1 X157.505 Y99.631 E.01066
G1 X157.357 Y99.325 E.01066
G1 X157.241 Y99.005 E.01066
G1 X157.157 Y98.673 E.01075
G1 X157.094 Y98.162 E.01613
G1 X157.094 Y97.83 E.01042
G1 X157.122 Y97.551 E.00878
M204 S1250
G1 X156.862 Y97.28 F9000
G1 X156.717 Y98.185
M204 S800
;TYPE:Perimeter
G1 F1200
G1 X156.785 Y98.743 E.01761
G1 X156.88 Y99.117 E.01209
G1 X157.01 Y99.471 E.01184
G1 X157.173 Y99.812 E.01184
G1 X157.37 Y100.134 E.01184
G1 X157.598 Y100.435 E.01184
G1 X157.855 Y100.712 E.01184
G1 X158.138 Y100.961 E.01184
G1 X158.445 Y101.182 E.01184
G1 X158.772 Y101.371 E.01184
G1 X159.116 Y101.526 E.01184
G1 X159.474 Y101.646 E.01184
G1 X159.766 Y101.713 E.00939
G1 X19.801 Y101.707 E4.38851
G1 X19.168 Y101.629 E.01998
G1 X18.777 Y101.531 E.01264
G1 X18.388 Y101.392 E.01296
G1 X18.014 Y101.215 E.01296
G1 X17.666 Y101.006 E.01273
G1 X17.166 Y100.616 E.01988
G1 X16.879 Y100.329 E.01274
G1 X16.621 Y100.015 E.01273
G1 X16.286 Y99.485 E.01965
G1 X16.032 Y98.912 E.01965
G1 X15.914 Y98.523 E.01273
G1 X15.835 Y98.125 E.01273
G1 X15.787 Y97.476 E.02041
G1 X15.787 Y82.517 E.46903
G1 X15.808 Y82.087 E.01349
M73 P2 R36
G1 X15.868 Y81.685 E.01273
G1 X16.035 Y81.081 E.01965
G1 X16.286 Y80.515 E.01943
G1 X16.621 Y79.985 E.01965
G1 X16.879 Y79.671 E.01273
G1 X17.166 Y79.384 E.01273
G1 X17.66 Y78.998 E.01965
G1 X18.199 Y78.693 E.01943
G1 X18.778 Y78.47 E.01943
G1 X19.382 Y78.334 E.01943
G1 X20.024 Y78.287 E.02018
G1 X160.196 Y78.293 E4.395
G1 X160.829 Y78.371 E.01998
G1 X161.223 Y78.469 E.01273
G1 X161.612 Y78.608 E.01296
G1 X161.986 Y78.785 E.01296
G1 X162.34 Y78.998 E.01296
G1 X162.672 Y79.244 E.01296
G1 X162.978 Y79.522 E.01296
G1 X163.256 Y79.828 E.01296
G1 X163.502 Y80.16 E.01296
G1 X163.715 Y80.514 E.01296
G1 X163.892 Y80.888 E.01296
G1 X164.031 Y81.277 E.01296
G1 X164.131 Y81.678 E.01296
G1 X164.192 Y82.087 E.01296
G1 X164.213 Y82.517 E.01349
G1 X164.213 Y97.25 E.46195
G1 X164.12 Y96.883 E.01186
G1 X163.99 Y96.529 E.01184
G1 X163.827 Y96.188 E.01184
G1 X163.63 Y95.866 E.01184
G1 X163.402 Y95.565 E.01184
G1 X163.145 Y95.288 E.01184
G1 X162.862 Y95.039 E.01184
G1 X162.555 Y94.818 E.01184
G1 X162.228 Y94.629 E.01184
G1 X161.884 Y94.474 E.01184
G1 X161.526 Y94.354 E.01184
G1 X161.158 Y94.27 E.01184
G1 X160.783 Y94.223 E.01184
G1 X160.406 Y94.213 E.01184
G1 X160.029 Y94.242 E.01184
G1 X159.657 Y94.307 E.01184
G1 X159.294 Y94.409 E.01184
G1 X158.942 Y94.547 E.01184
G1 X158.606 Y94.72 E.01184
G1 X158.289 Y94.924 E.01184
G1 X157.994 Y95.16 E.01184
G1 X157.723 Y95.424 E.01184
G1 X157.481 Y95.713 E.01184
G1 X157.268 Y96.025 E.01184
G1 X157.087 Y96.357 E.01184
G1 X156.941 Y96.704 E.01184
G1 X156.829 Y97.065 E.01184
G1 X156.754 Y97.435 E.01184
G1 X156.717 Y97.811 E.01183
G1 X156.717 Y98.125 E.00986
M204 S1250
G1 E-2.24 F4200
;WIPE_START
G1 F7200
G1 X156.785 Y98.743 E-.3443
G1 X156.88 Y99.117 E-.21368
G1 X157.01 Y99.471 E-.20926
G1 X157.123 Y99.707 E-.14476
;WIPE_END
G1 E-.048 F4200
G1 Z.4 F9000
G1 X160.673 Y102.04
G1 Z.2
G1 E3.2 F2400
M204 S800
;TYPE:External perimeter
G1 F1200
G1 X159.99 Y102.09 E.02149
G1 X19.777 Y102.084 E4.39626
G1 X19.099 Y102 E.02144
G1 X18.668 Y101.892 E.01394
G1 X18.244 Y101.74 E.01412
G1 X17.836 Y101.548 E.01412
G1 X17.452 Y101.318 E.01404
G1 X16.916 Y100.899 E.02133
G1 X16.599 Y100.582 E.01404
G1 X16.315 Y100.236 E.01404
G1 X15.953 Y99.663 E.02125
G1 X15.678 Y99.044 E.02125
G1 X15.548 Y98.615 E.01404
G1 X15.46 Y98.176 E.01404
G1 X15.41 Y97.49 E.02157
G1 X15.41 Y82.508 E.46976
G1 X15.432 Y82.05 E.01436
G1 X15.498 Y81.607 E.01404
G1 X15.679 Y80.954 E.02125
G1 X15.953 Y80.337 E.02117
G1 X16.315 Y79.764 E.02125
G1 X16.599 Y79.418 E.01404
G1 X16.916 Y79.101 E.01404
G1 X17.45 Y78.684 E.02125
G1 X18.038 Y78.351 E.02117
G1 X18.668 Y78.108 E.02117
G1 X19.327 Y77.96 E.02117
G1 X20.01 Y77.91 E.02149
G1 X160.219 Y77.916 E4.39616
G1 X160.898 Y77.999 E.02144
M73 P3 R36
G1 X161.332 Y78.108 E.01404
G1 X161.756 Y78.26 E.01412
G1 X162.164 Y78.452 E.01412
G1 X162.55 Y78.684 E.01412
G1 X162.912 Y78.952 E.01412
G1 X163.245 Y79.255 E.01412
G1 X163.548 Y79.588 E.01412
G1 X163.816 Y79.95 E.01412
G1 X164.048 Y80.336 E.01412
G1 X164.24 Y80.744 E.01412
G1 X164.392 Y81.168 E.01412
G1 X164.502 Y81.605 E.01412
G1 X164.568 Y82.05 E.01412
G1 X164.59 Y82.508 E.01436
G1 X164.59 Y97.492 E.46984
G1 X164.568 Y97.95 E.01436
G1 X164.502 Y98.393 E.01404
G1 X164.321 Y99.046 E.02125
G1 X164.047 Y99.663 E.02117
G1 X163.685 Y100.236 E.02125
G1 X163.401 Y100.582 E.01404
G1 X163.086 Y100.897 E.01394
G1 X162.55 Y101.316 E.02135
G1 X161.962 Y101.649 E.02117
G1 X161.332 Y101.892 E.02117
G1 X160.732 Y102.027 E.01929
M204 S1250
G1 X160.425 Y101.726 F9000
G1 X160.627 Y101.725
M204 S800
;TYPE:Gap fill
;WIDTH:0.301077
G1 F1200
G1 X160.955 Y101.676 E.00713
M204 S1250
M204 S800
;WIDTH:0.252579
G1 X160.966 Y101.674 E.00018
M204 S1250
M204 S800
;WIDTH:0.251573
G1 X161.249 Y101.617 E.00501
M204 S1250
M204 S800
;WIDTH:0.238186
G1 X161.317 Y101.598 E.00114
M204 S1250
M204 S800
;WIDTH:0.224603
G1 X161.325 Y101.596 E.00014
M204 S1250
M204 S800
;WIDTH:0.223302
G1 X161.666 Y101.482 E.00539
M204 S1250
M204 S800
;WIDTH:0.18959
G1 X161.673 Y101.48 E.00009
M204 S1250
M204 S800
;WIDTH:0.190375
G1 X161.85 Y101.411 E.00233
M204 S1250
M204 S800
;WIDTH:0.190377
G1 X162.003 Y101.338 E.00208
M204 S1250
M204 S800
;WIDTH:0.166421
G1 X162.008 Y101.335 E.00006
M204 S1250
M204 S800
;WIDTH:0.165857
G1 X162.324 Y101.165 E.00367
M204 S1250
M204 S800
;WIDTH:0.150934
G1 X162.329 Y101.162 E.00005
M204 S1250
M204 S800
;WIDTH:0.15664
G1 X162.413 Y101.111 E.00093
M204 S1250
M204 S800
;WIDTH:0.156638
G1 X162.625 Y100.96 E.00247
M204 S1250
M204 S800
;WIDTH:0.133262
G1 X162.629 Y100.957 E.00003
M204 S1250
M204 S800
;WIDTH:0.136693
G1 X162.911 Y100.735 E.0028
M204 S1250
M204 S800
;WIDTH:0.136975
G1 X162.914 Y100.732 E.00004
M204 S1250
M204 S800
;WIDTH:0.139157
G1 X162.929 Y100.719 E.00016
M204 S1250
M204 S800
;WIDTH:0.139156
G1 X163.17 Y100.481 E.00271
M204 S1250
M204 S800
;WIDTH:0.135039
G1 X163.174 Y100.478 E.00004
M204 S1250
M204 S800
;WIDTH:0.141567
G1 X163.224 Y100.422 E.00061
M204 S1250
M204 S800
;WIDTH:0.141567
G1 X163.406 Y100.204 E.00233
M204 S1250
M204 S800
;WIDTH:0.138662
G1 X163.409 Y100.2 E.00004
M204 S1250
M204 S800
;WIDTH:0.150454
G1 X163.488 Y100.094 E.00119
M204 S1250
M204 S800
;WIDTH:0.150452
G1 X163.612 Y99.905 E.00202
M204 S1250
M204 S800
;WIDTH:0.14287
G1 X163.615 Y99.901 E.00004
M204 S1250
M204 S800
;WIDTH:0.166488
G1 X163.797 Y99.591 E.00369
M204 S1250
M204 S800
;WIDTH:0.167204
G1 X163.8 Y99.586 E.00006
M204 S1250
M204 S800
;WIDTH:0.175172
G1 X163.822 Y99.543 E.00053
M204 S1250
M204 S800
;WIDTH:0.180866
G1 X163.946 Y99.258 E.00356
M204 S1250
M204 S800
;WIDTH:0.181336
G1 X163.948 Y99.251 E.00008
M204 S1250
M204 S800
;WIDTH:0.218967
G1 X164.06 Y98.953 E.00467
M204 S1250
M204 S800
;WIDTH:0.218967
G1 X164.071 Y98.914 E.00059
M204 S1250
M204 S800
;WIDTH:0.217966
G1 X164.074 Y98.905 E.00013
M204 S1250
M204 S800
;WIDTH:0.243273
G1 X164.157 Y98.556 E.00598
M204 S1250
M204 S800
;WIDTH:0.244481
G1 X164.159 Y98.546 E.00017
M204 S1250
M204 S800
;WIDTH:0.282113
G1 X164.2 Y98.329 E.0044
M204 S1250
M204 S800
;WIDTH:0.288675
G1 X164.217 Y98.192 E.00282
M204 S1250
M204 S800
;WIDTH:0.289857
G1 X164.218 Y98.18 E.00025
M204 S1250
M204 S800
;WIDTH:0.328337
G1 X164.238 Y97.917 E.00624
M204 S1250
M204 S800
;WIDTH:0.332727
G1 X164.24 Y97.826 E.0022
M204 S1250
M204 S800
;WIDTH:0.334703
G1 X164.24 Y97.808 E.00044
M204 S1250
M204 S800
;WIDTH:0.369998
G1 X164.226 Y97.438 E.01007
M204 S1250
G1 E-2.24 F4200
;WIPE_START
G1 F7200
G1 X164.24 Y97.808 E-.20511
;WIPE_END
G1 E-.75489 F4200
G1 Z.4 F9000
G1 X160.627 Y101.725
G1 Z.2
G1 E3.2 F2400
M204 S800
;WIDTH:0.301076
G1 F1200
G1 X160.599 Y101.727 E.00059
M204 S1250
M204 S800
;WIDTH:0.301665
G1 X160.587 Y101.727 E.00028
M204 S1250
M204 S800
;WIDTH:0.337006
G1 X160.227 Y101.736 E.00878
M204 S1250
M204 S800
;WIDTH:0.339192
G1 X160.213 Y101.736 E.00036
M204 S1250
M204 S800
;WIDTH:0.359014
G1 X159.954 Y101.729 E.0068
M204 S1250
G1 X158.59 Y101.51 F9000
M204 S800
;WIDTH:0.243088
G1 F1200
G1 X158.288 Y101.424 E.00523
M204 S1250
M204 S800
;WIDTH:0.243088
G1 X158.234 Y101.266 E.00279
M204 S1250
G1 E-2.24 F4200
;WIPE_START
G1 F7200
G1 X158.288 Y101.424 E-.0928
;WIPE_END
G1 E-.8672 F4200
G1 Z.4 F9000
G1 X161.955 Y78.899
G1 Z.2
G1 E3.2 F2400
M204 S800
;TYPE:Solid infill
;WIDTH:0.420587
G1 F1200
G1 X162.78 Y79.724 E.03663
G1 X163.037 Y80.007 E.01203
G1 X163.267 Y80.317 E.01211
G1 X163.465 Y80.648 E.01211
G1 X163.692 Y81.17 E.01787
G1 X161.33 Y78.808 E.10489
G1 X161.141 Y78.74 E.00633
G1 X160.777 Y78.649 E.01177
G1 X160.618 Y78.63 E.00505
G1 X163.877 Y81.888 E.14473
G1 X163.91 Y82.115 E.00719
G1 X163.928 Y82.474 E.01128
G1 X160.03 Y78.576 E.17312
G1 X159.495 Y78.576 E.01677
G1 X163.93 Y83.01 E.19695
G1 X163.93 Y83.544 E.01677
G1 X158.961 Y78.576 E.22067
G1 X158.427 Y78.576 E.01677
G1 X163.93 Y84.078 E.24439
G1 X163.93 Y84.613 E.01677
G1 X157.893 Y78.576 E.26811
G1 X157.359 Y78.576 E.01677
G1 X163.93 Y85.147 E.29183
G1 X163.93 Y85.681 E.01677
G1 X156.825 Y78.575 E.31555
G1 X156.291 Y78.575 E.01677
G1 X163.93 Y86.215 E.33927
G1 X163.93 Y86.749 E.01677
G1 X155.757 Y78.575 E.36299
G1 X155.222 Y78.575 E.01677
G1 X163.93 Y87.283 E.38671
G1 X163.93 Y87.817 E.01677
G1 X154.688 Y78.575 E.41043
G1 X154.154 Y78.575 E.01677
G1 X163.93 Y88.351 E.43415
G1 X163.93 Y88.885 E.01677
G1 X153.62 Y78.575 E.45787
G1 X153.086 Y78.575 E.01677
G1 X163.93 Y89.419 E.4816
G1 X163.93 Y89.954 E.01677
G1 X152.552 Y78.575 E.50532
G1 X152.018 Y78.575 E.01677
G1 X163.93 Y90.488 E.52904
G1 X163.93 Y91.022 E.01677
M73 P3 R35
G1 X151.484 Y78.575 E.55276
G1 X150.95 Y78.575 E.01677
G1 X163.93 Y91.556 E.57648
G1 X163.93 Y92.09 E.01677
G1 X150.415 Y78.575 E.6002
G1 X149.881 Y78.575 E.01677
G1 X163.93 Y92.624 E.62392
G1 X163.93 Y93.158 E.01677
G1 X149.347 Y78.575 E.64764
G1 X148.813 Y78.575 E.01677
G1 X163.93 Y93.692 E.67136
G1 X163.93 Y94.226 E.01677
G1 X148.279 Y78.575 E.69508
G1 X147.745 Y78.575 E.01677
M73 P4 R35
G1 X163.93 Y94.76 E.7188
G1 X163.93 Y95.295 E.01677
G1 X147.211 Y78.575 E.74252
G1 X146.677 Y78.575 E.01677
G1 X162.645 Y94.543 E.70916
G1 X162.357 Y94.377 E.01042
G1 X161.987 Y94.21 E.01274
G1 X161.672 Y94.104 E.01046
G1 X146.142 Y78.575 E.68967
G1 X145.608 Y78.575 E.01677
G1 X160.998 Y93.965 E.68346
G1 X160.804 Y93.94 E.00613
G1 X160.43 Y93.931 E.01175
G1 X145.074 Y78.575 E.68197
G1 X144.54 Y78.575 E.01677
G1 X159.936 Y93.971 E.68374
G1 X159.491 Y94.06 E.01425
G1 X144.006 Y78.575 E.6877
G1 X143.472 Y78.575 E.01677
G1 X159.084 Y94.188 E.69337
G1 X158.711 Y94.348 E.01277
G1 X142.938 Y78.575 E.7005
G1 X142.404 Y78.575 E.01677
G1 X158.366 Y94.538 E.70892
G1 X158.049 Y94.754 E.01207
G1 X141.869 Y78.575 E.71854
G1 X141.335 Y78.575 E.01677
G1 X157.757 Y94.996 E.72928
G1 X157.489 Y95.263 E.01186
G1 X140.801 Y78.575 E.74112
G1 X140.267 Y78.575 E.01677
G1 X157.246 Y95.554 E.75407
G1 X157.03 Y95.872 E.01207
G1 X139.733 Y78.575 E.76817
G1 X139.199 Y78.575 E.01677
G1 X156.841 Y96.217 E.78351
G1 X156.681 Y96.591 E.01278
G1 X138.665 Y78.575 E.80013
G1 X138.131 Y78.575 E.01677
G1 X156.554 Y96.998 E.81821
G1 X156.469 Y97.447 E.01435
M73 P5 R35
G1 X137.596 Y78.575 E.83815
G1 X137.062 Y78.575 E.01677
G1 X156.434 Y97.946 E.86031
G1 X156.434 Y98.203 E.00805
G1 X156.473 Y98.519 E.01002
G1 X136.528 Y78.575 E.88575
G1 X135.994 Y78.575 E.01677
G1 X156.607 Y99.187 E.91542
G1 X156.749 Y99.581 E.01316
G1 X156.925 Y99.947 E.01275
G1 X157.07 Y100.185 E.00875
G1 X135.46 Y78.575 E.95972
G1 X134.926 Y78.575 E.01677
G1 X157.781 Y101.43 E1.01503
G1 X157.247 Y101.43 E.01677
G1 X134.392 Y78.575 E1.01503
G1 X133.858 Y78.575 E.01677
G1 X156.713 Y101.43 E1.01503
G1 X156.179 Y101.43 E.01677
G1 X133.323 Y78.575 E1.01503
G1 X132.789 Y78.575 E.01677
G1 X155.645 Y101.43 E1.01503
G1 X155.111 Y101.43 E.01677
G1 X132.255 Y78.574 E1.01503
G1 X131.721 Y78.574 E.01677
G1 X154.576 Y101.43 E1.01503
