; generated by PrusaSlicer 2.6.1 on 2023-10-14 at 19:57:18 UTC


;
;

;
;
; 

; external perimeters extrusion width = 0.45mm
; perimeters extrusion width = 0.45mm
; infill extrusion width = 0.45mm
; solid infill extrusion width = 0.45mm
; top infill extrusion width = 0.40mm
; first layer extrusion width = 0.42mm

M73 P0 R16
;TYPE:Custom
G90 ; use absolute coordinates
M83 ; extruder relative mode
M104 S170 ; set extruder temp for bed leveling
M140 S75 ; set bed temp
M109 R170 ; wait for bed leveling temp
M190 S75 ; wait for bed temp
G28 ; home all without mesh bed level
G29 ; mesh bed leveling 
M104 S215 ; set extruder temp
G92 E0.0
G1 Y-2.0 X179 F2400
G1 Z3 F720
M109 S215 ; wait for extruder temp

; intro line
G1 X170 F1000
G1 Z0.2 F720
G1 X110.0 E8.0 F900
G1 X40.0 E10.0 F700
G92 E0.0

M221 S95 ; set flow
G21 ; set units to millimeters
G90 ; use absolute coordinates
M83 ; use relative distances for extrusion
M900 K0.2 ; Filament gcode LA 1.5
; ; Filament gcode LA 1.0
M107
;LAYER_CHANGE
;Z:0.2
;HEIGHT:0.2
;BEFORE_LAYER_CHANGE
G92 E0.0
;0.2


G1 E-3.2 F4200
M73 P1 R16
G1 Z.2 F9000
;AFTER_LAYER_CHANGE
;0.2
G1 Z.4
G1 X79.316 Y79.592
G1 Z.2
G1 E3.2 F2400
M204 S800
;TYPE:Skirt/Brim
;WIDTH:0.42
G1 F1200
G1 X80.384 Y78.599 E.04572
G1 X81.5 Y77.745 E.04406
G1 X82.708 Y76.989 E.04468
G1 X83.951 Y76.366 E.04359
G1 X85.255 Y75.859 E.04387
G1 X86.611 Y75.475 E.04419
G1 X87.974 Y75.223 E.04346
G1 X89.371 Y75.098 E.04398
G1 X90.76 Y75.104 E.04355
G1 X92.238 Y75.254 E.04658
G1 X93.693 Y75.549 E.04655
G1 X95.113 Y75.989 E.04661
G1 X96.483 Y76.567 E.04662
G1 X97.788 Y77.279 E.04661
G1 X99.016 Y78.118 E.04663
G1 X100.154 Y79.075 E.04662
G1 X101.191 Y80.14 E.04661
G1 X102.117 Y81.303 E.04661
G1 X102.923 Y82.553 E.04663
G1 X103.6 Y83.876 E.0466
G1 X104.142 Y85.26 E.0466
G1 X104.544 Y86.691 E.0466
G1 X104.801 Y88.155 E.0466
G1 X104.91 Y89.619 E.04603
G1 X104.874 Y91.106 E.04664
G1 X104.69 Y92.581 E.04661
G1 X104.36 Y94.031 E.04663
G1 X103.888 Y95.44 E.04659
G1 X103.289 Y96.771 E.04576
G1 X102.593 Y97.991 E.04404
G1 X101.773 Y99.157 E.04469
G1 X100.869 Y100.214 E.04361
G1 X99.862 Y101.19 E.04397
G1 X98.735 Y102.09 E.04522
G1 X97.523 Y102.879 E.04534
G1 X96.241 Y103.547 E.04533
G1 X94.92 Y104.08 E.04466
G1 X93.536 Y104.49 E.04526
G1 X92.116 Y104.764 E.04534
G1 X90.678 Y104.9 E.04529
G1 X89.252 Y104.897 E.04471
G1 X87.784 Y104.75 E.04626
G1 X86.328 Y104.456 E.04657
G1 X84.907 Y104.019 E.04661
G1 X83.537 Y103.442 E.04661
G1 X82.231 Y102.732 E.04661
G1 X81.001 Y101.895 E.04665
G1 X79.862 Y100.94 E.0466
M73 P2 R16
G1 X78.823 Y99.876 E.04663
G1 X77.895 Y98.714 E.04663
G1 X77.088 Y97.466 E.0466
G1 X76.408 Y96.143 E.04664
G1 X75.864 Y94.759 E.04663
G1 X75.461 Y93.328 E.04661
G1 X75.202 Y91.864 E.04662
G1 X75.09 Y90.381 E.04663
G1 X75.126 Y88.894 E.04664
G1 X75.31 Y87.419 E.04661
G1 X75.64 Y85.969 E.04663
G1 X76.112 Y84.559 E.04662
G1 X76.723 Y83.204 E.0466
G1 X77.466 Y81.915 E.04665
G1 X78.333 Y80.708 E.0466
G1 X79.276 Y79.637 E.04474
M204 S1250
G1 X79.559 Y79.887 F9000
M204 S800
G1 F1200
G1 X80.634 Y78.882 E.04614
G1 X81.722 Y78.05 E.04294
G1 X82.9 Y77.313 E.04357
G1 X84.112 Y76.707 E.04249
G1 X85.383 Y76.214 E.04274
G1 X86.705 Y75.84 E.04308
G1 X88.034 Y75.595 E.04237
G1 X89.395 Y75.474 E.04284
G1 X90.749 Y75.481 E.04245
G1 X92.19 Y75.628 E.04542
G1 X93.608 Y75.917 E.04537
G1 X94.992 Y76.346 E.04543
G1 X96.327 Y76.911 E.04545
G1 X97.599 Y77.606 E.04545
G1 X98.795 Y78.424 E.04543
G1 X99.904 Y79.357 E.04544
G1 X100.914 Y80.396 E.04543
G1 X101.816 Y81.53 E.04543
G1 X102.601 Y82.749 E.04546
G1 X103.26 Y84.039 E.04542
G1 X103.788 Y85.389 E.04545
G1 X104.178 Y86.784 E.04542
G1 X104.428 Y88.211 E.04542
G1 X104.534 Y89.638 E.04487
G1 X104.498 Y91.087 E.04545
G1 X104.317 Y92.525 E.04544
G1 X103.995 Y93.938 E.04544
G1 X103.533 Y95.311 E.04542
G1 X102.949 Y96.607 E.04457
G1 X102.27 Y97.796 E.04293
G1 X101.47 Y98.933 E.04359
G1 X100.589 Y99.962 E.04247
G1 X99.606 Y100.913 E.04288
G1 X98.507 Y101.789 E.04407
G1 X97.325 Y102.558 E.04421
G1 X96.075 Y103.208 E.04418
G1 X94.788 Y103.727 E.04351
G1 X93.438 Y104.126 E.04414
G1 X92.054 Y104.392 E.04419
G1 X90.652 Y104.524 E.04415
G1 X89.263 Y104.52 E.04355
G1 X87.832 Y104.376 E.04509
G1 X86.412 Y104.089 E.04542
G1 X85.028 Y103.661 E.04542
G1 X83.692 Y103.098 E.04546
G1 X82.419 Y102.405 E.04545
G1 X81.222 Y101.589 E.04542
G1 X80.111 Y100.657 E.04547
G1 X79.099 Y99.62 E.04543
G1 X78.196 Y98.487 E.04543
G1 X77.409 Y97.269 E.04547
G1 X76.748 Y95.979 E.04545
G1 X76.219 Y94.63 E.04543
G1 X75.826 Y93.235 E.04544
G1 X75.575 Y91.808 E.04543
G1 X75.466 Y90.362 E.04547
G1 X75.502 Y88.913 E.04545
G1 X75.683 Y87.475 E.04544
G1 X76.005 Y86.062 E.04544
G1 X76.467 Y84.689 E.04542
G1 X77.063 Y83.367 E.04547
G1 X77.788 Y82.112 E.04544
G1 X78.634 Y80.935 E.04545
G1 X79.519 Y79.932 E.04194
M204 S1250
G1 X79.802 Y80.182 F9000
M204 S800
G1 F1200
G1 X80.884 Y79.164 E.04658
G1 X81.944 Y78.355 E.04181
G1 X83.092 Y77.638 E.04244
G1 X84.273 Y77.049 E.04138
G1 X85.511 Y76.569 E.04163
G1 X86.799 Y76.205 E.04197
G1 X88.093 Y75.968 E.04125
G1 X89.419 Y75.851 E.04174
G1 X90.738 Y75.858 E.04136
G1 X92.143 Y76.002 E.04428
G1 X93.524 Y76.284 E.04419
G1 X94.871 Y76.703 E.04423
G1 X96.171 Y77.254 E.04427
G1 X97.41 Y77.932 E.04428
G1 X98.574 Y78.73 E.04425
G1 X99.654 Y79.639 E.04426
G1 X100.637 Y80.652 E.04426
G1 X101.515 Y81.757 E.04425
G1 X102.279 Y82.945 E.04429
G1 X102.92 Y84.202 E.04424
G1 X103.433 Y85.517 E.04426
G1 X103.808 Y86.858 E.04366
G1 X104.052 Y88.248 E.04425
G1 X104.157 Y89.656 E.04427
G1 X104.121 Y91.067 E.04426
G1 X103.944 Y92.468 E.04428
G1 X103.629 Y93.844 E.04426
G1 X103.179 Y95.182 E.04426
G1 X102.609 Y96.444 E.04342
G1 X101.947 Y97.601 E.0418
G1 X101.167 Y98.708 E.04246
G1 X100.308 Y99.71 E.04138
G1 X99.351 Y100.635 E.04173
G1 X98.279 Y101.489 E.04297
G1 X97.128 Y102.237 E.04304
G1 X95.909 Y102.869 E.04305
G1 X94.656 Y103.374 E.04236
G1 X93.34 Y103.762 E.04302
G1 X91.992 Y104.02 E.04303
G1 X90.627 Y104.147 E.04298
G1 X89.273 Y104.143 E.04245
G1 X87.879 Y104.001 E.04393
G1 X86.497 Y103.721 E.04421
G1 X85.148 Y103.304 E.04427
G1 X83.847 Y102.755 E.04428
G1 X82.608 Y102.079 E.04425
G1 X81.442 Y101.283 E.04427
G1 X80.361 Y100.375 E.04426
G1 X79.376 Y99.363 E.04428
G1 X78.497 Y98.259 E.04425
G1 X77.731 Y97.073 E.04427
G1 X77.088 Y95.816 E.04427
G1 X76.573 Y94.501 E.04428
G1 X76.192 Y93.142 E.04425
G1 X75.948 Y91.752 E.04425
G1 X75.843 Y90.344 E.04427
G1 X75.879 Y88.933 E.04426
G1 X76.056 Y87.532 E.04428
G1 X76.371 Y86.156 E.04426
M73 P3 R16
G1 X76.821 Y84.818 E.04426
G1 X77.403 Y83.531 E.04429
G1 X78.109 Y82.309 E.04425
G1 X78.934 Y81.164 E.04425
G1 X79.762 Y80.227 E.03921
M204 S1250
G1 X80.044 Y80.476 F9000
M204 S800
G1 F1200
G1 X80.145 Y80.363 E.00475
G1 X81.133 Y79.447 E.04224
G1 X82.165 Y78.66 E.04069
G1 X83.284 Y77.963 E.04134
G1 X84.433 Y77.39 E.04026
G1 X85.639 Y76.924 E.04054
G1 X86.893 Y76.571 E.04085
G1 X88.152 Y76.34 E.04013
G1 X89.443 Y76.227 E.04063
G1 X90.727 Y76.235 E.04026
G1 X92.094 Y76.376 E.04309
G1 X93.439 Y76.652 E.04305
G1 X94.75 Y77.06 E.04305
G1 X96.015 Y77.598 E.0431
G1 X97.22 Y78.258 E.04308
G1 X98.353 Y79.035 E.04308
G1 X99.403 Y79.921 E.04308
G1 X100.36 Y80.907 E.04308
G1 X101.214 Y81.984 E.0431
G1 X101.956 Y83.14 E.04307
G1 X102.579 Y84.365 E.04309
G1 X103.078 Y85.645 E.04308
G1 X103.442 Y86.95 E.04248
G1 X103.679 Y88.304 E.0431
G1 X103.78 Y89.674 E.04307
G1 X103.744 Y91.048 E.0431
G1 X103.572 Y92.411 E.04307
G1 X103.264 Y93.751 E.04311
G1 X102.825 Y95.052 E.04305
G1 X102.269 Y96.28 E.04227
G1 X101.624 Y97.406 E.04069
G1 X100.864 Y98.483 E.04133
G1 X100.028 Y99.457 E.04025
G1 X99.095 Y100.357 E.04065
G1 X98.052 Y101.188 E.04181
G1 X96.93 Y101.915 E.04192
G1 X95.744 Y102.53 E.04189
G1 X94.523 Y103.021 E.04126
G1 X93.243 Y103.397 E.04183
G1 X91.93 Y103.648 E.04191
G1 X90.601 Y103.771 E.04185
G1 X89.284 Y103.766 E.04129
G1 X87.927 Y103.627 E.04277
G1 X86.581 Y103.353 E.04307
G1 X85.269 Y102.947 E.04306
G1 X84.003 Y102.411 E.04311
G1 X82.797 Y101.753 E.04308
G1 X81.663 Y100.977 E.04308
G1 X80.611 Y100.092 E.0431
G1 X79.653 Y99.107 E.04308
G1 X78.798 Y98.032 E.04307
G1 X78.054 Y96.877 E.04308
G1 X77.428 Y95.653 E.04311
G1 X76.928 Y94.373 E.04309
G1 X76.558 Y93.05 E.04307
G1 X76.321 Y91.696 E.0431
G1 X76.22 Y90.326 E.04307
G1 X76.256 Y88.952 E.0431
G1 X76.428 Y87.589 E.04307
G1 X76.736 Y86.249 E.04311
G1 X77.175 Y84.947 E.04308
G1 X77.742 Y83.696 E.04306
G1 X78.431 Y82.506 E.04311
G1 X79.234 Y81.392 E.04306
G1 X80.005 Y80.521 E.03647
M204 S1250
G1 X80.287 Y80.771 F9000
M204 S800
G1 F1200
G1 X80.421 Y80.62 E.00633
G1 X81.383 Y79.73 E.04109
G1 X82.387 Y78.966 E.03956
G1 X83.476 Y78.288 E.04022
G1 X84.593 Y77.732 E.03912
G1 X85.766 Y77.279 E.03943
G1 X86.986 Y76.936 E.03974
G1 X88.211 Y76.713 E.03904
G1 X89.467 Y76.604 E.03953
G1 X90.715 Y76.612 E.03913
G1 X92.046 Y76.75 E.04196
M73 P3 R15
G1 X93.353 Y77.019 E.04184
G1 X94.629 Y77.417 E.04191
G1 X95.859 Y77.941 E.04192
G1 X97.03 Y78.584 E.04189
G1 X98.132 Y79.341 E.04192
G1 X99.152 Y80.203 E.04187
G1 X100.082 Y81.163 E.04191
G1 X100.912 Y82.211 E.04192
G1 X101.633 Y83.336 E.0419
G1 X102.239 Y84.527 E.0419
G1 X102.723 Y85.773 E.04191
G1 X103.077 Y87.042 E.04131
G1 X103.306 Y88.359 E.04191
G1 X103.403 Y89.692 E.04191
G1 X103.368 Y91.028 E.0419
G1 X103.199 Y92.354 E.04191
G1 X102.899 Y93.657 E.04192
G1 X102.471 Y94.922 E.04187
G1 X101.93 Y96.116 E.0411
G1 X101.302 Y97.211 E.03958
G1 X100.562 Y98.258 E.0402
G1 X99.748 Y99.205 E.03915
G1 X98.84 Y100.08 E.03954
G1 X97.825 Y100.887 E.04066
G1 X96.733 Y101.594 E.04079
G1 X95.579 Y102.191 E.04074
G1 X94.392 Y102.667 E.0401
G1 X93.146 Y103.033 E.04072
G1 X91.869 Y103.276 E.04076
G1 X90.576 Y103.395 E.04071
G1 X89.295 Y103.389 E.04017
G1 X87.975 Y103.253 E.04161
G1 X86.666 Y102.986 E.04189
G1 X85.39 Y102.589 E.0419
G1 X84.159 Y102.068 E.04191
G1 X82.987 Y101.426 E.0419
G1 X81.884 Y100.671 E.04191
G1 X80.862 Y99.81 E.0419
G1 X79.93 Y98.851 E.04193
G1 X79.099 Y97.805 E.04189
G1 X78.376 Y96.681 E.0419
G1 X77.769 Y95.49 E.04191
G1 X77.283 Y94.245 E.0419
G1 X76.923 Y92.958 E.0419
G1 X76.694 Y91.641 E.04191
G1 X76.597 Y90.308 E.04191
G1 X76.632 Y88.972 E.0419
G1 X76.801 Y87.646 E.04191
G1 X77.101 Y86.343 E.04192
G1 X77.529 Y85.077 E.0419
G1 X78.082 Y83.86 E.04191
G1 X78.752 Y82.704 E.04189
G1 X79.534 Y81.62 E.04191
G1 X80.247 Y80.816 E.03369
M204 S1250
G1 X80.529 Y81.066 F9000
M204 S800
G1 F1200
G1 X80.696 Y80.877 E.00791
G1 X81.632 Y80.013 E.03994
G1 X82.608 Y79.271 E.03844
G1 X83.667 Y78.613 E.03909
G1 X84.752 Y78.073 E.038
G1 X85.893 Y77.634 E.03833
G1 X87.079 Y77.302 E.03862
G1 X88.269 Y77.085 E.03793
G1 X89.491 Y76.98 E.03846
G1 X90.703 Y76.989 E.038
G1 X91.997 Y77.124 E.04079
G1 X93.268 Y77.386 E.04069
G1 X94.507 Y77.774 E.04071
G1 X95.702 Y78.284 E.04074
G1 X96.84 Y78.91 E.04072
G1 X97.91 Y79.646 E.04072
G1 X98.902 Y80.485 E.04074
M73 P4 R15
G1 X99.805 Y81.418 E.04071
G1 X100.61 Y82.437 E.04072
G1 X101.311 Y83.531 E.04074
G1 X101.891 Y84.673 E.04016
G1 X102.362 Y85.883 E.04071
G1 X102.711 Y87.134 E.04072
G1 X102.933 Y88.414 E.04073
G1 X103.027 Y89.71 E.04074
G1 X102.991 Y91.008 E.04071
G1 X102.826 Y92.297 E.04075
G1 X102.533 Y93.562 E.04071
G1 X102.117 Y94.792 E.04071
G1 X101.59 Y95.952 E.03995
G1 X100.979 Y97.015 E.03844
G1 X100.259 Y98.033 E.0391
G1 X99.468 Y98.952 E.03802
G1 X98.585 Y99.802 E.03843
G1 X97.597 Y100.586 E.03955
G1 X96.536 Y101.272 E.03961
G1 X95.414 Y101.852 E.0396
G1 X94.26 Y102.314 E.03897
G1 X93.049 Y102.668 E.03956
G1 X91.807 Y102.904 E.03964
G1 X90.551 Y103.018 E.03954
G1 X89.307 Y103.012 E.03901
G1 X88.023 Y102.879 E.04047
G1 X86.751 Y102.618 E.04071
G1 X85.511 Y102.232 E.04072
G1 X84.315 Y101.724 E.04074
G1 X83.176 Y101.1 E.04072
G1 X82.105 Y100.366 E.04071
G1 X81.112 Y99.528 E.04074
G1 X80.207 Y98.596 E.04073
G1 X79.4 Y97.578 E.04073
G1 X78.698 Y96.485 E.04073
G1 X78.109 Y95.327 E.04074
G1 X77.638 Y94.117 E.04071
G1 X77.289 Y92.866 E.04072
G1 X77.067 Y91.586 E.04073
G1 X76.973 Y90.29 E.04074
G1 X77.009 Y88.992 E.04071
G1 X77.174 Y87.703 E.04075
G1 X77.467 Y86.438 E.04071
G1 X77.884 Y85.207 E.04075
G1 X78.421 Y84.025 E.04071
G1 X79.073 Y82.902 E.04072
G1 X79.834 Y81.849 E.04074
G1 X80.489 Y81.111 E.03094
M204 S1250
G1 X80.771 Y81.361 F9000
M204 S800
G1 F1200
G1 X80.972 Y81.135 E.00948
G1 X81.881 Y80.297 E.03876
G1 X82.829 Y79.577 E.03732
G1 X83.858 Y78.938 E.03798
G1 X84.912 Y78.415 E.03689
G1 X86.02 Y77.989 E.03722
G1 X87.172 Y77.667 E.0375
G1 X88.328 Y77.458 E.03683
G1 X89.514 Y77.357 E.03732
G1 X90.691 Y77.366 E.03691
G1 X91.948 Y77.498 E.03963
G1 X93.182 Y77.754 E.03952
G1 X94.385 Y78.131 E.03953
G1 X95.545 Y78.627 E.03956
G1 X96.65 Y79.235 E.03954
G1 X97.689 Y79.951 E.03956
G1 X98.637 Y80.754 E.03895
G1 X99.515 Y81.66 E.03956
G1 X100.298 Y82.649 E.03955
G1 X100.979 Y83.711 E.03956
G1 X101.551 Y84.835 E.03954
G1 X102.007 Y86.011 E.03955
G1 X102.345 Y87.226 E.03954
G1 X102.56 Y88.469 E.03955
G1 X102.65 Y89.727 E.03954
G1 X102.614 Y90.988 E.03955
G1 X102.453 Y92.239 E.03955
G1 X102.168 Y93.468 E.03956
G1 X101.763 Y94.662 E.03953
G1 X101.251 Y95.788 E.03878
G1 X100.657 Y96.819 E.03731
G1 X99.957 Y97.808 E.03799
G1 X99.188 Y98.699 E.0369
G1 X98.331 Y99.524 E.0373
G1 X97.37 Y100.284 E.03842
G1 X96.339 Y100.95 E.03848
G1 X95.249 Y101.513 E.03847
G1 X94.129 Y101.96 E.03781
G1 X92.952 Y102.304 E.03845
G1 X91.746 Y102.532 E.03848
G1 X90.526 Y102.642 E.03841
G1 X89.318 Y102.635 E.03788
G1 X88.071 Y102.505 E.03931
G1 X86.836 Y102.251 E.03953
G1 X85.632 Y101.875 E.03955
G1 X84.472 Y101.381 E.03953
G1 X83.366 Y100.774 E.03956
G1 X82.326 Y100.06 E.03955
G1 X81.363 Y99.246 E.03954
G1 X80.485 Y98.34 E.03956
G1 X79.702 Y97.351 E.03955
G1 X79.021 Y96.289 E.03956
G1 X78.449 Y95.165 E.03954
G1 X77.992 Y93.989 E.03956
G1 X77.655 Y92.774 E.03953
G1 X77.44 Y91.531 E.03955
G1 X77.35 Y90.273 E.03954
G1 X77.386 Y89.012 E.03955
G1 X77.547 Y87.761 E.03955
G1 X77.832 Y86.532 E.03956
G1 X78.237 Y85.338 E.03953
G1 X78.76 Y84.19 E.03955
G1 X79.395 Y83.099 E.03958
G1 X80.134 Y82.078 E.03952
G1 X80.731 Y81.406 E.02818
M204 S1250
G1 X81.012 Y81.657 F9000
M204 S800
G1 F1200
G1 X81.247 Y81.393 E.01108
G1 X82.13 Y80.58 E.03763
G1 X83.049 Y79.883 E.03616
G1 X84.049 Y79.263 E.03689
G1 X85.071 Y78.757 E.03576
G1 X86.146 Y78.345 E.0361
G1 X87.265 Y78.033 E.03642
G1 X88.386 Y77.831 E.03571
G1 X89.537 Y77.733 E.03622
G1 X90.678 Y77.743 E.03578
G1 X91.881 Y77.869 E.03793
G1 X93.078 Y78.116 E.03832
G1 X94.246 Y78.482 E.03838
G1 X95.372 Y78.962 E.03838
G1 X96.444 Y79.552 E.03837
G1 X97.452 Y80.245 E.03835
G1 X98.387 Y81.036 E.0384
G1 X99.237 Y81.915 E.03834
G1 X99.997 Y82.875 E.03839
G1 X100.656 Y83.906 E.03837
G1 X101.21 Y84.997 E.03837
G1 X101.652 Y86.138 E.03837
G1 X101.979 Y87.318 E.03839
G1 X102.187 Y88.524 E.03837
G1 X102.273 Y89.744 E.03835
G1 X102.238 Y90.968 E.03839
G1 X102.08 Y92.181 E.03835
G1 X101.803 Y93.373 E.03837
G1 X101.409 Y94.532 E.03838
G1 X100.911 Y95.623 E.0376
G1 X100.335 Y96.623 E.03618
G1 X99.654 Y97.582 E.03688
G1 X98.909 Y98.446 E.03577
G1 X98.076 Y99.245 E.03619
G1 X97.144 Y99.983 E.03727
G1 X96.143 Y100.628 E.03734
G1 X95.085 Y101.173 E.03732
G1 X93.998 Y101.607 E.0367
G1 X92.856 Y101.939 E.03729
G1 X91.686 Y102.159 E.03733
G1 X90.502 Y102.266 E.03727
G1 X89.33 Y102.258 E.03675
G1 X88.12 Y102.131 E.03815
G1 X86.922 Y101.884 E.03835
G1 X85.754 Y101.518 E.03838
G1 X84.628 Y101.038 E.03838
G1 X83.556 Y100.448 E.03837
G1 X82.548 Y99.755 E.03835
M73 P5 R15
G1 X81.613 Y98.964 E.0384
G1 X80.763 Y98.085 E.03834
G1 X80.004 Y97.125 E.03837
G1 X79.344 Y96.094 E.03838
G1 X78.79 Y95.003 E.03837
G1 X78.347 Y93.862 E.03838
G1 X78.021 Y92.682 E.03838
G1 X77.813 Y91.476 E.03837
G1 X77.727 Y90.256 E.03835
G1 X77.762 Y89.032 E.03839
G1 X77.92 Y87.819 E.03835
G1 X78.197 Y86.627 E.03837
G1 X78.591 Y85.468 E.03838
G1 X79.099 Y84.355 E.03836
G1 X79.715 Y83.298 E.03836
G1 X80.434 Y82.307 E.03839
G1 X80.972 Y81.702 E.02538
M204 S1250
G1 X81.254 Y81.952 F9000
M204 S800
G1 F1200
G1 X81.522 Y81.651 E.01264
G1 X82.378 Y80.864 E.03646
G1 X83.27 Y80.189 E.03507
G1 X84.24 Y79.589 E.03576
G1 X85.23 Y79.099 E.03463
G1 X86.273 Y78.7 E.03501
G1 X87.357 Y78.399 E.03527
G1 X88.444 Y78.204 E.03463
G1 X89.56 Y78.11 E.03512
