; generated by PrusaSlicer 2.3.3 on 2021-12-21 at 16:55:36 UTC


;
;

;
;
; 

; external perimeters extrusion width = 0.45mm
; perimeters extrusion width = 0.45mm
; infill extrusion width = 0.45mm
; solid infill extrusion width = 0.45mm
; top infill extrusion width = 0.40mm
; first layer extrusion width = 0.42mm

M73 P0 R16
M201 X1250 Y1250 Z400 E5000 ; sets maximum accelerations, mm/sec^2
M203 X180 Y180 Z12 E80 ; sets maximum feedrates, mm/sec
M204 P1250 R1250 T1250 ; sets acceleration (P, T) and retract acceleration (R), mm/sec^2
M205 X8.00 Y8.00 Z2.00 E10.00 ; sets the jerk limits, mm/sec
M205 S0 T0 ; sets the minimum extruding and travel feed rate, mm/sec
M107
;TYPE:Custom
G90 ; use absolute coordinates
M83 ; extruder relative mode
M104 S170 ; set extruder temp for bed leveling
M140 S60 ; set bed temp
M109 R170 ; wait for bed leveling temp
M190 S60 ; wait for bed temp
G28 ; home all without mesh bed level
G29 ; mesh bed leveling 
M104 S215 ; set extruder temp
G92 E0.0
G1 Y-2.0 X179 F2400
G1 Z3 F720
M109 S215 ; wait for extruder temp

; intro line
G1 X170 F1000
G1 Z0.2 F720
G1 X110.0 E8.0 F900
G1 X40.0 E10.0 F700
G92 E0.0

M221 S95 ; set flow
G21 ; set units to millimeters
G90 ; use absolute coordinates
M83 ; use relative distances for extrusion
M900 K0.2 ; Filament gcode LA 1.5
; ; Filament gcode LA 1.0
;LAYER_CHANGE
;Z:0.2
;HEIGHT:0.2
;BEFORE_LAYER_CHANGE
G92 E0.0
;0.2


M73 P1 R16
G1 E-3.20000 F4200.000
G1 Z0.200 F9000.000
;AFTER_LAYER_CHANGE
;0.2
G1 Z0.400
G1 X74.377 Y73.980
G1 Z0.200
G1 E3.20000 F2400.000
M204 S800
;TYPE:Skirt
;WIDTH:0.42
G1 F1200.000
G1 X76.049 Y72.504 E0.06995
G1 X77.861 Y71.202 E0.06995
G1 X79.793 Y70.087 E0.06995
G1 X81.823 Y69.171 E0.06983
G1 X83.937 Y68.460 E0.06995
G1 X86.112 Y67.963 E0.06994
G1 X88.326 Y67.686 E0.06995
G1 X90.502 Y67.629 E0.06828
G1 X92.780 Y67.796 E0.07162
G1 X94.974 Y68.183 E0.06983
G1 X97.125 Y68.787 E0.07007
G1 X99.149 Y69.579 E0.06815
G1 X100.261 Y70.115 E0.03870
G1 X102.190 Y71.235 E0.06994
G1 X103.956 Y72.508 E0.06826
G1 X105.666 Y74.023 E0.07163
G1 X107.143 Y75.618 E0.06814
G1 X108.490 Y77.396 E0.06995
G1 X109.653 Y79.300 E0.06995
G1 X110.622 Y81.313 E0.07007
G1 X111.383 Y83.406 E0.06982
G1 X111.934 Y85.568 E0.06995
G1 X112.266 Y87.774 E0.06995
G1 X112.376 Y90.055 E0.07161
G1 X112.266 Y92.230 E0.06827
G1 X111.933 Y94.436 E0.06995
M73 P2 R16
G1 X111.382 Y96.597 E0.06995
G1 X110.619 Y98.694 E0.06994
G1 X109.651 Y100.703 E0.06995
G1 X108.488 Y102.607 E0.06994
G1 X107.141 Y104.385 E0.06995
G1 X105.623 Y106.020 E0.06994
G1 X103.951 Y107.496 E0.06995
G1 X102.139 Y108.798 E0.06995
G1 X100.207 Y109.913 E0.06995
G1 X98.174 Y110.831 E0.06995
G1 X96.059 Y111.541 E0.06995
G1 X93.884 Y112.037 E0.06994
G1 X91.671 Y112.315 E0.06995
G1 X89.444 Y112.370 E0.06983
G1 X87.216 Y112.203 E0.07007
G1 X85.019 Y111.816 E0.06995
G1 X82.872 Y111.211 E0.06994
G1 X80.799 Y110.398 E0.06983
G1 X78.810 Y109.378 E0.07007
G1 X76.939 Y108.170 E0.06983
G1 X75.195 Y106.779 E0.06995
G1 X73.635 Y105.260 E0.06827
G1 X72.166 Y103.516 E0.07149
G1 X70.937 Y101.718 E0.06828
G1 X69.911 Y99.851 E0.06682
G1 X69.358 Y98.637 E0.04182
G1 X68.617 Y96.594 E0.06814
G1 X68.066 Y94.429 E0.07007
G1 X67.734 Y92.223 E0.06994
G1 X67.624 Y89.945 E0.07150
G1 X67.734 Y87.770 E0.06827
G1 X68.067 Y85.564 E0.06995
G1 X68.618 Y83.403 E0.06995
G1 X69.381 Y81.306 E0.06995
G1 X70.347 Y79.300 E0.06983
G1 X71.512 Y77.393 E0.07006
G1 X72.857 Y75.618 E0.06983
G1 X74.336 Y74.024 E0.06818
M204 S1250
; printing object 0point2.stl id:0 copy 0
G1 E-2.24000 F4200.000
;WIPE_START
G1 F7200.000
G1 X75.567 Y72.932 E-0.91200
;WIPE_END
G1 E-0.04800 F4200.000
G1 Z0.400 F9000.000
G1 X94.887 Y105.887
G1 Z0.200
G1 E3.20000 F2400.000
M204 S800
;TYPE:Perimeter
G1 F1200.000
G1 X85.113 Y105.887 E0.30646
G1 X85.113 Y101.923 E0.12430
G1 X84.446 Y101.629 E0.02284
G1 X83.873 Y101.338 E0.02017
G1 X83.315 Y101.018 E0.02017
G1 X82.773 Y100.670 E0.02017
G1 X82.250 Y100.296 E0.02017
G1 X81.745 Y99.897 E0.02017
G1 X81.262 Y99.472 E0.02017
G1 X80.800 Y99.025 E0.02017
G1 X80.361 Y98.554 E0.02017
G1 X79.946 Y98.062 E0.02017
G1 X79.556 Y97.551 E0.02017
G1 X79.192 Y97.020 E0.02017
G1 X78.856 Y96.472 E0.02017
G1 X78.555 Y95.923 E0.01962
G1 X78.266 Y95.329 E0.02071
G1 X78.015 Y94.736 E0.02018
G1 X77.793 Y94.132 E0.02017
G1 X77.602 Y93.518 E0.02017
G1 X77.442 Y92.895 E0.02017
G1 X77.313 Y92.265 E0.02017
G1 X77.216 Y91.629 E0.02017
G1 X77.151 Y90.989 E0.02017
G1 X77.117 Y90.346 E0.02017
G1 X77.116 Y89.703 E0.02017
G1 X77.147 Y89.060 E0.02017
G1 X77.210 Y88.420 E0.02017
G1 X77.305 Y87.784 E0.02017
G1 X77.431 Y87.153 E0.02017
G1 X77.589 Y86.529 E0.02017
G1 X77.778 Y85.914 E0.02017
G1 X77.997 Y85.309 E0.02017
G1 X78.246 Y84.716 E0.02017
G1 X78.524 Y84.136 E0.02017
G1 X78.831 Y83.570 E0.02017
G1 X79.166 Y83.021 E0.02017
G1 X79.528 Y82.489 E0.02017
G1 X79.916 Y81.976 E0.02017
G1 X80.329 Y81.483 E0.02017
G1 X80.766 Y81.011 E0.02017
G1 X81.226 Y80.561 E0.02017
G1 X81.708 Y80.135 E0.02017
G1 X82.211 Y79.733 E0.02017
G1 X82.733 Y79.357 E0.02017
G1 X83.273 Y79.008 E0.02017
G1 X83.830 Y78.686 E0.02017
G1 X84.402 Y78.392 E0.02017
G1 X84.988 Y78.127 E0.02017
G1 X85.587 Y77.892 E0.02017
G1 X86.197 Y77.687 E0.02017
G1 X86.816 Y77.512 E0.02017
G1 X87.443 Y77.369 E0.02017
G1 X88.077 Y77.257 E0.02017
G1 X88.715 Y77.177 E0.02017
G1 X89.357 Y77.129 E0.02017
G1 X89.983 Y77.113 E0.01962
G1 X90.643 Y77.129 E0.02071
G1 X91.285 Y77.177 E0.02018
G1 X91.923 Y77.257 E0.02017
G1 X92.557 Y77.369 E0.02017
G1 X93.184 Y77.512 E0.02017
G1 X93.803 Y77.687 E0.02017
G1 X94.413 Y77.892 E0.02017
G1 X95.012 Y78.127 E0.02017
G1 X95.598 Y78.392 E0.02018
G1 X96.185 Y78.695 E0.02071
G1 X96.727 Y79.008 E0.01962
G1 X97.267 Y79.357 E0.02017
G1 X97.789 Y79.733 E0.02017
G1 X98.292 Y80.135 E0.02017
G1 X98.774 Y80.561 E0.02017
G1 X99.234 Y81.011 E0.02017
G1 X99.671 Y81.483 E0.02017
G1 X100.084 Y81.976 E0.02017
G1 X100.472 Y82.489 E0.02017
G1 X100.834 Y83.021 E0.02017
G1 X101.169 Y83.570 E0.02017
G1 X101.476 Y84.136 E0.02017
G1 X101.754 Y84.716 E0.02017
G1 X102.003 Y85.309 E0.02017
G1 X102.216 Y85.898 E0.01962
G1 X102.411 Y86.529 E0.02071
G1 X102.569 Y87.153 E0.02018
G1 X102.695 Y87.784 E0.02017
G1 X102.790 Y88.420 E0.02017
G1 X102.853 Y89.060 E0.02017
G1 X102.884 Y89.703 E0.02017
G1 X102.883 Y90.346 E0.02017
G1 X102.849 Y90.989 E0.02017
G1 X102.784 Y91.629 E0.02017
G1 X102.687 Y92.265 E0.02017
G1 X102.558 Y92.895 E0.02017
G1 X102.398 Y93.518 E0.02017
G1 X102.207 Y94.132 E0.02017
G1 X101.985 Y94.736 E0.02017
G1 X101.734 Y95.329 E0.02017
G1 X101.453 Y95.908 E0.02017
G1 X101.144 Y96.472 E0.02017
G1 X100.808 Y97.020 E0.02017
G1 X100.444 Y97.551 E0.02017
G1 X100.054 Y98.062 E0.02017
G1 X99.639 Y98.554 E0.02017
G1 X99.200 Y99.025 E0.02017
G1 X98.738 Y99.472 E0.02017
G1 X98.255 Y99.897 E0.02017
G1 X97.750 Y100.296 E0.02017
G1 X97.227 Y100.670 E0.02017
G1 X96.685 Y101.018 E0.02017
G1 X96.127 Y101.338 E0.02017
G1 X95.554 Y101.629 E0.02017
G1 X94.887 Y101.923 E0.02284
G1 X94.887 Y105.827 E0.12242
M204 S1250
G1 X94.510 Y105.510 F9000.000
M204 S800
;TYPE:External perimeter
G1 F1200.000
G1 X85.490 Y105.510 E0.28282
M73 P3 R16
G1 X85.490 Y101.665 E0.12057
G1 X84.609 Y101.289 E0.03004
G1 X84.052 Y101.006 E0.01958
G1 X83.510 Y100.695 E0.01958
G1 X82.985 Y100.358 E0.01958
G1 X82.476 Y99.995 E0.01958
G1 X81.987 Y99.607 E0.01958
G1 X81.518 Y99.195 E0.01958
G1 X81.069 Y98.760 E0.01958
G1 X80.643 Y98.304 E0.01958
G1 X80.240 Y97.826 E0.01958
G1 X79.862 Y97.330 E0.01958
G1 X79.509 Y96.815 E0.01958
G1 X79.182 Y96.282 E0.01958
G1 X78.890 Y95.750 E0.01904
G1 X78.609 Y95.173 E0.02012
G1 X78.365 Y94.598 E0.01959
G1 X78.150 Y94.011 E0.01958
G1 X77.965 Y93.415 E0.01958
G1 X77.810 Y92.810 E0.01958
G1 X77.685 Y92.198 E0.01958
G1 X77.590 Y91.581 E0.01958
G1 X77.527 Y90.960 E0.01958
G1 X77.494 Y90.336 E0.01958
G1 X77.493 Y89.712 E0.01958
G1 X77.523 Y89.088 E0.01958
G1 X77.584 Y88.466 E0.01958
G1 X77.676 Y87.848 E0.01958
G1 X77.799 Y87.236 E0.01958
G1 X77.952 Y86.631 E0.01958
G1 X78.135 Y86.034 E0.01958
G1 X78.348 Y85.446 E0.01958
G1 X78.590 Y84.871 E0.01958
G1 X78.860 Y84.308 E0.01958
G1 X79.158 Y83.759 E0.01958
G1 X79.483 Y83.225 E0.01958
G1 X79.834 Y82.709 E0.01958
G1 X80.211 Y82.211 E0.01958
G1 X80.612 Y81.732 E0.01958
G1 X81.036 Y81.274 E0.01958
G1 X81.483 Y80.837 E0.01958
G1 X81.951 Y80.423 E0.01958
G1 X82.439 Y80.034 E0.01958
G1 X82.945 Y79.669 E0.01958
G1 X83.470 Y79.330 E0.01958
G1 X84.010 Y79.017 E0.01958
G1 X84.566 Y78.732 E0.01958
G1 X85.135 Y78.475 E0.01958
G1 X85.716 Y78.246 E0.01958
G1 X86.308 Y78.047 E0.01958
G1 X86.909 Y77.878 E0.01958
G1 X87.518 Y77.739 E0.01958
G1 X88.133 Y77.630 E0.01958
G1 X88.753 Y77.552 E0.01958
G1 X89.376 Y77.505 E0.01958
G1 X89.983 Y77.490 E0.01904
G1 X90.624 Y77.505 E0.02012
G1 X91.247 Y77.552 E0.01959
G1 X91.867 Y77.630 E0.01958
G1 X92.482 Y77.739 E0.01958
G1 X93.091 Y77.878 E0.01958
G1 X93.692 Y78.047 E0.01958
G1 X94.284 Y78.246 E0.01958
G1 X94.865 Y78.475 E0.01958
G1 X95.434 Y78.732 E0.01959
G1 X96.005 Y79.026 E0.02012
G1 X96.530 Y79.330 E0.01904
G1 X97.055 Y79.669 E0.01958
G1 X97.561 Y80.034 E0.01958
G1 X98.049 Y80.423 E0.01958
G1 X98.517 Y80.837 E0.01958
G1 X98.964 Y81.274 E0.01958
G1 X99.388 Y81.732 E0.01958
G1 X99.789 Y82.211 E0.01958
G1 X100.166 Y82.709 E0.01958
G1 X100.517 Y83.225 E0.01958
G1 X100.842 Y83.759 E0.01958
G1 X101.140 Y84.308 E0.01958
G1 X101.410 Y84.871 E0.01958
G1 X101.652 Y85.446 E0.01958
G1 X101.859 Y86.017 E0.01904
G1 X102.048 Y86.631 E0.02012
G1 X102.201 Y87.236 E0.01959
G1 X102.324 Y87.848 E0.01958
G1 X102.416 Y88.466 E0.01958
G1 X102.477 Y89.088 E0.01958
G1 X102.507 Y89.712 E0.01958
G1 X102.506 Y90.336 E0.01958
G1 X102.473 Y90.960 E0.01958
G1 X102.410 Y91.581 E0.01958
G1 X102.315 Y92.198 E0.01958
G1 X102.190 Y92.810 E0.01958
G1 X102.035 Y93.415 E0.01958
G1 X101.850 Y94.011 E0.01958
G1 X101.635 Y94.598 E0.01958
G1 X101.391 Y95.173 E0.01958
G1 X101.118 Y95.735 E0.01958
G1 X100.818 Y96.282 E0.01958
G1 X100.491 Y96.815 E0.01958
G1 X100.138 Y97.330 E0.01958
G1 X99.760 Y97.826 E0.01958
G1 X99.357 Y98.304 E0.01958
G1 X98.931 Y98.760 E0.01958
G1 X98.482 Y99.195 E0.01958
G1 X98.013 Y99.607 E0.01958
G1 X97.524 Y99.995 E0.01958
G1 X97.015 Y100.358 E0.01958
G1 X96.490 Y100.695 E0.01958
G1 X95.948 Y101.006 E0.01958
G1 X95.391 Y101.289 E0.01958
G1 X94.510 Y101.665 E0.03004
G1 X94.510 Y105.450 E0.11868
M204 S1250
G1 X94.483 Y105.909 F9000.000
G1 E-2.24000 F4200.000
;WIPE_START
G1 F7200.000
G1 X92.864 Y105.461 E-0.91200
;WIPE_END
G1 E-0.04800 F4200.000
G1 Z0.400 F9000.000
G1 X95.428 Y108.425
G1 Z0.200
G1 E3.20000 F2400.000
M204 S800
;TYPE:Perimeter
G1 F1200.000
G1 X94.275 Y108.731 E0.03739
G1 X93.336 Y108.921 E0.03004
G1 X92.389 Y109.064 E0.03004
G1 X91.436 Y109.159 E0.03004
G1 X90.479 Y109.207 E0.03004
G1 X89.521 Y109.207 E0.03004
G1 X88.564 Y109.159 E0.03004
G1 X87.611 Y109.064 E0.03004
G1 X86.664 Y108.921 E0.03004
G1 X85.725 Y108.731 E0.03004
G1 X84.796 Y108.495 E0.03004
G1 X83.881 Y108.212 E0.03004
G1 X82.981 Y107.885 E0.03004
G1 X82.098 Y107.512 E0.03004
G1 X81.235 Y107.097 E0.03004
G1 X80.394 Y106.639 E0.03004
G1 X79.576 Y106.139 E0.03004
G1 X78.785 Y105.600 E0.03004
G1 X78.021 Y105.021 E0.03004
G1 X77.287 Y104.405 E0.03004
G1 X76.585 Y103.754 E0.03004
G1 X75.916 Y103.068 E0.03004
G1 X75.282 Y102.350 E0.03004
G1 X74.685 Y101.601 E0.03004
G1 X74.126 Y100.823 E0.03004
G1 X73.606 Y100.018 E0.03004
G1 X73.127 Y99.189 E0.03004
G1 X72.690 Y98.336 E0.03004
G1 X72.296 Y97.463 E0.03004
G1 X71.946 Y96.571 E0.03004
G1 X71.646 Y95.677 E0.02957
M73 P3 R15
G1 X71.381 Y94.741 E0.03050
G1 X71.168 Y93.807 E0.03003
G1 X71.002 Y92.863 E0.03004
G1 X70.883 Y91.913 E0.03004
G1 X70.811 Y90.958 E0.03004
G1 X70.787 Y90.000 E0.03004
G1 X70.811 Y89.042 E0.03004
G1 X70.883 Y88.087 E0.03004
G1 X71.002 Y87.137 E0.03004
G1 X71.168 Y86.193 E0.03004
G1 X71.381 Y85.259 E0.03004
G1 X71.641 Y84.337 E0.03004
G1 X71.946 Y83.429 E0.03004
G1 X72.296 Y82.537 E0.03004
G1 X72.690 Y81.664 E0.03004
G1 X73.127 Y80.811 E0.03004
G1 X73.606 Y79.982 E0.03004
G1 X74.126 Y79.177 E0.03004
G1 X74.685 Y78.399 E0.03004
G1 X75.282 Y77.650 E0.03004
G1 X75.916 Y76.932 E0.03004
G1 X76.585 Y76.246 E0.03004
G1 X77.287 Y75.595 E0.03004
G1 X78.021 Y74.979 E0.03004
G1 X78.785 Y74.400 E0.03004
G1 X79.576 Y73.861 E0.03004
G1 X80.394 Y73.361 E0.03004
G1 X81.235 Y72.903 E0.03004
G1 X82.098 Y72.488 E0.03004
G1 X82.981 Y72.115 E0.03004
G1 X83.881 Y71.788 E0.03004
G1 X84.796 Y71.505 E0.03004
G1 X85.725 Y71.269 E0.03004
G1 X86.664 Y71.079 E0.03004
G1 X87.611 Y70.936 E0.03004
G1 X88.564 Y70.841 E0.03004
G1 X89.521 Y70.793 E0.03004
G1 X90.479 Y70.793 E0.03004
G1 X91.421 Y70.840 E0.02957
G1 X92.389 Y70.936 E0.03050
G1 X93.336 Y71.079 E0.03003
G1 X94.275 Y71.269 E0.03004
G1 X95.204 Y71.505 E0.03004
G1 X96.119 Y71.788 E0.03004
G1 X97.019 Y72.115 E0.03004
G1 X97.902 Y72.488 E0.03004
G1 X98.765 Y72.903 E0.03004
G1 X99.606 Y73.361 E0.03004
G1 X100.424 Y73.861 E0.03004
G1 X101.215 Y74.400 E0.03004
G1 X101.979 Y74.979 E0.03004
G1 X102.713 Y75.595 E0.03004
G1 X103.415 Y76.246 E0.03004
G1 X104.084 Y76.932 E0.03004
G1 X104.718 Y77.650 E0.03004
G1 X105.315 Y78.399 E0.03004
G1 X105.874 Y79.177 E0.03004
G1 X106.394 Y79.982 E0.03004
G1 X106.873 Y80.811 E0.03004
G1 X107.310 Y81.664 E0.03004
G1 X107.704 Y82.537 E0.03004
G1 X108.054 Y83.429 E0.03004
G1 X108.359 Y84.337 E0.03004
G1 X108.619 Y85.259 E0.03004
G1 X108.832 Y86.193 E0.03004
G1 X108.998 Y87.137 E0.03004
G1 X109.117 Y88.087 E0.03004
G1 X109.189 Y89.042 E0.03004
G1 X109.213 Y90.000 E0.03004
G1 X109.189 Y90.958 E0.03004
G1 X109.117 Y91.913 E0.03004
G1 X108.998 Y92.863 E0.03004
G1 X108.832 Y93.807 E0.03004
G1 X108.619 Y94.741 E0.03004
G1 X108.359 Y95.663 E0.03004
G1 X108.054 Y96.571 E0.03004
G1 X107.704 Y97.463 E0.03004
G1 X107.310 Y98.336 E0.03004
M73 P4 R15
G1 X106.873 Y99.189 E0.03004
G1 X106.394 Y100.018 E0.03004
G1 X105.874 Y100.823 E0.03004
G1 X105.315 Y101.601 E0.03004
G1 X104.718 Y102.350 E0.03004
G1 X104.084 Y103.068 E0.03004
G1 X103.415 Y103.754 E0.03004
G1 X102.713 Y104.405 E0.03004
G1 X101.979 Y105.021 E0.03004
G1 X101.215 Y105.600 E0.03004
G1 X100.424 Y106.139 E0.03004
G1 X99.606 Y106.639 E0.03004
G1 X98.765 Y107.097 E0.03004
G1 X97.902 Y107.512 E0.03004
G1 X97.019 Y107.885 E0.03004
G1 X96.119 Y108.212 E0.03004
G1 X95.485 Y108.408 E0.02080
M204 S1250
G1 X95.596 Y108.768 F9000.000
M204 S800
;TYPE:External perimeter
G1 F1200.000
G1 X94.359 Y109.099 E0.04015
G1 X93.402 Y109.292 E0.03063
G1 X92.436 Y109.438 E0.03063
G1 X91.464 Y109.535 E0.03063
G1 X90.488 Y109.584 E0.03063
G1 X89.512 Y109.584 E0.03063
G1 X88.536 Y109.535 E0.03063
G1 X87.564 Y109.438 E0.03063
G1 X86.598 Y109.292 E0.03063
G1 X85.641 Y109.099 E0.03063
G1 X84.694 Y108.858 E0.03063
G1 X83.761 Y108.570 E0.03063
G1 X82.843 Y108.236 E0.03063
G1 X81.943 Y107.856 E0.03063
G1 X81.063 Y107.432 E0.03063
G1 X80.205 Y106.965 E0.03063
G1 X79.372 Y106.456 E0.03063
G1 X78.565 Y105.906 E0.03063
G1 X77.786 Y105.316 E0.03063
G1 X77.038 Y104.688 E0.03063
G1 X76.322 Y104.024 E0.03063
G1 X75.640 Y103.324 E0.03063
G1 X74.993 Y102.592 E0.03063
G1 X74.384 Y101.828 E0.03063
G1 X73.814 Y101.035 E0.03063
G1 X73.284 Y100.215 E0.03063
G1 X72.796 Y99.369 E0.03063
G1 X72.350 Y98.500 E0.03063
G1 X71.948 Y97.609 E0.03063
G1 X71.592 Y96.700 E0.03063
G1 X71.285 Y95.788 E0.03016
G1 X71.016 Y94.834 E0.03109
G1 X70.799 Y93.882 E0.03062
G1 X70.629 Y92.920 E0.03063
G1 X70.507 Y91.951 E0.03063
G1 X70.434 Y90.976 E0.03063
G1 X70.410 Y90.000 E0.03063
G1 X70.434 Y89.024 E0.03063
G1 X70.507 Y88.049 E0.03063
G1 X70.629 Y87.080 E0.03063
G1 X70.799 Y86.118 E0.03063
G1 X71.016 Y85.166 E0.03063
G1 X71.280 Y84.226 E0.03063
G1 X71.592 Y83.300 E0.03063
G1 X71.948 Y82.391 E0.03063
G1 X72.350 Y81.500 E0.03063
G1 X72.796 Y80.631 E0.03063
G1 X73.284 Y79.785 E0.03063
G1 X73.814 Y78.965 E0.03063
G1 X74.384 Y78.172 E0.03063
G1 X74.993 Y77.408 E0.03063
G1 X75.640 Y76.676 E0.03063
G1 X76.322 Y75.976 E0.03063
G1 X77.038 Y75.312 E0.03063
G1 X77.786 Y74.684 E0.03063
G1 X78.565 Y74.094 E0.03063
G1 X79.372 Y73.544 E0.03063
G1 X80.205 Y73.035 E0.03063
G1 X81.063 Y72.568 E0.03063
G1 X81.943 Y72.144 E0.03063
G1 X82.843 Y71.764 E0.03063
G1 X83.761 Y71.430 E0.03063
G1 X84.694 Y71.142 E0.03063
