; generated by PrusaSlicer 2.4.0 on 2022-02-06 at 11:23:14 UTC


;
;

;
;
; 

; external perimeters extrusion width = 0.45mm
; perimeters extrusion width = 0.45mm
; infill extrusion width = 0.45mm
; solid infill extrusion width = 0.45mm
; top infill extrusion width = 0.40mm
; first layer extrusion width = 0.42mm

M73 P0 R6
M201 X1250 Y1250 Z400 E5000 ; sets maximum accelerations, mm/sec^2
M203 X180 Y180 Z12 E80 ; sets maximum feedrates, mm/sec
M204 P1250 R1250 T1250 ; sets acceleration (P, T) and retract acceleration (R), mm/sec^2
M205 X8.00 Y8.00 Z2.00 E10.00 ; sets the jerk limits, mm/sec
M205 S0 T0 ; sets the minimum extruding and travel feed rate, mm/sec
M107
;TYPE:Custom
G90 ; use absolute coordinates
M83 ; extruder relative mode
M104 S170 ; set extruder temp for bed leveling
M140 S60 ; set bed temp
M109 R170 ; wait for bed leveling temp
M190 S60 ; wait for bed temp
G28 ; home all without mesh bed level
G29 ; mesh bed leveling 
M104 S215 ; set extruder temp
G92 E0.0
G1 Y-2.0 X179 F2400
G1 Z3 F720
M109 S215 ; wait for extruder temp

; intro line
M73 P1 R6
G1 X170 F1000
G1 Z0.2 F720
G1 X110.0 E8.0 F900
G1 X40.0 E10.0 F700
G92 E0.0

M221 S95 ; set flow
G21 ; set units to millimeters
G90 ; use absolute coordinates
M83 ; use relative distances for extrusion
M900 K0.2 ; Filament gcode LA 1.5
; ; Filament gcode LA 1.0
M107
;LAYER_CHANGE
;Z:0.2
;HEIGHT:0.2
;BEFORE_LAYER_CHANGE
G92 E0.0
;0.2


M73 P2 R6
G1 E-3.2 F4200
M73 P4 R6
G1 Z.2 F9000
;AFTER_LAYER_CHANGE
;0.2
G1 Z.4
G1 X82.264 Y85.342
G1 Z.2
G1 E3.2 F2400
M204 S800
;TYPE:Skirt/Brim
;WIDTH:0.42
G1 F1200
G1 X83.92 Y84.869 E.054
G1 X96.08 Y84.869 E.38127
G1 X97.6 Y85.262 E.04923
G1 X98.738 Y86.344 E.04923
G1 X99.211 Y88 E.054
G1 X99.211 Y92 E.12542
G1 X98.818 Y93.52 E.04923
G1 X97.736 Y94.658 E.04923
G1 X96.08 Y95.131 E.054
G1 X83.92 Y95.131 E.38127
G1 X82.4 Y94.738 E.04923
G1 X81.262 Y93.656 E.04923
G1 X80.789 Y92 E.054
G1 X80.789 Y88 E.12542
G1 X81.182 Y86.48 E.04923
G1 X82.223 Y85.386 E.04735
M204 S1250
G1 X82.505 Y85.683 F9000
M204 S800
G1 F1200
G1 X82.625 Y85.569 E.00517
G1 X83.92 Y85.246 E.04186
G1 X96.08 Y85.246 E.38127
M73 P5 R6
G1 X97.497 Y85.639 E.04612
G1 X98.511 Y86.705 E.04612
G1 X98.834 Y88 E.04186
G1 X98.834 Y92 E.12542
G1 X98.441 Y93.417 E.04612
G1 X97.375 Y94.431 E.04612
G1 X96.08 Y94.754 E.04186
G1 X83.92 Y94.754 E.38127
G1 X82.503 Y94.361 E.04612
G1 X81.489 Y93.295 E.04612
G1 X81.166 Y92 E.04186
G1 X81.166 Y88 E.12542
G1 X81.559 Y86.583 E.04612
G1 X82.462 Y85.724 E.03907
M204 S1250
G1 X82.721 Y86.034 F9000
M204 S800
G1 F1200
G1 X82.98 Y85.817 E.0106
G1 X83.92 Y85.623 E.03008
G1 X96.08 Y85.623 E.38127
G1 X97.387 Y86.015 E.04278
G1 X98.263 Y87.06 E.04278
G1 X98.457 Y88 E.03008
G1 X98.457 Y92 E.12542
G1 X98.065 Y93.307 E.04278
G1 X97.02 Y94.183 E.04278
G1 X96.08 Y94.377 E.03008
G1 X83.92 Y94.377 E.38127
G1 X82.613 Y93.985 E.04278
M73 P6 R6
G1 X81.737 Y92.94 E.04278
G1 X81.543 Y92 E.03008
G1 X81.543 Y88 E.12542
G1 X81.935 Y86.693 E.04278
G1 X82.675 Y86.072 E.0303
M204 S1250
; printing object housing-4-way-2.54-pitch.stl id:0 copy 0
G1 E-2.24 F4200
;WIPE_START
G1 F7200
G1 X82.98 Y85.817 E-.22062
G1 X83.92 Y85.623 E-.53172
G1 X84.208 Y85.623 E-.15966
;WIPE_END
G1 E-.048 F4200
G1 Z.4 F9000
G1 X90.027 Y88.901
G1 Z.2
G1 E3.2 F2400
M204 S800
;TYPE:Perimeter
G1 F1200
G1 X90.004 Y88.954 E.00182
G1 X89.848 Y88.763 E.00773
G1 X90.16 Y88.763 E.0098
G1 X90.069 Y88.858 E.00413
M204 S1250
G1 X90.345 Y89.114 F9000
M204 S800
;TYPE:External perimeter
G1 F1200
G1 X90.542 Y88.91 E.0089
G1 X90.725 Y88.802 E.00664
G1 X90.977 Y88.708 E.00844
G1 X91.244 Y88.688 E.00841
G1 X91.625 Y88.723 E.012
G1 X91.88 Y88.837 E.00876
G1 X92.094 Y88.999 E.00839
G1 X92.238 Y89.175 E.00714
G1 X92.295 Y89.356 E.00594
G1 X92.409 Y89.587 E.00808
G1 X92.475 Y89.877 E.00932
G1 X92.475 Y90.118 E.00756
G1 X92.442 Y90.304 E.00594
G1 X92.233 Y90.831 E.01777
G1 X92.096 Y90.998 E.00676
G1 X91.935 Y91.13 E.00654
G1 X91.697 Y91.249 E.00834
G1 X91.493 Y91.301 E.0066
G1 X91.239 Y91.312 E.00798
G1 X90.977 Y91.292 E.00824
G1 X90.725 Y91.198 E.00844
G1 X90.54 Y91.088 E.00673
G1 X90.304 Y90.831 E.01094
G1 X90.245 Y90.644 E.00614
G1 X90.131 Y90.413 E.00808
G1 X90.065 Y90.123 E.00932
G1 X90.065 Y89.879 E.00764
G1 X90.113 Y89.641 E.00761
G1 X90.321 Y89.169 E.01617
M204 S1250
G1 X90.23 Y88.855 F9000
G1 E-2.24 F4200
;WIPE_START
G1 F7200
G1 X90.542 Y88.91 E-.18881
G1 X90.725 Y88.802 E-.11741
G1 X90.977 Y88.708 E-.14916
G1 X91.244 Y88.688 E-.14861
G1 X91.625 Y88.723 E-.21203
G1 X91.783 Y88.794 E-.09598
;WIPE_END
G1 E-.048 F4200
G1 Z.4 F9000
G1 X92.418 Y88.763
G1 Z.2
G1 E3.2 F2400
M204 S800
;TYPE:Perimeter
G1 F1200
M73 P6 R5
G1 X92.696 Y88.767 E.00874
G1 X92.565 Y88.904 E.00594
G1 X92.543 Y88.954 E.0017
G1 X92.407 Y88.786 E.00678
M204 S1250
G1 X92.884 Y89.115 F9000
M204 S800
;TYPE:External perimeter
G1 F1200
G1 X93.082 Y88.91 E.00894
G1 X93.265 Y88.802 E.00664
G1 X93.517 Y88.708 E.00844
G1 X93.78 Y88.688 E.00828
G1 X94.083 Y88.705 E.00952
G1 X94.344 Y88.754 E.00832
G1 X94.598 Y88.867 E.0087
G1 X94.723 Y88.957 E.00484
G1 X94.917 Y89.146 E.00849
G1 X95.044 Y89.325 E.00688
G1 X95.156 Y89.583 E.00883
G1 X95.214 Y89.859 E.00883
G1 X95.214 Y90.139 E.00878
G1 X95.174 Y90.352 E.0068
G1 X95.077 Y90.612 E.0087
G1 X94.963 Y90.796 E.0068
G1 X94.822 Y90.957 E.00671
G1 X94.603 Y91.131 E.00877
G1 X94.344 Y91.246 E.00887
G1 X94.083 Y91.295 E.00832
G1 X93.78 Y91.312 E.00952
G1 X93.517 Y91.292 E.00828
G1 X93.265 Y91.198 E.00844
G1 X93.08 Y91.088 E.00673
G1 X92.844 Y90.831 E.01094
G1 X92.785 Y90.644 E.00614
G1 X92.672 Y90.415 E.008
G1 X92.612 Y90.181 E.0076
G1 X92.6 Y89.94 E.00756
G1 X92.637 Y89.696 E.00774
G1 X92.861 Y89.171 E.01789
M204 S1250
G1 X92.767 Y88.856 F9000
G1 E-2.24 F4200
;WIPE_START
G1 F7200
G1 X93.082 Y88.91 E-.18943
G1 X93.265 Y88.802 E-.11741
G1 X93.517 Y88.708 E-.14916
G1 X93.78 Y88.688 E-.1464
G1 X94.083 Y88.705 E-.16819
G1 X94.334 Y88.752 E-.14141
;WIPE_END
G1 E-.048 F4200
G1 Z.4 F9000
G1 X95.081 Y88.778
G1 Z.2
G1 E3.2 F2400
M204 S800
;TYPE:Perimeter
G1 F1200
G1 X95.293 Y88.78 E.00665
G1 X95.293 Y89.024 E.00764
G1 X95.122 Y88.819 E.00838
M204 S1250
G1 E-2.24 F4200
;WIPE_START
G1 F7200
G1 X95.293 Y88.78 E-.09729
G1 X95.293 Y89.024 E-.13505
G1 X95.122 Y88.819 E-.1481
;WIPE_END
G1 E-.57956 F4200
G1 Z.4 F9000
G1 X95.293 Y91.22
G1 Z.2
G1 E3.2 F2400
M204 S800
G1 F1200
G1 X95.09 Y91.222 E.00635
G1 X95.293 Y90.98 E.0099
G1 X95.293 Y91.16 E.00564
M204 S1250
G1 E-2.24 F4200
;WIPE_START
G1 F7200
G1 X95.09 Y91.222 E-.11742
G1 X95.293 Y90.98 E-.17489
G1 X95.293 Y91.16 E-.09963
;WIPE_END
G1 E-.56805 F4200
G1 Z.4 F9000
G1 X92.701 Y91.233
G1 Z.2
M73 P7 R5
G1 E3.2 F2400
M204 S800
G1 F1200
G1 X92.388 Y91.237 E.00983
G1 X92.537 Y91.054 E.00742
G1 X92.661 Y91.189 E.00574
M204 S1250
G1 E-2.24 F4200
;WIPE_START
G1 F7200
G1 X92.388 Y91.237 E-.1537
G1 X92.537 Y91.054 E-.13118
G1 X92.661 Y91.189 E-.10141
;WIPE_END
G1 E-.57371 F4200
G1 Z.4 F9000
G1 X90.165 Y91.237
G1 Z.2
G1 E3.2 F2400
M204 S800
G1 F1200
G1 X89.848 Y91.237 E.00994
G1 X89.997 Y91.054 E.00741
G1 X90.124 Y91.193 E.00591
M204 S1250
G1 E-2.24 F4200
;WIPE_START
G1 F7200
G1 X89.848 Y91.237 E-.15519
G1 X89.997 Y91.054 E-.13103
G1 X90.124 Y91.193 E-.10437
;WIPE_END
G1 E-.5694 F4200
G1 Z.4 F9000
G1 X87.625 Y91.238
G1 Z.2
G1 E3.2 F2400
M204 S800
G1 F1200
G1 X87.312 Y91.233 E.00984
G1 X87.457 Y91.054 E.00723
G1 X87.585 Y91.193 E.00592
M204 S1250
G1 X87.764 Y90.831 F9000
M204 S800
;TYPE:External perimeter
G1 F1200
G1 X87.705 Y90.644 E.00614
G1 X87.591 Y90.413 E.00808
G1 X87.525 Y90.123 E.00932
G1 X87.525 Y89.879 E.00764
G1 X87.573 Y89.641 E.00761
G1 X87.805 Y89.114 E.01805
G1 X88.002 Y88.91 E.0089
G1 X88.185 Y88.802 E.00664
G1 X88.437 Y88.708 E.00844
G1 X88.704 Y88.688 E.00841
G1 X89.085 Y88.723 E.012
G1 X89.34 Y88.837 E.00876
G1 X89.554 Y88.999 E.00839
G1 X89.698 Y89.175 E.00714
G1 X89.755 Y89.356 E.00594
G1 X89.869 Y89.587 E.00808
G1 X89.935 Y89.877 E.00932
G1 X89.935 Y90.118 E.00756
G1 X89.902 Y90.304 E.00594
G1 X89.693 Y90.831 E.01777
G1 X89.556 Y90.998 E.00676
G1 X89.395 Y91.13 E.00654
G1 X89.157 Y91.249 E.00834
G1 X88.953 Y91.301 E.0066
G1 X88.699 Y91.312 E.00798
G1 X88.437 Y91.292 E.00824
G1 X88.185 Y91.198 E.00844
G1 X88 Y91.088 E.00673
G1 X87.805 Y90.875 E.00906
M204 S1250
G1 X87.569 Y90.824 F9000
G1 E-2.24 F4200
;WIPE_START
G1 F7200
G1 X87.705 Y90.644 E-.13935
G1 X87.591 Y90.413 E-.14283
G1 X87.525 Y90.123 E-.16467
G1 X87.525 Y89.879 E-.1351
G1 X87.573 Y89.641 E-.13459
G1 X87.715 Y89.319 E-.19546
;WIPE_END
G1 E-.048 F4200
G1 Z.4 F9000
G1 X87.464 Y88.954
G1 Z.2
G1 E3.2 F2400
M204 S800
;TYPE:Perimeter
G1 F1200
G1 X87.312 Y88.767 E.00755
G1 X87.621 Y88.763 E.0097
G1 X87.489 Y88.9 E.00597
M204 S1250
G1 X87.395 Y90.118 F9000
M204 S800
;TYPE:External perimeter
G1 F1200
G1 X87.362 Y90.304 E.00594
G1 X87.153 Y90.831 E.01777
G1 X87.016 Y90.998 E.00676
G1 X86.855 Y91.13 E.00654
G1 X86.617 Y91.249 E.00834
G1 X86.412 Y91.302 E.00664
G1 X86.099 Y91.31 E.00982
G1 X85.792 Y91.276 E.00969
G1 X85.589 Y91.221 E.00659
G1 X85.339 Y91.092 E.00882
G1 X85.127 Y90.905 E.00886
G1 X84.957 Y90.678 E.00889
G1 X84.844 Y90.417 E.00891
G1 X84.786 Y90.141 E.00883
G1 X84.786 Y89.859 E.00886
G1 X84.844 Y89.583 E.00883
G1 X84.957 Y89.322 E.00891
G1 X85.127 Y89.095 E.00889
G1 X85.339 Y88.908 E.00886
G1 X85.591 Y88.778 E.00889
G1 X85.853 Y88.714 E.00845
G1 X86.164 Y88.688 E.00978
G1 X86.545 Y88.723 E.01202
G1 X86.8 Y88.837 E.00876
G1 X87.014 Y88.999 E.00839
G1 X87.158 Y89.175 E.00714
G1 X87.215 Y89.356 E.00594
G1 X87.329 Y89.587 E.00808
G1 X87.395 Y89.877 E.00932
G1 X87.395 Y90.058 E.00568
M204 S1250
G1 X87.551 Y90.225 F9000
G1 E-2.24 F4200
;WIPE_START
G1 F7200
G1 X87.362 Y90.304 E-.1378
G1 X87.153 Y90.831 E-.31402
G1 X87.016 Y90.998 E-.11952
G1 X86.855 Y91.13 E-.11551
G1 X86.617 Y91.249 E-.14748
G1 X86.481 Y91.284 E-.07767
;WIPE_END
G1 E-.048 F4200
G1 Z.4 F9000
G1 X84.917 Y88.778
G1 Z.2
G1 E3.2 F2400
M204 S800
;TYPE:Perimeter
G1 F1200
G1 X84.849 Y88.838 E.00286
G1 X84.707 Y89.027 E.00739
G1 X84.707 Y88.78 E.00774
G1 X84.857 Y88.778 E.0047
M204 S1250
G1 E-2.24 F4200
;WIPE_START
G1 F7200
G1 X84.849 Y88.838 E-.03349
G1 X84.707 Y89.027 E-.13063
G1 X84.707 Y88.78 E-.13674
G1 X84.857 Y88.778 E-.08305
;WIPE_END
G1 E-.57609 F4200
G1 Z.4 F9000
G1 X84.799 Y91.096
G1 Z.2
G1 E3.2 F2400
M204 S800
G1 F1200
G1 X84.917 Y91.222 E.00542
G1 X84.707 Y91.22 E.00658
G1 X84.707 Y90.973 E.00774
G1 X84.763 Y91.048 E.00292
M204 S1250
G1 X84.33 Y91.593 F9000
M204 S800
;TYPE:External perimeter
G1 F1200
G1 X84.33 Y88.407 E.09988
G1 X84.902 Y88.401 E.01794
G1 X85.876 Y88.324 E.03063
G1 X86.346 Y88.315 E.01474
G1 X87.318 Y88.39 E.03058
G1 X87.82 Y88.382 E.01575
G1 X88.784 Y88.312 E.03028
G1 X89.749 Y88.386 E.03035
G1 X90.251 Y88.386 E.01575
G1 X91.219 Y88.312 E.03043
G1 X92.177 Y88.382 E.03011
M73 P8 R5
G1 X92.682 Y88.39 E.01583
G1 X93.654 Y88.315 E.03058
G1 X94.124 Y88.324 E.01474
G1 X95.098 Y88.401 E.03063
G1 X95.67 Y88.407 E.01794
G1 X95.67 Y91.593 E.09988
G1 X95.098 Y91.599 E.01794
G1 X94.124 Y91.676 E.03063
G1 X93.654 Y91.685 E.01474
G1 X92.682 Y91.61 E.03058
G1 X92.18 Y91.618 E.01575
G1 X91.216 Y91.688 E.03028
G1 X90.251 Y91.614 E.03035
G1 X89.749 Y91.614 E.01575
G1 X88.784 Y91.688 E.03035
G1 X87.82 Y91.618 E.03028
G1 X87.318 Y91.61 E.01575
G1 X86.346 Y91.685 E.03058
G1 X85.876 Y91.676 E.01474
G1 X84.902 Y91.599 E.03063
G1 X84.39 Y91.593 E.01606
M204 S1250
G1 X84.536 Y91.25 F9000
G1 X84.64 Y90.797
M204 S800
;TYPE:Gap fill
;WIDTH:0.194412
G1 F1200
G1 X84.592 Y90.489 E.00392
M204 S1250
M204 S800
;WIDTH:0.189802
G1 X84.575 Y90.329 E.00197
M204 S1250
M204 S800
;WIDTH:0.156438
G1 X84.559 Y90.169 E.00152
M204 S1250
M204 S800
;WIDTH:0.123072
G1 X84.558 Y90.161 E.00006
M204 S1250
M204 S800
;WIDTH:0.122212
G1 X84.558 Y89.839 E.00212
M204 S1250
M204 S800
;WIDTH:0.123069
G1 X84.559 Y89.831 E.00006
M204 S1250
M204 S800
;WIDTH:0.156435
G1 X84.575 Y89.671 E.00152
M204 S1250
M204 S800
;WIDTH:0.1898
G1 X84.592 Y89.511 E.00197
M204 S1250
M204 S800
;WIDTH:0.194411
G1 X84.64 Y89.203 E.00392
M204 S1250
G1 X85.378 Y88.65 F9000
M204 S800
;WIDTH:0.117114
G1 F1200
G1 X85.478 Y88.582 E.00075
M204 S1250
M204 S800
;WIDTH:0.117115
G1 X85.51 Y88.573 E.0002
M204 S1250
M204 S800
;WIDTH:0.103984
G1 X85.517 Y88.571 E.00004
M204 S1250
M204 S800
;WIDTH:0.101984
G1 X85.595 Y88.559 E.00039
M204 S1250
G1 X86.949 Y88.621 F9000
M204 S800
;WIDTH:0.151433
G1 F1200
G1 X86.81 Y88.585 E.00129
M204 S1250
M204 S800
;WIDTH:0.122377
G1 X86.671 Y88.55 E.00095
M204 S1250
G1 X86.797 Y88.539 F9000
M204 S800
;WIDTH:0.120912
G1 F1200
G1 X86.919 Y88.644 E.00105
M204 S1250
M204 S800
;WIDTH:0.117803
G1 X87.012 Y88.733 E.0008
M204 S1250
G1 X87.378 Y89.18 F9000
M204 S800
;WIDTH:0.122655
G1 F1200
G1 X87.427 Y89.271 E.00068
M204 S1250
M204 S800
;WIDTH:0.135583
G1 X87.488 Y89.366 E.00087
M204 S1250
G1 X88.012 Y88.66 F9000
M204 S800
;WIDTH:0.111642
G1 F1200
G1 X88.086 Y88.602 E.00053
M204 S1250
M204 S800
;WIDTH:0.113878
G1 X88.091 Y88.598 E.00004
M204 S1250
M204 S800
;WIDTH:0.120816
G1 X88.104 Y88.59 E.0001
M204 S1250
M204 S800
;WIDTH:0.120817
G1 X88.223 Y88.564 E.00079
M204 S1250
G1 X89.491 Y88.624 F9000
M204 S800
;WIDTH:0.148723
G1 F1200
G1 X89.357 Y88.59 E.00121
M204 S1250
M204 S800
;WIDTH:0.121021
G1 X89.224 Y88.556 E.0009
M204 S1250
G1 X89.343 Y88.544 F9000
M204 S800
;WIDTH:0.120918
G1 F1200
G1 X89.459 Y88.644 E.001
M204 S1250
M204 S800
;WIDTH:0.117808
G1 X89.552 Y88.733 E.0008
M204 S1250
G1 X89.918 Y89.18 F9000
M204 S800
;WIDTH:0.122653
G1 F1200
G1 X89.967 Y89.271 E.00068
M204 S1250
M204 S800
;WIDTH:0.135584
G1 X90.028 Y89.366 E.00087
M204 S1250
G1 X90.552 Y88.66 F9000
M204 S800
;WIDTH:0.111637
G1 F1200
G1 X90.626 Y88.602 E.00053
M204 S1250
M204 S800
;WIDTH:0.113873
G1 X90.631 Y88.598 E.00004
M204 S1250
M204 S800
;WIDTH:0.124402
G1 X90.651 Y88.585 E.00016
M204 S1250
M204 S800
;WIDTH:0.1244
G1 X90.784 Y88.556 E.00092
M204 S1250
G1 X91.754 Y88.551 F9000
M204 S800
;WIDTH:0.120935
G1 F1200
G1 X91.893 Y88.588 E.00093
M204 S1250
M204 S800
;WIDTH:0.14855
G1 X92.032 Y88.625 E.00126
M204 S1250
G1 X92.092 Y88.733 F9000
M204 S800
;WIDTH:0.117794
G1 F1200
G1 X91.999 Y88.644 E.0008
M204 S1250
M204 S800
;WIDTH:0.120904
G1 X91.881 Y88.543 E.00101
M204 S1250
G1 X92.571 Y89.37 F9000
M204 S800
;WIDTH:0.136439
G1 F1200
G1 X92.507 Y89.271 E.00092
M204 S1250
M204 S800
;WIDTH:0.122657
G1 X92.458 Y89.18 E.00068
M204 S1250
G1 X93.092 Y88.66 F9000
M204 S800
;WIDTH:0.111646
G1 F1200
G1 X93.166 Y88.602 E.00053
M204 S1250
M204 S800
;WIDTH:0.113881
G1 X93.171 Y88.598 E.00004
M204 S1250
M204 S800
;WIDTH:0.127313
G1 X93.196 Y88.582 E.00021
M204 S1250
M204 S800
;WIDTH:0.127314
G1 X93.34 Y88.55 E.00103
M204 S1250
G1 X94.417 Y88.558 F9000
M204 S800
;WIDTH:0.133083
G1 F1200
G1 X94.555 Y88.593 E.00107
M204 S1250
M204 S800
;WIDTH:0.133083
G1 X94.67 Y88.67 E.00103
M204 S1250
G1 X95.36 Y89.2 F9000
M204 S800
;WIDTH:0.194412
G1 F1200
G1 X95.408 Y89.511 E.00396
M204 S1250
M204 S800
;WIDTH:0.189802
G1 X95.425 Y89.671 E.00197
M204 S1250
M204 S800
;WIDTH:0.156438
G1 X95.441 Y89.831 E.00152
M204 S1250
M204 S800
;WIDTH:0.123072
G1 X95.442 Y89.839 E.00006
M204 S1250
M204 S800
;WIDTH:0.122212
G1 X95.442 Y90.156 E.00209
M204 S1250
M204 S800
;WIDTH:0.122872
G1 X95.442 Y90.163 E.00005
M204 S1250
M204 S800
;WIDTH:0.168739
G1 X95.419 Y90.414 E.00263
M204 S1250
M204 S800
;WIDTH:0.171774
G1 X95.417 Y90.425 E.00012
M204 S1250
M204 S800
;WIDTH:0.219536
G1 X95.383 Y90.613 E.0028
M204 S1250
M204 S800
;WIDTH:0.267299
G1 X95.349 Y90.8 E.00356
M204 S1250
G1 X94.554 Y91.453 F9000
M204 S800
;WIDTH:0.101869
G1 F1200
G1 X94.719 Y91.316 E.00105
M204 S1250
M204 S800
;WIDTH:0.0996346
G1 X94.763 Y91.274 E.00029
M204 S1250
G1 X94.71 Y91.368 F9000
M204 S800
;WIDTH:0.153772
G1 F1200
G1 X94.564 Y91.405 E.00139
M204 S1250
M204 S800
;WIDTH:0.123546
G1 X94.417 Y91.442 E.00101
M204 S1250
G1 X93.34 Y91.45 F9000
M204 S800
;WIDTH:0.130996
G1 F1200
G1 X93.183 Y91.415 E.00117
M204 S1250
M204 S800
;WIDTH:0.130997
G1 X93.169 Y91.406 E.00012
M204 S1250
M204 S800
;WIDTH:0.123024
G1 X93.163 Y91.402 E.00005
M204 S1250
M204 S800
;WIDTH:0.120308
G1 X93.073 Y91.328 E.00075
M204 S1250
G1 X92.631 Y90.848 F9000
M204 S800
;WIDTH:0.139911
G1 F1200
