; generated by PrusaSlicer 2.4.0 on 2021-12-24 at 11:53:26 UTC


;
;

;
;
; 

; external perimeters extrusion width = 0.45mm
; perimeters extrusion width = 0.45mm
; infill extrusion width = 0.45mm
; solid infill extrusion width = 0.45mm
; top infill extrusion width = 0.40mm
; first layer extrusion width = 0.42mm

M73 P0 R5
M201 X1250 Y1250 Z400 E5000 ; sets maximum accelerations, mm/sec^2
M203 X180 Y180 Z12 E80 ; sets maximum feedrates, mm/sec
M204 P1250 R1250 T1250 ; sets acceleration (P, T) and retract acceleration (R), mm/sec^2
M205 X8.00 Y8.00 Z2.00 E10.00 ; sets the jerk limits, mm/sec
M205 S0 T0 ; sets the minimum extruding and travel feed rate, mm/sec
M107
;TYPE:Custom
G90 ; use absolute coordinates
M83 ; extruder relative mode
M104 S170 ; set extruder temp for bed leveling
M140 S60 ; set bed temp
M109 R170 ; wait for bed leveling temp
M190 S60 ; wait for bed temp
G28 ; home all without mesh bed level
G29 ; mesh bed leveling 
M104 S215 ; set extruder temp
G92 E0.0
G1 Y-2.0 X179 F2400
G1 Z3 F720
M109 S215 ; wait for extruder temp

; intro line
M73 P1 R5
G1 X170 F1000
G1 Z0.2 F720
G1 X110.0 E8.0 F900
G1 X40.0 E10.0 F700
G92 E0.0

M221 S95 ; set flow
G21 ; set units to millimeters
G90 ; use absolute coordinates
M83 ; use relative distances for extrusion
M900 K0.2 ; Filament gcode LA 1.5
; ; Filament gcode LA 1.0
M107
;LAYER_CHANGE
;Z:0.2
;HEIGHT:0.2
;BEFORE_LAYER_CHANGE
G92 E0.0
;0.2


M73 P2 R5
G1 E-3.2 F4200
M73 P4 R5
G1 Z.2 F9000
;AFTER_LAYER_CHANGE
;0.2
G1 Z.4
G1 X81.944 Y85.692
G1 Z.2
G1 E3.2 F2400
M204 S800
;TYPE:Skirt/Brim
;WIDTH:0.42
G1 F1200
G1 X83.6 Y85.219 E.054
G1 X96.4 Y85.219 E.40134
G1 X97.92 Y85.612 E.04923
M73 P5 R5
G1 X99.058 Y86.694 E.04923
G1 X99.531 Y88.35 E.054
G1 X99.531 Y91.65 E.10347
G1 X99.138 Y93.17 E.04923
G1 X98.056 Y94.308 E.04923
G1 X96.4 Y94.781 E.054
G1 X83.6 Y94.781 E.40134
G1 X82.08 Y94.388 E.04923
G1 X80.942 Y93.306 E.04923
G1 X80.469 Y91.65 E.054
G1 X80.469 Y88.35 E.10347
G1 X80.862 Y86.83 E.04923
G1 X81.903 Y85.736 E.04735
M204 S1250
G1 X82.185 Y86.033 F9000
M204 S800
G1 F1200
G1 X82.305 Y85.919 E.00517
G1 X83.6 Y85.596 E.04186
G1 X96.4 Y85.596 E.40134
G1 X97.817 Y85.989 E.04612
G1 X98.831 Y87.055 E.04612
G1 X99.154 Y88.35 E.04186
G1 X99.154 Y91.65 E.10347
G1 X98.761 Y93.067 E.04612
G1 X97.695 Y94.081 E.04612
G1 X96.4 Y94.404 E.04186
G1 X83.6 Y94.404 E.40134
G1 X82.183 Y94.011 E.04612
M73 P6 R5
G1 X81.169 Y92.945 E.04612
G1 X80.846 Y91.65 E.04186
G1 X80.846 Y88.35 E.10347
G1 X81.239 Y86.933 E.04612
G1 X82.142 Y86.074 E.03907
M204 S1250
G1 X82.401 Y86.384 F9000
M204 S800
G1 F1200
G1 X82.66 Y86.167 E.0106
G1 X83.6 Y85.973 E.03008
G1 X96.4 Y85.973 E.40134
G1 X97.707 Y86.365 E.04278
G1 X98.583 Y87.41 E.04278
G1 X98.777 Y88.35 E.03008
G1 X98.777 Y91.65 E.10347
G1 X98.385 Y92.957 E.04278
G1 X97.34 Y93.833 E.04278
G1 X96.4 Y94.027 E.03008
G1 X83.6 Y94.027 E.40134
G1 X82.293 Y93.635 E.04278
G1 X81.417 Y92.59 E.04278
G1 X81.223 Y91.65 E.03008
G1 X81.223 Y88.35 E.10347
G1 X81.615 Y87.043 E.04278
G1 X82.355 Y86.422 E.0303
M204 S1250
; printing object JST-PH_housing-6_way.stl id:0 copy 0
G1 E-2.24 F4200
;WIPE_START
G1 F7200
M73 P7 R5
G1 X82.66 Y86.167 E-.22062
G1 X83.6 Y85.973 E-.53172
G1 X83.888 Y85.973 E-.15966
;WIPE_END
G1 E-.048 F4200
G1 Z.4 F9000
G1 X90.177 Y89.801
G1 Z.2
G1 E3.2 F2400
M204 S800
;TYPE:External perimeter
G1 F1200
G1 X91 Y89.754 E.02584
G1 X91.823 Y89.801 E.02584
G1 X91.777 Y90.62 E.02573
G1 X91.683 Y91.31 E.02183
G1 X90.317 Y91.31 E.04285
G1 X90.223 Y90.62 E.02183
G1 X90.181 Y89.861 E.02385
M204 S1250
G1 X90.15 Y89.402 F9000
G1 E-2.24 F4200
;WIPE_START
G1 F7200
G1 X91 Y89.754 E-.45789
G1 X91.818 Y89.8 E-.45411
;WIPE_END
G1 E-.048 F4200
G1 Z.4 F9000
G1 X92.177 Y89.801
G1 Z.2
G1 E3.2 F2400
M204 S800
G1 F1200
G1 X93 Y89.754 E.02584
G1 X93.823 Y89.801 E.02584
G1 X93.777 Y90.62 E.02573
G1 X93.683 Y91.31 E.02183
G1 X92.317 Y91.31 E.04285
G1 X92.223 Y90.62 E.02183
G1 X92.181 Y89.861 E.02385
M204 S1250
G1 X92.15 Y89.402 F9000
G1 E-2.24 F4200
;WIPE_START
G1 F7200
G1 X93 Y89.754 E-.45789
G1 X93.818 Y89.8 E-.45411
;WIPE_END
G1 E-.048 F4200
G1 Z.4 F9000
G1 X94.177 Y89.795
G1 Z.2
G1 E3.2 F2400
M204 S800
G1 F1200
G1 X95.01 Y89.771 E.02612
G1 X95.771 Y89.864 E.02404
G1 X95.7 Y91.31 E.0454
G1 X94.317 Y91.31 E.04337
G1 X94.223 Y90.62 E.02183
G1 X94.18 Y89.855 E.02403
M204 S1250
G1 X94.157 Y89.395 F9000
G1 E-2.24 F4200
;WIPE_START
G1 F7200
G1 X95.01 Y89.771 E-.46203
G1 X95.771 Y89.864 E-.42485
G1 X95.769 Y89.909 E-.02511
;WIPE_END
G1 E-.048 F4200
G1 Z.4 F9000
G1 X95.656 Y89.362
G1 Z.2
G1 E3.2 F2400
M204 S800
;TYPE:Perimeter
G1 F1200
G1 X95.674 Y89.472 E.0035
G1 X95.027 Y89.393 E.02043
G1 X93.88 Y89.426 E.03598
G1 X93 Y89.377 E.02764
G1 X92 Y89.433 E.0314
G1 X91 Y89.377 E.0314
G1 X90 Y89.433 E.0314
G1 X89 Y89.377 E.0314
G1 X88 Y89.433 E.0314
G1 X87 Y89.377 E.0314
G1 X86.12 Y89.426 E.02764
G1 X84.973 Y89.393 E.03598
G1 X84.326 Y89.472 E.02043
G1 X84.356 Y89.137 E.01055
G1 X95.64 Y89.137 E.35379
G1 X95.651 Y89.302 E.00519
M204 S1250
M73 P8 R5
G1 E-2.24 F4200
;WIPE_START
G1 F7200
G1 X95.674 Y89.472 E-.09503
G1 X95.027 Y89.393 E-.36106
G1 X94.205 Y89.417 E-.45591
;WIPE_END
G1 E-.048 F4200
G1 Z.4 F9000
G1 X89.823 Y89.801
G1 Z.2
G1 E3.2 F2400
M204 S800
;TYPE:External perimeter
G1 F1200
G1 X89.777 Y90.62 E.02573
G1 X89.683 Y91.31 E.02183
G1 X88.317 Y91.31 E.04285
G1 X88.223 Y90.62 E.02183
G1 X88.177 Y89.801 E.02573
G1 X89 Y89.754 E.02584
G1 X89.763 Y89.797 E.02396
M204 S1250
G1 X90.222 Y89.815 F9000
G1 E-2.24 F4200
;WIPE_START
G1 F7200
G1 X89.777 Y90.62 E-.45601
G1 X89.683 Y91.31 E-.3859
G1 X89.557 Y91.31 E-.0701
;WIPE_END
G1 E-.048 F4200
G1 Z.4 F9000
G1 X87.823 Y89.801
G1 Z.2
G1 E3.2 F2400
M204 S800
G1 F1200
G1 X87.777 Y90.62 E.02573
G1 X87.683 Y91.31 E.02183
G1 X86.317 Y91.31 E.04285
G1 X86.223 Y90.62 E.02183
G1 X86.177 Y89.801 E.02573
G1 X87 Y89.754 E.02584
G1 X87.763 Y89.797 E.02396
M204 S1250
G1 X88.222 Y89.815 F9000
G1 E-2.24 F4200
;WIPE_START
G1 F7200
G1 X87.777 Y90.62 E-.45601
G1 X87.683 Y91.31 E-.3859
G1 X87.557 Y91.31 E-.0701
;WIPE_END
G1 E-.048 F4200
G1 Z.4 F9000
G1 X85.823 Y89.795
G1 Z.2
G1 E3.2 F2400
M204 S800
G1 F1200
G1 X85.777 Y90.62 E.02591
G1 X85.683 Y91.31 E.02183
G1 X84.3 Y91.31 E.04337
G1 X84.229 Y89.864 E.0454
G1 X84.99 Y89.771 E.02404
G1 X85.763 Y89.793 E.02424
M204 S1250
G1 X86.223 Y89.804 F9000
G1 E-2.24 F4200
;WIPE_START
G1 F7200
G1 X85.777 Y90.62 E-.45831
G1 X85.683 Y91.31 E-.3859
G1 X85.561 Y91.31 E-.0678
;WIPE_END
G1 E-.048 F4200
G1 Z.4 F9000
G1 X83.997 Y88.76
G1 Z.2
G1 E3.2 F2400
M204 S800
G1 F1200
G1 X95.996 Y88.76 E.37621
G1 X96.03 Y89.318 E.01752
M73 P9 R5
G1 X96.109 Y89.788 E.01497
G1 X96.138 Y90.242 E.01424
G1 X96.131 Y91.41 E.03665
G1 X95.895 Y91.44 E.00746
G1 X84.105 Y91.44 E.36964
G1 X83.869 Y91.41 E.00746
G1 X83.862 Y90.242 E.03665
G1 X83.891 Y89.788 E.01424
G1 X83.97 Y89.315 E.01504
G1 X83.994 Y88.82 E.01556
M204 S1250
G1 X84.336 Y88.972 F9000
G1 E-2.24 F4200
;WIPE_START
G1 F7200
G1 X85.64 Y88.811 E-.912
;WIPE_END
G1 E-.048 F4200
G1 Z.4 F9000
G1 X86 Y90.44
G1 Z.2
G1 E3.2 F2400
M204 S800
;TYPE:Gap fill
;WIDTH:0.112675
G1 F1200
G1 X86 Y90.64 E.00116
M204 S1250
M204 S800
;WIDTH:0.113212
G1 X86 Y90.643 E.00002
M204 S1250
M204 S800
;WIDTH:0.158699
G1 X86 Y90.846 E.00195
M204 S1250
M204 S800
;WIDTH:0.204186
G1 X86 Y91.049 E.00272
M204 S1250
M204 S800
;WIDTH:0.249673
G1 X86 Y91.251 E.00349
M204 S1250
G1 E-2.24 F4200
;WIPE_START
G1 F7200
G1 X86 Y91.049 E-.11245
;WIPE_END
G1 E-.84755 F4200
G1 Z.4 F9000
G1 X88 Y90.44
G1 Z.2
G1 E3.2 F2400
M204 S800
;WIDTH:0.112675
G1 F1200
G1 X88 Y90.64 E.00116
M204 S1250
M204 S800
;WIDTH:0.113212
G1 X88 Y90.643 E.00002
M204 S1250
M204 S800
;WIDTH:0.158699
G1 X88 Y90.846 E.00195
M204 S1250
M204 S800
;WIDTH:0.204186
G1 X88 Y91.049 E.00272
M204 S1250
M204 S800
;WIDTH:0.249673
G1 X88 Y91.251 E.00349
M204 S1250
G1 E-2.24 F4200
;WIPE_START
G1 F7200
G1 X88 Y91.049 E-.11245
;WIPE_END
G1 E-.84755 F4200
G1 Z.4 F9000
G1 X90 Y91.251
G1 Z.2
G1 E3.2 F2400
M204 S800
G1 F1200
G1 X90 Y91.049 E.00349
M204 S1250
M204 S800
;WIDTH:0.204186
G1 X90 Y90.846 E.00272
M204 S1250
M204 S800
;WIDTH:0.158699
G1 X90 Y90.643 E.00195
M204 S1250
M204 S800
;WIDTH:0.113212
G1 X90 Y90.64 E.00002
M204 S1250
M204 S800
;WIDTH:0.112675
G1 X90 Y90.44 E.00116
M204 S1250
G1 E-2.24 F4200
;WIPE_START
G1 F7200
G1 X90 Y90.64 E-.1109
;WIPE_END
G1 E-.8491 F4200
G1 Z.4 F9000
G1 X92 Y90.44
G1 Z.2
G1 E3.2 F2400
M204 S800
G1 F1200
G1 X92 Y90.64 E.00116
M204 S1250
M204 S800
;WIDTH:0.113212
G1 X92 Y90.643 E.00002
M204 S1250
M204 S800
;WIDTH:0.158699
G1 X92 Y90.846 E.00195
M204 S1250
M204 S800
;WIDTH:0.204186
G1 X92 Y91.049 E.00272
M204 S1250
M204 S800
;WIDTH:0.249673
G1 X92 Y91.251 E.00349
M204 S1250
G1 E-2.24 F4200
;WIPE_START
G1 F7200
G1 X92 Y91.049 E-.11245
;WIPE_END
G1 E-.84755 F4200
G1 Z.4 F9000
G1 X94 Y91.251
G1 Z.2
G1 E3.2 F2400
M204 S800
G1 F1200
G1 X94 Y91.049 E.00349
M204 S1250
M204 S800
;WIDTH:0.204186
G1 X94 Y90.846 E.00272
M204 S1250
M204 S800
;WIDTH:0.158699
G1 X94 Y90.643 E.00195
M204 S1250
M204 S800
;WIDTH:0.113212
G1 X94 Y90.64 E.00002
M204 S1250
M204 S800
;WIDTH:0.112675
G1 X94 Y90.44 E.00116
M204 S1250
; stop printing object JST-PH_housing-6_way.stl id:0 copy 0
M106 S84.15
;LAYER_CHANGE
;Z:0.4
;HEIGHT:0.2
;BEFORE_LAYER_CHANGE
G92 E0.0
;0.4


G1 E-2.24 F4200
;WIPE_START
G1 F7200
G1 X94 Y90.64 E-.1109
;WIPE_END
G1 E-.8491 F4200
G1 Z.4 F9000
;AFTER_LAYER_CHANGE
;0.4
G1 Z.6
G1 X94 Y94.781
G1 Z.4
G1 E3.2 F2400
;TYPE:Skirt/Brim
;WIDTH:0.42
G1 F1394
G1 X83.6 Y94.781 E.32608
G1 X82.08 Y94.388 E.04923
M73 P10 R5
G1 X80.942 Y93.306 E.04923
G1 X80.469 Y91.65 E.054
G1 X80.469 Y88.35 E.10347
G1 X80.862 Y86.83 E.04923
G1 X81.944 Y85.692 E.04923
G1 X83.6 Y85.219 E.054
G1 X96.4 Y85.219 E.40134
G1 X97.92 Y85.612 E.04923
G1 X99.058 Y86.694 E.04923
G1 X99.531 Y88.35 E.054
G1 X99.531 Y91.65 E.10347
G1 X99.138 Y93.17 E.04923
G1 X98.056 Y94.308 E.04923
G1 X96.4 Y94.781 E.054
G1 X94.06 Y94.781 E.07337
G1 X94.06 Y94.404 F9000
G1 F1394
G1 X83.6 Y94.404 E.32797
G1 X82.183 Y94.011 E.04612
G1 X81.169 Y92.945 E.04612
G1 X80.846 Y91.65 E.04186
G1 X80.846 Y88.35 E.10347
G1 X81.239 Y86.933 E.04612
G1 X82.305 Y85.919 E.04612
G1 X83.6 Y85.596 E.04186
G1 X96.4 Y85.596 E.40134
G1 X97.817 Y85.989 E.04612
M73 P11 R5
G1 X98.831 Y87.055 E.04612
G1 X99.154 Y88.35 E.04186
G1 X99.154 Y91.65 E.10347
G1 X98.761 Y93.067 E.04612
G1 X97.695 Y94.081 E.04612
G1 X96.4 Y94.404 E.04186
G1 X94.12 Y94.404 E.07149
G1 X94.12 Y94.027 F9000
G1 F1394
G1 X83.6 Y94.027 E.32985
G1 X82.293 Y93.635 E.04278
G1 X81.417 Y92.59 E.04278
G1 X81.223 Y91.65 E.03008
G1 X81.223 Y88.35 E.10347
G1 X81.615 Y87.043 E.04278
G1 X82.66 Y86.167 E.04278
G1 X83.6 Y85.973 E.03008
G1 X96.4 Y85.973 E.40134
G1 X97.707 Y86.365 E.04278
G1 X98.583 Y87.41 E.04278
G1 X98.777 Y88.35 E.03008
G1 X98.777 Y91.65 E.10347
G1 X98.385 Y92.957 E.04278
G1 X97.34 Y93.833 E.04278
G1 X96.4 Y94.027 E.03008
G1 X94.18 Y94.027 E.06961
; printing object JST-PH_housing-6_way.stl id:0 copy 0
G1 E-2.24 F4200
;WIPE_START
G1 F7200
G1 X92.534 Y94.027 E-.912
;WIPE_END
G1 E-.048 F4200
G1 Z.6 F9000
G1 X91.725 Y91.325
G1 Z.4
G1 E3.2 F2400
M204 S800
;TYPE:External perimeter
;WIDTH:0.45
G1 F1394
G1 X90.275 Y91.325 E.04908
G1 X90.275 Y89.875 E.04908
M73 P12 R5
G1 X91.725 Y89.875 E.04908
G1 X91.725 Y91.265 E.04705
M204 S1250
G1 X91.829 Y91.711 F9000
G1 X92.275 Y91.325
M204 S800
G1 F1394
G1 X92.275 Y89.875 E.04908
G1 X93.725 Y89.875 E.04908
G1 X93.725 Y91.325 E.04908
G1 X92.335 Y91.325 E.04705
M204 S1250
G1 X91.889 Y91.429 F9000
G1 E-2.24 F4200
;WIPE_START
G1 F7200
G1 X92.275 Y89.875 E-.80423
G1 X92.469 Y89.875 E-.10777
;WIPE_END
G1 E-.048 F4200
G1 Z.6 F9000
G1 X94.275 Y91.325
G1 Z.4
G1 E3.2 F2400
M204 S800
G1 F1394
G1 X94.275 Y89.875 E.04908
G1 X95.725 Y89.875 E.04908
G1 X95.725 Y91.325 E.04908
G1 X94.335 Y91.325 E.04705
M204 S1250
G1 X93.889 Y91.429 F9000
G1 E-2.24 F4200
;WIPE_START
G1 F7200
G1 X94.275 Y89.875 E-.80423
G1 X94.469 Y89.875 E-.10777
;WIPE_END
G1 E-.048 F4200
G1 Z.6 F9000
G1 X95.768 Y89.468
G1 Z.4
G1 E3.2 F2400
M204 S800
;TYPE:Perimeter
G1 F1394
G1 X84.232 Y89.468 E.39047
G1 X84.232 Y88.982 E.01645
G1 X95.768 Y88.982 E.39047
G1 X95.768 Y89.408 E.01441
M204 S1250
G1 E-2.24 F4200
;WIPE_START
G1 F7200
G1 X94.122 Y89.416 E-.912
;WIPE_END
G1 E-.048 F4200
G1 Z.6 F9000
G1 X89.725 Y89.875
G1 Z.4
G1 E3.2 F2400
M204 S800
;TYPE:External perimeter
G1 F1394
G1 X89.725 Y91.325 E.04908
G1 X88.275 Y91.325 E.04908
M73 P12 R4
G1 X88.275 Y89.875 E.04908
G1 X89.665 Y89.875 E.04705
M204 S1250
G1 X90.111 Y89.771 F9000
M73 P13 R4
G1 E-2.24 F4200
;WIPE_START
G1 F7200
G1 X89.725 Y91.325 E-.80423
G1 X89.531 Y91.325 E-.10777
;WIPE_END
G1 E-.048 F4200
G1 Z.6 F9000
G1 X87.725 Y89.875
G1 Z.4
G1 E3.2 F2400
M204 S800
G1 F1394
G1 X87.725 Y91.325 E.04908
G1 X86.275 Y91.325 E.04908
G1 X86.275 Y89.875 E.04908
G1 X87.665 Y89.875 E.04705
M204 S1250
G1 X88.111 Y89.771 F9000
G1 E-2.24 F4200
;WIPE_START
G1 F7200
G1 X87.725 Y91.325 E-.80423
G1 X87.531 Y91.325 E-.10777
;WIPE_END
G1 E-.048 F4200
G1 Z.6 F9000
G1 X85.725 Y89.875
G1 Z.4
G1 E3.2 F2400
M204 S800
G1 F1394
G1 X85.725 Y91.325 E.04908
G1 X84.275 Y91.325 E.04908
G1 X84.275 Y89.875 E.04908
G1 X85.665 Y89.875 E.04705
M204 S1250
G1 X86.111 Y89.771 F9000
G1 E-2.24 F4200
;WIPE_START
G1 F7200
G1 X85.725 Y91.325 E-.80423
G1 X85.531 Y91.325 E-.10777
;WIPE_END
G1 E-.048 F4200
G1 Z.6 F9000
G1 X83.825 Y88.575
G1 Z.4
G1 E3.2 F2400
M204 S800
G1 F1394
G1 X96.175 Y88.575 E.41803
G1 X96.175 Y91.425 E.09647
G1 X83.825 Y91.425 E.41803
G1 X83.825 Y88.635 E.09444
M204 S1250
G1 X84.224 Y88.605 F9000
G1 X84.436 Y89.225
;TYPE:Gap fill
;WIDTH:0.121684
G1 F1394
G1 X95.564 Y89.225 E.07289
G1 E-2.24 F4200
;WIPE_START
M73 P14 R4
G1 F7200
G1 X93.919 Y89.225 E-.912
;WIPE_END
G1 E-.048 F4200
G1 Z.6 F9000
G1 X94 Y89.671
G1 Z.4
G1 E3.2 F2400
;WIDTH:0.185842
G1 F1394
G1 X94 Y91.221 E.01842
G1 E-2.24 F4200
;WIPE_START
G1 F7200
G1 X94 Y89.671 E-.85895
;WIPE_END
G1 E-.10105 F4200
G1 Z.6 F9000
G1 X92 Y91.221
G1 Z.4
G1 E3.2 F2400
G1 F1394
G1 X92 Y89.671 E.01842
G1 E-2.24 F4200
;WIPE_START
G1 F7200
G1 X92 Y91.221 E-.85895
;WIPE_END
G1 E-.10105 F4200
G1 Z.6 F9000
G1 X90 Y89.671
G1 Z.4
G1 E3.2 F2400
;WIDTH:0.185844
G1 F1394
G1 X90 Y91.221 E.01842
G1 E-2.24 F4200
;WIPE_START
G1 F7200
G1 X90 Y89.671 E-.85895
;WIPE_END
G1 E-.10105 F4200
G1 Z.6 F9000
G1 X88 Y91.221
G1 Z.4
G1 E3.2 F2400
;WIDTH:0.185842
G1 F1394
G1 X88 Y89.671 E.01842
G1 E-2.24 F4200
;WIPE_START
G1 F7200
G1 X88 Y91.221 E-.85895
;WIPE_END
G1 E-.10105 F4200
G1 Z.6 F9000
G1 X86 Y89.671
G1 Z.4
G1 E3.2 F2400
G1 F1394
G1 X86 Y91.221 E.01842
; stop printing object JST-PH_housing-6_way.stl id:0 copy 0
M106 S170.85
;LAYER_CHANGE
;Z:0.6
;HEIGHT:0.2
;BEFORE_LAYER_CHANGE
G92 E0.0
;0.6


G1 E-2.24 F4200
;WIPE_START
G1 F7200
G1 X86 Y89.671 E-.85895
;WIPE_END
G1 E-.10105 F4200
G1 Z.6 F9000
;AFTER_LAYER_CHANGE
;0.6
G1 Z.8
G1 X86 Y85.219
G1 Z.6
G1 E3.2 F2400
;TYPE:Skirt/Brim
;WIDTH:0.42
G1 F1425
G1 X96.4 Y85.219 E.32608
G1 X97.92 Y85.612 E.04923
G1 X99.058 Y86.694 E.04923
M73 P15 R4
G1 X99.531 Y88.35 E.054
G1 X99.531 Y91.65 E.10347
G1 X99.138 Y93.17 E.04923
G1 X98.056 Y94.308 E.04923
G1 X96.4 Y94.781 E.054
G1 X83.6 Y94.781 E.40134
G1 X82.08 Y94.388 E.04923
G1 X80.942 Y93.306 E.04923
G1 X80.469 Y91.65 E.054
G1 X80.469 Y88.35 E.10347
G1 X80.862 Y86.83 E.04923
G1 X81.944 Y85.692 E.04923
G1 X83.6 Y85.219 E.054
G1 X85.94 Y85.219 E.07337
G1 X85.94 Y85.596 F9000
G1 F1425
G1 X96.4 Y85.596 E.32797
G1 X97.817 Y85.989 E.04612
G1 X98.831 Y87.055 E.04612
G1 X99.154 Y88.35 E.04186
G1 X99.154 Y91.65 E.10347
G1 X98.761 Y93.067 E.04612
G1 X97.695 Y94.081 E.04612
G1 X96.4 Y94.404 E.04186
G1 X83.6 Y94.404 E.40134
G1 X82.183 Y94.011 E.04612
G1 X81.169 Y92.945 E.04612
G1 X80.846 Y91.65 E.04186
G1 X80.846 Y88.35 E.10347
G1 X81.239 Y86.933 E.04612
M73 P16 R4
G1 X82.305 Y85.919 E.04612
G1 X83.6 Y85.596 E.04186
G1 X85.88 Y85.596 E.07149
G1 X85.88 Y85.973 F9000
G1 F1425
G1 X96.4 Y85.973 E.32985
G1 X97.707 Y86.365 E.04278
G1 X98.583 Y87.41 E.04278
G1 X98.777 Y88.35 E.03008
G1 X98.777 Y91.65 E.10347
G1 X98.385 Y92.957 E.04278
G1 X97.34 Y93.833 E.04278
G1 X96.4 Y94.027 E.03008
G1 X83.6 Y94.027 E.40134
G1 X82.293 Y93.635 E.04278
G1 X81.417 Y92.59 E.04278
