;Generated 2023-11-18 16:05:12.973809;stock OD:10 stock Height 30
;SET TOOL T4  (6mm DIA)
;SET STOCK TO TOOL TIP AT A90 B0 X0 Y0 Z30
;job top Z:27

G21 G90 F100 S10000
G49
G0 Z0
A90 B0
M6 T4
G43 H4

G0 Z32
G0 X14.5 Y0
G0 Z29.5
G3 X-13.0 Y0 I-13.75
G3 X11.5 Y0 I12.25
G3 X-10.0 Y0 I-10.75
G3 X8.5 Y0 I9.25
G3 X-7.0 Y0 I-7.75
G3 X5.5 Y0 I6.25
G3 X-4.0 Y0 I-4.75
G3 X2.5 Y0 I3.25
G3 X-1.0 Y0 I-1.75
G0 Z31.5
G0 X14.5 Y0
G0 Z29.0
G3 X-13.0 Y0 I-13.75
G3 X11.5 Y0 I12.25
G3 X-10.0 Y0 I-10.75
G3 X8.5 Y0 I9.25
G3 X-7.0 Y0 I-7.75
G3 X5.5 Y0 I6.25
G3 X-4.0 Y0 I-4.75
G3 X2.5 Y0 I3.25
G3 X-1.0 Y0 I-1.75
G0 Z31.0
G0 X14.5 Y0
G0 Z28.5
G3 X-13.0 Y0 I-13.75
G3 X11.5 Y0 I12.25
G3 X-10.0 Y0 I-10.75
G3 X8.5 Y0 I9.25
G3 X-7.0 Y0 I-7.75
G3 X5.5 Y0 I6.25
G3 X-4.0 Y0 I-4.75
G3 X2.5 Y0 I3.25
G3 X-1.0 Y0 I-1.75
G0 Z30.5
G0 X14.5 Y0
G0 Z28.0
G3 X-13.0 Y0 I-13.75
G3 X11.5 Y0 I12.25
G3 X-10.0 Y0 I-10.75
G3 X8.5 Y0 I9.25
G3 X-7.0 Y0 I-7.75
G3 X5.5 Y0 I6.25
G3 X-4.0 Y0 I-4.75
G3 X2.5 Y0 I3.25
G3 X-1.0 Y0 I-1.75
G0 Z30.0
G0 X14.5 Y0
G0 Z27.5
G3 X-13.0 Y0 I-13.75
G3 X11.5 Y0 I12.25
G3 X-10.0 Y0 I-10.75
G3 X8.5 Y0 I9.25
G3 X-7.0 Y0 I-7.75
G3 X5.5 Y0 I6.25
G3 X-4.0 Y0 I-4.75
G3 X2.5 Y0 I3.25
G3 X-1.0 Y0 I-1.75
G0 Z29.5
G0 X14.5 Y0
G0 Z27.0
G3 X-13.0 Y0 I-13.75
G3 X11.5 Y0 I12.25
G3 X-10.0 Y0 I-10.75
G3 X8.5 Y0 I9.25
G3 X-7.0 Y0 I-7.75
G3 X5.5 Y0 I6.25
G3 X-4.0 Y0 I-4.75
G3 X2.5 Y0 I3.25
G3 X-1.0 Y0 I-1.75
G0 Z29.0
M5
G49
 G0 Z0
G0 X0 Y0
M30
