;Generated 2023-11-19 12:06:17.938777;stock OD:10 stock Height 30
;SET TOOL T6  (3mm DIA)
;SET STOCK TO TOOL TIP AT A90 B0 X0 Y0 Z30
;job top Z:27

G21 G90 F100 S10000
G49
G0 Z0
A90 B0
M6 T6
G43 H6

G0 Z32
G0 X12.25 Y0
G0 Z29.5
G3 X-11.5 Y0 I-11.875
G3 X10.75 Y0 I11.125
G3 X-10.0 Y0 I-10.375
G3 X9.25 Y0 I9.625
G3 X-8.5 Y0 I-8.875
G3 X7.75 Y0 I8.125
G3 X-7.0 Y0 I-7.375
G3 X6.25 Y0 I6.625
G3 X-5.5 Y0 I-5.875
G3 X4.75 Y0 I5.125
G3 X-4.0 Y0 I-4.375
G3 X3.25 Y0 I3.625
G3 X-2.5 Y0 I-2.875
G3 X1.75 Y0 I2.125
G3 X-1.0 Y0 I-1.375
G3 X0.25 Y0 I0.625
G0 Z31.5
G0 X12.25 Y0
G0 Z29.0
G3 X-11.5 Y0 I-11.875
G3 X10.75 Y0 I11.125
G3 X-10.0 Y0 I-10.375
G3 X9.25 Y0 I9.625
G3 X-8.5 Y0 I-8.875
G3 X7.75 Y0 I8.125
G3 X-7.0 Y0 I-7.375
G3 X6.25 Y0 I6.625
G3 X-5.5 Y0 I-5.875
G3 X4.75 Y0 I5.125
G3 X-4.0 Y0 I-4.375
G3 X3.25 Y0 I3.625
G3 X-2.5 Y0 I-2.875
G3 X1.75 Y0 I2.125
G3 X-1.0 Y0 I-1.375
G3 X0.25 Y0 I0.625
G0 Z31.0
G0 X12.25 Y0
G0 Z28.5
G3 X-11.5 Y0 I-11.875
G3 X10.75 Y0 I11.125
G3 X-10.0 Y0 I-10.375
G3 X9.25 Y0 I9.625
G3 X-8.5 Y0 I-8.875
G3 X7.75 Y0 I8.125
G3 X-7.0 Y0 I-7.375
G3 X6.25 Y0 I6.625
G3 X-5.5 Y0 I-5.875
G3 X4.75 Y0 I5.125
G3 X-4.0 Y0 I-4.375
G3 X3.25 Y0 I3.625
G3 X-2.5 Y0 I-2.875
G3 X1.75 Y0 I2.125
G3 X-1.0 Y0 I-1.375
G3 X0.25 Y0 I0.625
G0 Z30.5
G0 X12.25 Y0
G0 Z28.0
G3 X-11.5 Y0 I-11.875
G3 X10.75 Y0 I11.125
G3 X-10.0 Y0 I-10.375
G3 X9.25 Y0 I9.625
G3 X-8.5 Y0 I-8.875
G3 X7.75 Y0 I8.125
G3 X-7.0 Y0 I-7.375
G3 X6.25 Y0 I6.625
G3 X-5.5 Y0 I-5.875
G3 X4.75 Y0 I5.125
G3 X-4.0 Y0 I-4.375
G3 X3.25 Y0 I3.625
G3 X-2.5 Y0 I-2.875
G3 X1.75 Y0 I2.125
G3 X-1.0 Y0 I-1.375
G3 X0.25 Y0 I0.625
G0 Z30.0
G0 X12.25 Y0
G0 Z27.5
G3 X-11.5 Y0 I-11.875
G3 X10.75 Y0 I11.125
G3 X-10.0 Y0 I-10.375
G3 X9.25 Y0 I9.625
G3 X-8.5 Y0 I-8.875
G3 X7.75 Y0 I8.125
G3 X-7.0 Y0 I-7.375
G3 X6.25 Y0 I6.625
G3 X-5.5 Y0 I-5.875
G3 X4.75 Y0 I5.125
G3 X-4.0 Y0 I-4.375
G3 X3.25 Y0 I3.625
G3 X-2.5 Y0 I-2.875
G3 X1.75 Y0 I2.125
G3 X-1.0 Y0 I-1.375
G3 X0.25 Y0 I0.625
G0 Z29.5
G0 X12.25 Y0
G0 Z27.0
G3 X-11.5 Y0 I-11.875
G3 X10.75 Y0 I11.125
G3 X-10.0 Y0 I-10.375
G3 X9.25 Y0 I9.625
G3 X-8.5 Y0 I-8.875
G3 X7.75 Y0 I8.125
G3 X-7.0 Y0 I-7.375
G3 X6.25 Y0 I6.625
G3 X-5.5 Y0 I-5.875
G3 X4.75 Y0 I5.125
G3 X-4.0 Y0 I-4.375
G3 X3.25 Y0 I3.625
G3 X-2.5 Y0 I-2.875
G3 X1.75 Y0 I2.125
G3 X-1.0 Y0 I-1.375
G3 X0.25 Y0 I0.625
G0 Z29.0
M5
G49
 G0 Z0
G0 X0 Y0
M30
